; generated by Slic3r 0.9.9 on 2014-01-13 at 12:26:58

; layer_height = 0.4
; perimeters = 2
; top_solid_layers = 2
; bottom_solid_layers = 2
; fill_density = 0.75
; perimeter_speed = 90
; infill_speed = 110
; travel_speed = 130
; nozzle_diameter = 0.5
; filament_diameter = 2.89
; extrusion_multiplier = 1
; perimeters extrusion width = 0.50mm
; infill extrusion width = 0.60mm
; solid infill extrusion width = 0.50mm
; top infill extrusion width = 0.43mm
; first layer extrusion width = 0.50mm

G21 ; set units to millimeters
M107
G28 ; home all axes
G90 ; use absolute coordinates
G92 E0
M82 ; use absolute distances for extrusion
G1 F2400.000 E-1.40000
G92 E0
G1 Z0.320 F7800.000
G1 X89.581 Y102.985
G1 F2400.000 E1.40000
G1 X90.001 Y102.625 F3240.000 E1.41349
G1 X90.681 Y102.155 E1.43365
G1 X91.411 Y101.775 E1.45373
G1 X91.931 Y101.565 E1.46741
G1 X92.721 Y101.325 E1.48755
G1 X93.261 Y101.225 E1.50094
G1 X94.011 Y101.125 E1.51940
G1 X94.971 Y101.065 E1.54286
G1 X164.971 Y101.075 E3.25025
G1 X165.891 Y101.135 E3.27273
G1 X166.721 Y101.245 E3.29316
G1 X167.081 Y101.305 E3.30206
G1 X167.801 Y101.475 E3.32010
G1 X168.141 Y101.585 E3.32882
G1 X169.551 Y102.165 E3.36601
G1 X170.381 Y102.625 E3.38915
G1 X170.641 Y102.805 E3.39687
G1 X171.541 Y103.505 E3.42468
G1 X172.051 Y103.955 E3.44127
G1 X172.521 Y104.435 E3.45765
G1 X173.021 Y105.065 E3.47727
G1 X173.541 Y105.785 E3.49893
G1 X173.911 Y106.405 E3.51654
G1 X174.211 Y107.065 E3.53423
G1 X174.591 Y108.015 E3.55918
G1 X194.471 Y161.755 E4.95678
G1 X194.861 Y163.205 E4.99341
G1 X194.961 Y163.645 E5.00441
G1 X195.121 Y164.685 E5.03008
G1 X195.161 Y165.485 E5.04962
G1 X195.161 Y166.515 E5.07474
G1 X195.121 Y167.315 E5.09428
G1 X195.011 Y168.095 E5.11349
G1 X194.831 Y168.925 E5.13421
G1 X194.551 Y169.925 E5.15954
G1 X194.371 Y170.485 E5.17388
G1 X193.991 Y171.405 E5.19816
G1 X193.871 Y171.645 E5.20471
G1 X192.861 Y173.385 E5.25378
G1 X192.171 Y174.295 E5.28163
G1 X192.001 Y174.485 E5.28785
G1 X190.961 Y175.525 E5.32373
G1 X190.521 Y175.935 E5.33840
G1 X189.571 Y176.645 E5.36732
G1 X189.081 Y176.955 E5.38147
G1 X187.971 Y177.585 E5.41260
G1 X187.741 Y177.705 E5.41893
G1 X186.631 Y178.165 E5.44823
G1 X185.071 Y178.605 E5.48777
G1 X184.371 Y178.755 E5.50523
G1 X183.261 Y178.895 E5.53252
G1 X182.991 Y178.905 E5.53911
G1 X181.381 Y178.895 E5.57838
G1 X125.651 Y176.375 E6.93909
G1 X125.171 Y176.335 E6.95084
G1 X123.351 Y176.115 E6.99556
G1 X122.851 Y175.995 E7.00810
G1 X122.211 Y175.805 E7.02438
G1 X121.581 Y175.575 E7.04074
G1 X120.691 Y175.205 E7.06425
G1 X119.961 Y174.855 E7.08400
G1 X119.551 Y174.625 E7.09546
G1 X118.721 Y174.075 E7.11975
G1 X117.961 Y173.495 E7.14307
G1 X117.411 Y173.035 E7.16056
G1 X117.071 Y172.715 E7.17195
G1 X116.341 Y171.905 E7.19854
G1 X115.751 Y171.145 E7.22201
G1 X115.461 Y170.735 E7.23426
G1 X115.201 Y170.345 E7.24569
G1 X114.791 Y169.655 E7.26527
G1 X88.081 Y117.505 E8.69441
G1 X87.831 Y116.955 E8.70914
G1 X87.631 Y116.395 E8.72365
G1 X87.471 Y115.805 E8.73856
G1 X87.371 Y115.215 E8.75315
G1 X87.321 Y114.615 E8.76784
G1 X87.311 Y108.145 E8.92565
G1 X87.331 Y107.595 E8.93908
G1 X87.361 Y107.315 E8.94594
G1 X87.451 Y106.775 E8.95930
G1 X87.581 Y106.235 E8.97284
G1 X87.851 Y105.455 E8.99298
G1 X88.081 Y104.955 E9.00640
G1 X88.351 Y104.475 E9.01983
G1 X88.661 Y104.015 E9.03336
G1 X89.001 Y103.585 E9.04674
G1 X89.527 Y103.037 E9.06526
G1 X89.841 Y103.425 F7800.000
G1 X90.231 Y103.085 F3240.000 E9.07788
G1 X90.661 Y102.765 E9.09096
G1 X90.881 Y102.625 E9.09732
G1 X91.571 Y102.245 E9.11653
G1 X92.061 Y102.045 E9.12944
G1 X92.821 Y101.815 E9.14881
G1 X93.341 Y101.715 E9.16172
G1 X94.051 Y101.625 E9.17918
G1 X94.971 Y101.565 E9.20167
G1 X164.971 Y101.575 E10.90906
G1 X165.821 Y101.635 E10.92984
G1 X166.651 Y101.745 E10.95026
G1 X166.991 Y101.795 E10.95864
G1 X167.651 Y101.955 E10.97521
G1 X168.291 Y102.185 E10.99180
G1 X169.391 Y102.645 E11.02088
G1 X169.701 Y102.805 E11.02939
G1 X170.301 Y103.185 E11.04671
G1 X171.231 Y103.905 E11.07540
G1 X171.711 Y104.315 E11.09080
G1 X172.141 Y104.765 E11.10598
G1 X172.521 Y105.235 E11.12072
G1 X173.131 Y106.065 E11.14584
G1 X173.471 Y106.645 E11.16224
G1 X173.751 Y107.245 E11.17839
G1 X174.131 Y108.185 E11.20312
G1 X194.001 Y161.905 E12.60018
G1 X194.381 Y163.325 E12.63603
G1 X194.521 Y163.995 E12.65273
G1 X194.621 Y164.725 E12.67070
G1 X194.661 Y165.485 E12.68926
G1 X194.661 Y166.515 E12.71439
G1 X194.621 Y167.275 E12.73295
G1 X194.521 Y168.005 E12.75092
G1 X194.351 Y168.785 E12.77039
G1 X193.901 Y170.335 E12.80976
G1 X193.541 Y171.185 E12.83228
G1 X193.421 Y171.425 E12.83882
G1 X192.701 Y172.685 E12.87422
G1 X192.431 Y173.115 E12.88660
G1 X191.791 Y173.955 E12.91236
G1 X191.621 Y174.145 E12.91858
G1 X190.601 Y175.175 E12.95394
G1 X190.181 Y175.555 E12.96775
G1 X189.511 Y176.085 E12.98859
G1 X189.291 Y176.235 E12.99508
G1 X188.831 Y176.525 E13.00835
G1 X187.931 Y177.035 E13.03358
G1 X187.511 Y177.255 E13.04514
G1 X186.481 Y177.685 E13.07237
G1 X185.941 Y177.855 E13.08618
G1 X184.941 Y178.125 E13.11144
G1 X184.271 Y178.265 E13.12814
G1 X183.241 Y178.395 E13.15346
G1 X182.971 Y178.405 E13.16005
G1 X181.411 Y178.395 E13.19810
G1 X125.231 Y175.845 E14.56981
G1 X123.451 Y175.625 E14.61356
G1 X122.981 Y175.515 E14.62533
G1 X122.361 Y175.325 E14.64115
G1 X121.771 Y175.115 E14.65643
G1 X120.881 Y174.745 E14.67993
G1 X120.201 Y174.415 E14.69837
G1 X119.791 Y174.185 E14.70984
G1 X119.031 Y173.685 E14.73203
G1 X118.271 Y173.105 E14.75535
G1 X117.761 Y172.665 E14.77177
G1 X117.421 Y172.345 E14.78316
G1 X116.741 Y171.605 E14.80768
G1 X115.871 Y170.465 E14.84265
G1 X115.611 Y170.075 E14.85409
G1 X115.231 Y169.425 E14.87245
G1 X88.521 Y117.275 E16.30159
G1 X88.291 Y116.765 E16.31524
G1 X88.101 Y116.245 E16.32874
G1 X87.961 Y115.705 E16.34235
G1 X87.861 Y115.155 E16.35598
G1 X87.831 Y114.875 E16.36285
G1 X87.811 Y114.315 E16.37652
G1 X87.811 Y108.145 E16.52701
G1 X87.831 Y107.615 E16.53995
G1 X87.941 Y106.835 E16.55916
G1 X88.001 Y106.575 E16.56567
G1 X88.241 Y105.825 E16.58488
G1 X88.451 Y105.335 E16.59788
G1 X88.691 Y104.875 E16.61054
G1 X89.131 Y104.215 E16.62988
G1 X89.471 Y103.805 E16.64288
G1 X89.788 Y103.478 E16.65398
G1 F2400.000 E15.25398
G92 E0
G1 X160.845 Y124.506 F7800.000
G1 F2400.000 E1.40000
G1 X161.221 Y123.599 F2160.000 E1.42394
G1 X161.817 Y122.823 E1.44781
G1 X162.593 Y122.227 E1.47169
G1 X163.500 Y121.851 E1.49562
G1 X164.455 Y121.725 E1.51911
G1 X167.488 Y121.725 E1.59309
G1 X168.440 Y121.851 E1.61654
G1 X169.345 Y122.227 E1.64042
G1 X170.123 Y122.823 E1.66433
G1 X170.719 Y123.599 E1.68821
G1 X171.095 Y124.506 E1.71215
G1 X171.221 Y125.477 E1.73604
G1 X171.095 Y126.446 E1.75987
G1 X170.719 Y127.353 E1.78381
G1 X170.123 Y128.129 E1.80769
G1 X169.345 Y128.725 E1.83160
G1 X168.440 Y129.101 E1.85549
G1 X167.487 Y129.225 E1.87893
G1 X164.455 Y129.225 E1.95290
G1 X163.500 Y129.101 E1.97639
G1 X162.595 Y128.725 E2.00028
G1 X161.817 Y128.129 E2.02419
G1 X161.221 Y127.353 E2.04806
G1 X160.845 Y126.446 E2.07200
G1 X160.719 Y125.477 E2.09584
G1 X160.836 Y124.580 E2.11790
G1 X160.507 Y124.138 F7800.000
G1 F2400.000 E0.71790
G92 E0
G1 X161.487 Y113.975 F7800.000
G1 F2400.000 E1.40000
G1 X155.023 Y134.975 F3240.000 E1.93593
G1 X143.221 Y134.975 E2.22379
G1 X143.221 Y120.701 E2.57195
G1 X143.276 Y119.845 E2.59288
G1 X143.449 Y118.978 E2.61443
G1 X143.732 Y118.142 E2.63598
G1 X144.122 Y117.352 E2.65746
G1 X144.613 Y116.616 E2.67904
G1 X145.196 Y115.952 E2.70059
G1 X145.860 Y115.369 E2.72215
G1 X146.596 Y114.878 E2.74372
G1 X147.386 Y114.488 E2.76521
G1 X148.222 Y114.205 E2.78675
G1 X149.088 Y114.032 E2.80829
G1 X149.944 Y113.975 E2.82921
G1 X161.412 Y113.975 E3.10892
G1 X160.810 Y114.475 F7800.000
G1 X154.654 Y134.475 F2520.000 E3.61933
G1 X143.721 Y134.475 E3.88599
G1 X143.721 Y120.717 E4.22157
G1 X143.773 Y119.910 E4.24128
G1 X143.933 Y119.108 E4.26124
G1 X144.195 Y118.333 E4.28119
G1 X144.556 Y117.602 E4.30108
G1 X145.010 Y116.921 E4.32105
G1 X145.550 Y116.306 E4.34100
G1 X146.165 Y115.766 E4.36096
G1 X146.846 Y115.312 E4.38093
G1 X147.577 Y114.951 E4.40082
G1 X148.352 Y114.689 E4.42077
G1 X149.154 Y114.529 E4.44072
G1 X149.961 Y114.475 E4.46044
G1 X160.735 Y114.475 E4.72322
G1 X161.300 Y114.574 F7800.000
G1 F2400.000 E3.32322
G92 E0
G1 X155.570 Y149.481 F7800.000
G1 F2400.000 E1.40000
G1 X156.475 Y149.857 F2160.000 E1.42389
G1 X157.253 Y150.453 E1.44779
G1 X157.849 Y151.229 E1.47167
G1 X158.223 Y152.134 E1.49555
G1 X158.351 Y153.105 E1.51944
G1 X158.223 Y154.076 E1.54333
G1 X157.850 Y154.981 E1.56720
G1 X157.253 Y155.759 E1.59112
G1 X156.475 Y156.356 E1.61504
G1 X155.570 Y156.729 E1.63891
G1 X154.615 Y156.855 E1.66239
G1 X151.583 Y156.855 E1.73637
G1 X150.628 Y156.729 E1.75986
G1 X149.723 Y156.355 E1.78374
G1 X148.947 Y155.757 E1.80764
G1 X148.349 Y154.981 E1.83154
G1 X147.975 Y154.076 E1.85542
G1 X147.847 Y153.105 E1.87931
G1 X147.975 Y152.134 E1.90321
G1 X148.351 Y151.229 E1.92710
G1 X148.947 Y150.453 E1.95097
G1 X149.723 Y149.857 E1.97484
G1 X150.628 Y149.481 E1.99873
G1 X151.583 Y149.355 E2.02222
G1 X154.615 Y149.355 E2.09620
G1 X155.496 Y149.472 E2.11787
G1 X155.939 Y149.144 F7800.000
G1 F2400.000 E0.71787
G92 E0
G1 X175.966 Y164.118 F7800.000
G1 F2400.000 E1.40000
G1 X176.581 Y163.314 F2160.000 E1.42470
G1 X177.389 Y162.703 E1.44941
G1 X178.333 Y162.330 E1.47416
G1 X179.320 Y162.225 E1.49837
G1 X182.136 Y162.225 E1.56707
G1 X183.123 Y162.330 E1.59128
G1 X184.067 Y162.703 E1.61602
G1 X184.875 Y163.314 E1.64073
G1 X185.490 Y164.118 E1.66543
G1 X185.870 Y165.059 E1.69018
G1 X185.981 Y166.065 E1.71487
G1 X185.820 Y167.066 E1.73960
G1 X185.398 Y167.988 E1.76433
G1 X184.744 Y168.762 E1.78905
G1 X183.908 Y169.335 E1.81377
G1 X182.947 Y169.661 E1.83851
G1 X181.962 Y169.717 E1.86258
G1 X179.494 Y169.717 E1.92278
G1 X178.509 Y169.661 E1.94685
G1 X177.550 Y169.335 E1.97154
G1 X176.712 Y168.762 E1.99630
G1 X176.058 Y167.988 E2.02102
G1 X175.636 Y167.066 E2.04575
G1 X175.475 Y166.065 E2.07049
G1 X175.588 Y165.059 E2.09517
G1 X175.938 Y164.188 E2.11808
G1 X175.733 Y163.676 F7800.000
G1 X175.527 Y163.869
G1 X175.099 Y164.936 F3240.000 E2.14612
G1 X174.970 Y166.077 E2.17412
G1 X175.153 Y167.213 E2.20219
G1 X175.632 Y168.259 E2.23025
G1 X176.374 Y169.137 E2.25829
G1 X177.325 Y169.786 E2.28637
G1 X178.412 Y170.156 E2.31439
G1 X179.480 Y170.217 E2.34047
G1 X181.976 Y170.217 E2.40137
G1 X183.043 Y170.156 E2.42744
G1 X184.134 Y169.786 E2.45552
G1 X185.082 Y169.137 E2.48357
G1 X185.824 Y168.259 E2.51160
G1 X186.303 Y167.213 E2.53966
G1 X186.486 Y166.077 E2.56770
G1 X186.359 Y164.936 E2.59572
G1 X185.928 Y163.868 E2.62380
G1 X185.231 Y162.956 E2.65181
G1 X184.314 Y162.263 E2.67984
G1 X183.244 Y161.840 E2.70791
G1 X182.163 Y161.725 E2.73442
G1 X179.478 Y161.725 E2.79992
G1 X179.430 Y161.455 E2.80662
G1 X180.439 Y161.095 E2.83274
G1 X181.392 Y160.845 E2.85677
G1 X181.575 Y160.809 E2.86132
G1 X181.761 Y160.799 E2.86588
G1 X182.933 Y160.816 E2.89446
G1 X184.244 Y161.174 E2.92760
G1 X185.416 Y161.860 E2.96073
G1 X186.250 Y162.683 E2.98931
G1 X186.476 Y162.980 E2.99841
G1 X187.047 Y164.003 E3.02698
G1 X187.357 Y165.131 E3.05553
G1 X187.393 Y165.316 E3.06011
G1 X187.402 Y166.486 E3.08866
G1 X187.352 Y166.858 E3.09780
G1 X187.032 Y167.984 E3.12637
G1 X186.350 Y169.159 E3.15950
G1 X185.387 Y170.116 E3.19261
G1 X184.208 Y170.792 E3.22577
G1 X183.079 Y171.104 E3.25433
G1 X182.708 Y171.152 E3.26347
G1 X181.508 Y171.135 E3.29272
G1 X175.304 Y170.374 E3.44519
G1 X169.056 Y169.748 E3.59836
G1 X162.795 Y169.261 E3.75153
G1 X156.525 Y168.912 E3.90469
G1 X150.250 Y168.704 E4.05784
G1 X143.975 Y168.635 E4.21089
G1 X126.005 Y168.634 E4.64922
G1 X124.816 Y168.491 E4.67842
G1 X124.515 Y168.402 E4.68608
G1 X123.701 Y168.064 E4.70758
G1 X123.381 Y167.885 E4.71652
G1 X122.690 Y167.356 E4.73775
G1 X122.420 Y167.105 E4.74673
G1 X121.889 Y166.414 E4.76799
G1 X121.685 Y166.107 E4.77699
G1 X121.225 Y164.959 E4.80715
G1 X121.062 Y163.681 E4.83859
G1 X121.062 Y155.761 E5.03175
G1 X121.096 Y155.490 E5.03843
G1 X121.177 Y155.281 E5.04388
G1 X121.309 Y155.099 E5.04938
G1 X121.482 Y154.955 E5.05486
G1 X121.689 Y154.857 E5.06045
G1 X121.845 Y154.825 E5.06433
G1 X122.132 Y154.826 E5.07131
G1 X122.347 Y154.894 E5.07682
G1 X122.594 Y155.048 E5.08392
G1 X123.493 Y155.708 E5.11112
G1 X124.506 Y156.317 E5.13996
G1 X125.571 Y156.827 E5.16876
G1 X126.679 Y157.234 E5.19756
G1 X127.821 Y157.536 E5.22637
G1 X128.985 Y157.730 E5.25514
G1 X130.164 Y157.815 E5.28399
G1 X131.345 Y157.788 E5.31279
G1 X132.518 Y157.651 E5.34159
G1 X133.673 Y157.404 E5.37041
G1 X134.800 Y157.051 E5.39922
G1 X135.889 Y156.593 E5.42802
G1 X136.930 Y156.035 E5.45683
G1 X137.915 Y155.382 E5.48566
G1 X138.832 Y154.640 E5.51445
G1 X139.678 Y153.815 E5.54326
G1 X140.442 Y152.914 E5.57206
G1 X141.119 Y151.947 E5.60087
G1 X141.701 Y150.918 E5.62970
G1 X142.186 Y149.842 E5.65848
G1 X142.566 Y148.724 E5.68729
G1 X142.841 Y147.575 E5.71611
G1 X143.007 Y146.406 E5.74490
G1 X143.061 Y145.227 E5.77369
G1 X143.007 Y144.047 E5.80252
G1 X142.954 Y143.673 E5.81173
G1 X142.841 Y142.877 E5.83134
G1 X142.566 Y141.728 E5.86014
G1 X142.186 Y140.610 E5.88896
G1 X141.701 Y139.533 E5.91775
G1 X141.120 Y138.505 E5.94656
G1 X140.442 Y137.538 E5.97537
G1 X139.678 Y136.637 E6.00418
G1 X138.832 Y135.812 E6.03298
G1 X137.915 Y135.070 E6.06178
G1 X136.930 Y134.417 E6.09060
G1 X135.889 Y133.859 E6.11942
G1 X134.800 Y133.401 E6.14822
G1 X133.673 Y133.048 E6.17702
G1 X132.518 Y132.801 E6.20584
G1 X131.345 Y132.664 E6.23465
G1 X130.164 Y132.637 E6.26346
G1 X128.985 Y132.721 E6.29228
G1 X127.821 Y132.916 E6.32107
G1 X126.679 Y133.218 E6.34987
G1 X125.571 Y133.625 E6.37867
G1 X124.506 Y134.135 E6.40748
G1 X123.493 Y134.744 E6.43630
G1 X122.594 Y135.405 E6.46352
G1 X122.348 Y135.558 E6.47059
G1 X122.132 Y135.626 E6.47611
G1 X121.907 Y135.639 E6.48159
G1 X121.685 Y135.594 E6.48712
G1 X121.483 Y135.498 E6.49259
G1 X121.309 Y135.354 E6.49809
G1 X121.178 Y135.172 E6.50357
G1 X121.096 Y134.963 E6.50903
G1 X121.062 Y134.690 E6.51573
G1 X121.062 Y120.700 E6.85697
G1 X121.003 Y119.800 E6.87898
G1 X120.821 Y118.889 E6.90163
G1 X120.523 Y118.012 E6.92423
G1 X120.113 Y117.181 E6.94683
G1 X119.598 Y116.409 E6.96947
G1 X118.986 Y115.709 E6.99214
G1 X118.288 Y115.099 E7.01475
G1 X117.517 Y114.583 E7.03738
G1 X116.684 Y114.173 E7.06002
G1 X116.089 Y113.970 E7.07536
G1 X115.806 Y113.875 E7.08265
G1 X114.897 Y113.693 E7.10526
G1 X113.996 Y113.634 E7.12729
G1 X95.061 Y113.634 E7.58913
G1 X95.061 Y108.815 E7.70666
G1 X164.922 Y108.817 E9.41067
G1 X165.598 Y108.907 E9.42729
G1 X166.181 Y109.152 E9.44271
G1 X166.682 Y109.540 E9.45818
G1 X166.797 Y109.691 E9.46281
G1 X167.063 Y110.045 E9.47360
G1 X167.298 Y110.632 E9.48903
G1 X167.388 Y111.407 E9.50805
G1 X170.211 Y122.110 E9.77805
G1 X170.106 Y122.180 E9.78112
G1 X169.597 Y121.790 E9.79676
G1 X168.571 Y121.364 E9.82385
G1 X167.521 Y121.225 E9.84970
G1 X164.422 Y121.225 E9.92529
G1 X163.369 Y121.364 E9.95119
G1 X162.341 Y121.790 E9.97833
G1 X161.460 Y122.466 E10.00541
G1 X160.784 Y123.347 E10.03250
G1 X160.358 Y124.376 E10.05966
G1 X160.215 Y125.477 E10.08675
G1 X160.358 Y126.576 E10.11378
G1 X160.784 Y127.605 E10.14095
G1 X161.460 Y128.486 E10.16804
G1 X162.343 Y129.162 E10.19516
G1 X163.370 Y129.588 E10.22226
G1 X164.422 Y129.725 E10.24816
G1 X165.850 Y129.725 E10.28299
G1 X165.899 Y129.911 E10.28767
G1 X164.764 Y130.544 E10.31936
G1 X163.612 Y131.315 E10.35317
G1 X162.527 Y132.176 E10.38695
G1 X161.514 Y133.122 E10.42077
G1 X160.581 Y134.147 E10.45456
G1 X159.734 Y135.242 E10.48833
G1 X158.977 Y136.402 E10.52213
G1 X158.316 Y137.619 E10.55591
G1 X157.754 Y138.885 E10.58969
G1 X157.297 Y140.195 E10.62353
G1 X156.947 Y141.534 E10.65729
G1 X156.705 Y142.898 E10.69108
G1 X156.574 Y144.276 E10.72486
G1 X156.553 Y145.663 E10.75867
G1 X156.645 Y147.046 E10.79249
G1 X156.847 Y148.414 E10.82623
G1 X157.115 Y149.581 E10.85542
G1 X155.701 Y148.994 E10.89275
G1 X154.648 Y148.855 E10.91866
G1 X151.550 Y148.855 E10.99424
G1 X150.497 Y148.994 E11.02015
G1 X149.470 Y149.420 E11.04725
G1 X148.590 Y150.096 E11.07432
G1 X147.914 Y150.976 E11.10139
G1 X147.488 Y152.003 E11.12849
G1 X147.342 Y153.105 E11.15561
