; generated by Slic3r 0.9.9 on 2014-01-15 at 17:19:39

; layer_height = 0.4
; perimeters = 2
; top_solid_layers = 2
; bottom_solid_layers = 2
; fill_density = 0.75
; perimeter_speed = 90
; infill_speed = 110
; travel_speed = 130
; nozzle_diameter = 0.5
; filament_diameter = 2.89
; extrusion_multiplier = 1
; perimeters extrusion width = 0.50mm
; infill extrusion width = 0.60mm
; solid infill extrusion width = 0.50mm
; top infill extrusion width = 0.43mm
; first layer extrusion width = 0.50mm

G21 ; set units to millimeters
M107
G28 ; home all axes
G90 ; use absolute coordinates
G92 E0
M82 ; use absolute distances for extrusion
G1 F2400.000 E-1.40000
G92 E0
G1 Z0.320 F7800.000
G1 X43.841 Y62.705
G1 F2400.000 E1.40000
G1 X44.771 Y62.095 F3240.000 E1.42713
G1 X45.141 Y61.895 E1.43739
G1 X46.031 Y61.495 E1.46119
G1 X46.541 Y61.305 E1.47446
G1 X47.491 Y61.015 E1.49869
G1 X48.301 Y60.855 E1.51883
G1 X48.741 Y60.795 E1.52966
G1 X49.701 Y60.725 E1.55314
G1 X119.961 Y60.725 E3.26687
G1 X120.801 Y60.775 E3.28739
G1 X121.711 Y60.885 E3.30975
G1 X122.341 Y60.995 E3.32535
G1 X122.961 Y61.155 E3.34097
G1 X123.561 Y61.375 E3.35655
G1 X124.731 Y61.875 E3.38759
G1 X125.061 Y62.035 E3.39653
G1 X125.681 Y62.415 E3.41427
G1 X126.701 Y63.195 E3.44559
G1 X127.261 Y63.665 E3.46342
G1 X127.761 Y64.195 E3.48120
G1 X127.991 Y64.475 E3.49003
G1 X128.711 Y65.415 E3.51891
G1 X128.891 Y65.675 E3.52663
G1 X129.211 Y66.225 E3.54215
G1 X129.351 Y66.505 E3.54978
G1 X129.921 Y67.885 E3.58620
G1 X149.621 Y121.155 E4.97153
G1 X149.951 Y122.155 E4.99721
G1 X150.181 Y123.005 E5.01869
G1 X150.341 Y123.815 E5.03883
G1 X150.461 Y124.745 E5.06170
G1 X150.511 Y125.565 E5.08174
G1 X150.511 Y126.425 E5.10272
G1 X150.461 Y127.245 E5.12275
G1 X150.321 Y128.255 E5.14763
G1 X150.151 Y129.065 E5.16781
G1 X149.941 Y129.835 E5.18728
G1 X149.681 Y130.615 E5.20733
G1 X149.281 Y131.565 E5.23248
G1 X148.911 Y132.295 E5.25244
G1 X148.491 Y133.015 E5.27277
G1 X148.031 Y133.705 E5.29300
G1 X147.411 Y134.515 E5.31788
G1 X146.861 Y135.125 E5.33791
G1 X146.261 Y135.715 E5.35844
G1 X145.641 Y136.255 E5.37849
G1 X144.961 Y136.775 E5.39937
G1 X144.281 Y137.235 E5.41939
G1 X143.421 Y137.725 E5.44354
G1 X142.681 Y138.085 E5.46361
G1 X141.831 Y138.435 E5.48603
G1 X141.051 Y138.695 E5.50608
G1 X140.201 Y138.925 E5.52756
G1 X139.391 Y139.085 E5.54770
G1 X138.541 Y139.195 E5.56861
G1 X137.471 Y139.265 E5.59476
G1 X136.891 Y139.255 E5.60891
G1 X80.201 Y136.685 E6.99307
G1 X78.851 Y136.535 E7.02620
G1 X78.351 Y136.445 E7.03859
G1 X76.761 Y135.985 E7.07897
G1 X76.291 Y135.825 E7.09108
G1 X75.211 Y135.325 E7.12011
G1 X73.701 Y134.465 E7.16249
G1 X73.161 Y134.085 E7.17860
G1 X72.911 Y133.885 E7.18641
G1 X71.631 Y132.695 E7.22903
G1 X71.181 Y132.235 E7.24473
G1 X70.771 Y131.735 E7.26050
G1 X70.581 Y131.465 E7.26855
G1 X69.831 Y130.345 E7.30143
G1 X69.481 Y129.755 E7.31816
G1 X41.181 Y76.835 E8.78193
G1 X40.911 Y76.275 E8.79709
G1 X40.691 Y75.685 E8.81245
G1 X40.521 Y75.085 E8.82766
G1 X40.411 Y74.465 E8.84302
G1 X40.361 Y73.845 E8.85819
G1 X40.351 Y68.915 E8.97844
G1 X40.371 Y68.345 E8.99235
G1 X40.491 Y67.505 E9.01305
G1 X40.711 Y66.685 E9.03376
G1 X41.031 Y65.895 E9.05455
G1 X41.301 Y65.395 E9.06841
G1 X41.601 Y64.915 E9.08221
G1 X42.131 Y64.245 E9.10305
G1 X42.641 Y63.715 E9.12099
G1 X43.411 Y63.035 E9.14605
G1 X43.781 Y62.751 E9.15744
G1 X44.141 Y63.095 F7800.000
G1 X45.011 Y62.535 F3240.000 E9.18268
G1 X45.381 Y62.335 E9.19294
G1 X46.201 Y61.965 E9.21488
G1 X46.711 Y61.775 E9.22815
G1 X47.621 Y61.505 E9.25131
G1 X48.371 Y61.355 E9.26996
G1 X48.811 Y61.295 E9.28079
G1 X49.721 Y61.225 E9.30305
G1 X119.961 Y61.225 E11.01630
G1 X120.741 Y61.275 E11.03536
G1 X121.651 Y61.385 E11.05772
G1 X122.001 Y61.435 E11.06634
G1 X122.701 Y61.595 E11.08386
G1 X123.371 Y61.835 E11.10122
G1 X124.521 Y62.325 E11.13171
G1 X124.821 Y62.475 E11.13989
G1 X125.391 Y62.825 E11.15620
G1 X126.401 Y63.585 E11.18703
G1 X126.911 Y64.025 E11.20346
G1 X127.381 Y64.515 E11.22002
G1 X128.131 Y65.465 E11.24955
G1 X128.531 Y66.045 E11.26673
G1 X128.871 Y66.665 E11.28398
G1 X129.451 Y68.065 E11.32094
G1 X149.151 Y121.335 E12.70627
G1 X149.481 Y122.305 E12.73126
G1 X149.691 Y123.105 E12.75143
G1 X149.851 Y123.915 E12.77157
G1 X149.961 Y124.775 E12.79272
G1 X150.011 Y125.595 E12.81276
G1 X150.011 Y126.395 E12.83227
G1 X149.961 Y127.215 E12.85231
G1 X149.831 Y128.155 E12.87545
G1 X149.661 Y128.965 E12.89564
G1 X149.471 Y129.685 E12.91380
G1 X149.211 Y130.465 E12.93386
G1 X148.841 Y131.345 E12.95714
G1 X148.471 Y132.075 E12.97710
G1 X148.081 Y132.745 E12.99601
G1 X147.621 Y133.435 E13.01624
G1 X147.041 Y134.175 E13.03917
G1 X146.491 Y134.785 E13.05921
G1 X145.931 Y135.335 E13.07835
G1 X145.311 Y135.875 E13.09841
G1 X144.681 Y136.355 E13.11772
G1 X144.001 Y136.815 E13.13775
G1 X143.201 Y137.285 E13.16038
G1 X142.461 Y137.645 E13.18045
G1 X141.681 Y137.965 E13.20102
G1 X140.901 Y138.225 E13.22107
G1 X140.101 Y138.435 E13.24124
G1 X139.291 Y138.595 E13.26138
G1 X138.501 Y138.695 E13.28081
G1 X137.451 Y138.765 E13.30647
G1 X136.921 Y138.755 E13.31940
G1 X80.261 Y136.185 E14.70283
G1 X78.921 Y136.035 E14.73572
G1 X78.461 Y135.955 E14.74711
G1 X78.011 Y135.835 E14.75847
G1 X76.471 Y135.365 E14.79774
G1 X75.451 Y134.895 E14.82514
G1 X74.221 Y134.195 E14.85966
G1 X73.711 Y133.875 E14.87434
G1 X73.471 Y133.695 E14.88166
G1 X73.011 Y133.295 E14.89653
G1 X71.971 Y132.325 E14.93122
G1 X71.551 Y131.905 E14.94570
G1 X71.351 Y131.675 E14.95314
G1 X71.001 Y131.195 E14.96763
G1 X70.251 Y130.075 E15.00050
G1 X69.921 Y129.525 E15.01615
G1 X41.621 Y76.605 E16.47991
G1 X41.371 Y76.075 E16.49421
G1 X41.161 Y75.535 E16.50834
G1 X41.011 Y74.975 E16.52248
G1 X40.911 Y74.405 E16.53659
G1 X40.861 Y73.825 E16.55079
G1 X40.851 Y68.915 E16.67056
G1 X40.871 Y68.355 E16.68422
G1 X40.941 Y67.805 E16.69775
G1 X41.061 Y67.265 E16.71124
G1 X41.331 Y66.475 E16.73160
G1 X41.561 Y65.965 E16.74525
G1 X41.981 Y65.255 E16.76537
G1 X42.311 Y64.805 E16.77898
G1 X43.001 Y64.065 E16.80366
G1 X43.711 Y63.425 E16.82697
G1 X44.081 Y63.141 E16.83837
G1 F2400.000 E15.43837
G92 E0
G1 X115.847 Y84.504 F7800.000
G1 F2400.000 E1.40000
G1 X116.221 Y83.599 F2160.000 E1.42389
G1 X116.818 Y82.822 E1.44778
G1 X117.595 Y82.226 E1.47167
G1 X118.500 Y81.851 E1.49557
G1 X119.454 Y81.725 E1.51905
G1 X122.487 Y81.725 E1.59303
G1 X123.442 Y81.851 E1.61652
G1 X124.347 Y82.226 E1.64041
G1 X124.586 Y82.409 E1.64775
G1 X125.124 Y82.822 E1.66430
G1 X125.720 Y83.599 E1.68819
G1 X126.095 Y84.504 E1.71208
G1 X126.223 Y85.475 E1.73597
G1 X126.095 Y86.446 E1.75986
G1 X125.720 Y87.351 E1.78376
G1 X125.124 Y88.128 E1.80765
G1 X124.347 Y88.724 E1.83154
G1 X123.442 Y89.099 E1.85543
G1 X122.487 Y89.225 E1.87892
G1 X119.454 Y89.225 E1.95289
G1 X118.500 Y89.099 E1.97638
G1 X117.595 Y88.724 E2.00027
G1 X116.818 Y88.128 E2.02416
G1 X116.221 Y87.351 E2.04805
G1 X115.847 Y86.446 E2.07195
G1 X115.719 Y85.475 E2.09584
G1 X115.837 Y84.578 E2.11790
G1 X115.509 Y84.135 F7800.000
G1 F2400.000 E0.71790
G92 E0
G1 X115.225 Y78.074 F7800.000
G1 F2400.000 E1.40000
G1 X110.025 Y94.975 F3240.000 E1.83132
G1 X98.221 Y94.975 E2.11923
G1 X98.221 Y80.700 E2.46740
G1 X98.277 Y79.844 E2.48834
G1 X98.449 Y78.978 E2.50989
G1 X98.733 Y78.141 E2.53143
G1 X99.025 Y77.550 E2.54750
G1 X99.124 Y77.349 E2.55297
G1 X99.614 Y76.615 E2.57451
G1 X100.197 Y75.951 E2.59605
G1 X100.861 Y75.369 E2.61759
G1 X101.595 Y74.878 E2.63913
G1 X102.387 Y74.487 E2.66067
G1 X103.223 Y74.203 E2.68221
G1 X104.090 Y74.031 E2.70376
G1 X104.946 Y73.975 E2.72470
G1 X116.486 Y73.975 E3.00617
G1 X115.247 Y78.002 E3.10894
G1 X114.747 Y77.927 F7800.000
G1 X109.655 Y94.475 F2520.000 E3.53125
G1 X98.721 Y94.475 E3.79796
G1 X98.721 Y80.717 E4.13354
G1 X98.774 Y79.909 E4.15328
G1 X98.933 Y79.107 E4.17323
G1 X99.196 Y78.333 E4.19317
G1 X99.473 Y77.772 E4.20844
G1 X99.558 Y77.600 E4.21311
G1 X100.012 Y76.920 E4.23305
G1 X100.551 Y76.305 E4.25300
G1 X101.166 Y75.766 E4.27294
G1 X101.846 Y75.312 E4.29288
G1 X102.579 Y74.950 E4.31282
G1 X103.353 Y74.687 E4.33277
G1 X104.155 Y74.528 E4.35271
G1 X104.963 Y74.475 E4.37245
G1 X115.809 Y74.475 E4.63702
G1 X114.769 Y77.855 E4.72327
G1 X115.088 Y78.293 F7800.000
G1 F2400.000 E3.32327
G92 E0
G1 X110.571 Y109.480 F7800.000
G1 F2400.000 E1.40000
G1 X111.476 Y109.855 F2160.000 E1.42389
G1 X112.253 Y110.451 E1.44778
G1 X112.849 Y111.228 E1.47167
G1 X113.224 Y112.133 E1.49557
G1 X113.352 Y113.104 E1.51946
G1 X113.224 Y114.075 E1.54335
G1 X112.849 Y114.980 E1.56724
G1 X112.253 Y115.757 E1.59113
G1 X111.476 Y116.354 E1.61502
G1 X110.571 Y116.729 E1.63891
G1 X109.616 Y116.854 E1.66240
G1 X106.583 Y116.854 E1.73638
G1 X105.629 Y116.728 E1.75987
G1 X104.724 Y116.354 E1.78376
G1 X103.947 Y115.757 E1.80766
G1 X103.350 Y114.980 E1.83155
G1 X102.976 Y114.075 E1.85544
G1 X102.848 Y113.104 E1.87933
G1 X102.976 Y112.133 E1.90322
G1 X103.351 Y111.228 E1.92711
G1 X103.947 Y110.451 E1.95100
G1 X104.724 Y109.855 E1.97489
G1 X105.629 Y109.480 E1.99879
G1 X106.584 Y109.354 E2.02227
G1 X109.616 Y109.354 E2.09625
G1 X110.497 Y109.470 E2.11791
G1 X110.940 Y109.142 F7800.000
G1 F2400.000 E0.71791
G92 E0
G1 X130.967 Y124.117 F7800.000
G1 F2400.000 E1.40000
G1 X131.582 Y123.312 F2160.000 E1.42472
G1 X132.391 Y122.701 E1.44944
G1 X133.334 Y122.329 E1.47416
G1 X134.321 Y122.225 E1.49837
G1 X137.138 Y122.225 E1.56708
G1 X138.125 Y122.329 E1.59129
G1 X139.067 Y122.701 E1.61601
G1 X139.876 Y123.312 E1.64073
G1 X140.492 Y124.117 E1.66545
G1 X140.870 Y125.058 E1.69017
G1 X140.982 Y126.065 E1.71489
G1 X140.822 Y127.066 E1.73961
G1 X140.399 Y127.987 E1.76434
G1 X139.745 Y128.761 E1.78906
G1 X138.908 Y129.333 E1.81378
G1 X137.949 Y129.660 E1.83850
G1 X136.964 Y129.716 E1.86256
G1 X134.494 Y129.716 E1.92280
G1 X133.509 Y129.660 E1.94686
G1 X132.550 Y129.333 E1.97158
G1 X131.713 Y128.761 E1.99630
G1 X131.059 Y127.987 E2.02103
G1 X130.637 Y127.066 E2.04575
G1 X130.476 Y126.065 E2.07047
G1 X130.589 Y125.058 E2.09519
G1 X130.939 Y124.187 E2.11808
G1 X130.734 Y123.675 F7800.000
G1 X130.759 Y123.566
G1 X130.528 Y123.868 F3240.000 E2.12733
G1 X130.099 Y124.934 E2.15538
G1 X129.972 Y126.077 E2.18342
G1 X130.154 Y127.212 E2.21147
G1 X130.633 Y128.257 E2.23951
G1 X131.375 Y129.136 E2.26755
G1 X132.324 Y129.784 E2.29560
G1 X133.413 Y130.155 E2.32364
G1 X134.480 Y130.216 E2.34972
G1 X136.978 Y130.216 E2.41065
G1 X138.046 Y130.155 E2.43673
G1 X139.134 Y129.784 E2.46477
G1 X139.447 Y129.570 E2.47403
G1 X140.084 Y129.136 E2.49282
G1 X140.825 Y128.257 E2.52086
G1 X141.305 Y127.212 E2.54890
G1 X141.487 Y126.077 E2.57695
G1 X141.359 Y124.934 E2.60499
G1 X140.930 Y123.868 E2.63303
G1 X140.232 Y122.955 E2.66108
G1 X139.314 Y122.261 E2.68912
G1 X138.245 Y121.839 E2.71716
G1 X137.164 Y121.725 E2.74368
G1 X134.294 Y121.725 E2.81367
G1 X133.398 Y121.819 E2.83567
G1 X133.322 Y121.492 E2.84387
G1 X135.095 Y120.850 E2.88986
G1 X135.821 Y120.608 E2.90852
G1 X136.533 Y120.470 E2.92620
G1 X137.257 Y120.427 E2.94389
G1 X137.980 Y120.478 E2.96158
G1 X138.691 Y120.623 E2.97927
G1 X139.376 Y120.859 E2.99695
G1 X140.025 Y121.183 E3.01464
G1 X140.626 Y121.588 E3.03233
G1 X141.169 Y122.069 E3.05002
G1 X141.645 Y122.616 E3.06770
G1 X141.765 Y122.797 E3.07301
G1 X142.046 Y123.220 E3.08539
G1 X142.364 Y123.872 E3.10308
G1 X142.594 Y124.560 E3.12077
G1 X142.733 Y125.271 E3.13845
G1 X142.778 Y125.995 E3.15614
G1 X142.728 Y126.719 E3.17383
G1 X142.684 Y126.932 E3.17914
G1 X142.584 Y127.429 E3.19152
G1 X142.348 Y128.115 E3.20920
G1 X142.025 Y128.765 E3.22689
G1 X141.621 Y129.366 E3.24458
G1 X141.141 Y129.910 E3.26227
G1 X140.594 Y130.387 E3.27995
G1 X140.413 Y130.507 E3.28526
G1 X139.990 Y130.788 E3.29764
G1 X139.339 Y131.107 E3.31533
G1 X138.652 Y131.338 E3.33302
G1 X137.940 Y131.478 E3.35070
G1 X137.216 Y131.523 E3.36839
G1 X136.465 Y131.472 E3.38677
G1 X130.533 Y130.742 E3.53255
G1 X124.558 Y130.136 E3.67902
G1 X117.733 Y129.598 E3.84601
G1 X111.823 Y129.268 E3.99039
G1 X105.106 Y129.042 E4.15432
G1 X99.247 Y128.976 E4.29725
G1 X80.997 Y128.975 E4.74238
G1 X80.031 Y128.880 E4.76606
G1 X78.993 Y128.568 E4.79250
G1 X77.894 Y127.946 E4.82329
G1 X76.999 Y127.118 E4.85303
G1 X76.308 Y126.090 E4.88325
G1 X75.878 Y124.940 E4.91320
G1 X75.721 Y123.678 E4.94422
G1 X75.721 Y115.760 E5.13734
G1 X75.765 Y115.405 E5.14607
G1 X75.879 Y115.116 E5.15364
G1 X76.061 Y114.865 E5.16121
G1 X76.299 Y114.666 E5.16879
G1 X76.580 Y114.532 E5.17636
G1 X76.884 Y114.472 E5.18393
G1 X77.194 Y114.489 E5.19150
G1 X77.490 Y114.583 E5.19908
G1 X77.809 Y114.781 E5.20823
G1 X78.683 Y115.423 E5.23469
G1 X79.668 Y116.015 E5.26271
G1 X80.705 Y116.511 E5.29074
G1 X81.783 Y116.908 E5.31877
G1 X82.894 Y117.202 E5.34679
G1 X84.027 Y117.390 E5.37482
G1 X85.173 Y117.472 E5.40285
G1 X86.322 Y117.446 E5.43087
G1 X87.463 Y117.313 E5.45890
G1 X88.587 Y117.073 E5.48693
G1 X89.683 Y116.729 E5.51495
G1 X90.743 Y116.283 E5.54298
G1 X91.756 Y115.741 E5.57101
G1 X92.713 Y115.106 E5.59903
G1 X93.607 Y114.384 E5.62706
G1 X94.429 Y113.581 E5.65509
G1 X95.173 Y112.705 E5.68312
G1 X95.831 Y111.763 E5.71114
G1 X96.398 Y110.764 E5.73917
G1 X96.869 Y109.716 E5.76720
G1 X97.239 Y108.628 E5.79522
G1 X97.507 Y107.510 E5.82325
G1 X97.668 Y106.373 E5.85128
G1 X97.722 Y105.225 E5.87930
G1 X97.668 Y104.077 E5.90733
G1 X97.507 Y102.940 E5.93536
G1 X97.239 Y101.822 E5.96338
G1 X96.869 Y100.734 E5.99141
G1 X96.398 Y99.686 E6.01944
G1 X95.831 Y98.687 E6.04746
G1 X95.173 Y97.745 E6.07549
G1 X94.429 Y96.869 E6.10352
G1 X93.607 Y96.066 E6.13154
G1 X92.713 Y95.344 E6.15957
G1 X91.756 Y94.709 E6.18760
G1 X90.979 Y94.293 E6.20908
G1 X90.743 Y94.167 E6.21562
G1 X89.683 Y93.721 E6.24365
G1 X88.587 Y93.377 E6.27168
G1 X87.463 Y93.137 E6.29970
G1 X86.322 Y93.004 E6.32773
G1 X85.173 Y92.978 E6.35576
G1 X84.027 Y93.060 E6.38378
G1 X82.894 Y93.248 E6.41181
G1 X81.783 Y93.542 E6.43984
G1 X80.956 Y93.847 E6.46132
G1 X80.705 Y93.939 E6.46786
G1 X79.668 Y94.435 E6.49589
G1 X78.683 Y95.027 E6.52392
G1 X77.809 Y95.669 E6.55037
G1 X77.490 Y95.867 E6.55953
G1 X77.194 Y95.961 E6.56710
G1 X76.884 Y95.978 E6.57467
G1 X76.580 Y95.918 E6.58225
G1 X76.300 Y95.784 E6.58982
G1 X76.061 Y95.586 E6.59739
G1 X75.879 Y95.334 E6.60497
G1 X75.765 Y95.045 E6.61254
G1 X75.721 Y94.690 E6.62127
G1 X75.721 Y80.700 E6.96249
G1 X75.665 Y79.844 E6.98343
G1 X75.492 Y78.978 E7.00497
G1 X75.208 Y78.141 E7.02651
G1 X74.818 Y77.349 E7.04805
G1 X74.327 Y76.615 E7.06959
G1 X73.745 Y75.951 E7.09113
G1 X73.602 Y75.825 E7.09578
G1 X73.081 Y75.369 E7.11268
G1 X72.347 Y74.878 E7.13422
G1 X71.555 Y74.487 E7.15576
G1 X70.718 Y74.203 E7.17730
G1 X69.852 Y74.031 E7.19884
G1 X68.995 Y73.975 E7.21978
G1 X49.989 Y73.975 E7.68337
G1 X49.761 Y73.964 E7.68893
G1 X49.401 Y73.913 E7.69781
G1 X49.140 Y73.835 E7.70444
G1 X48.439 Y73.502 E7.72339
G1 X48.101 Y73.200 E7.73444
G1 X48.101 Y69.205 E7.83189
G1 X48.515 Y68.895 E7.84451
G1 X48.870 Y68.711 E7.85426
G1 X49.209 Y68.584 E7.86310
G1 X49.401 Y68.537 E7.86791
G1 X49.761 Y68.486 E7.87679
G1 X49.989 Y68.475 E7.88235
G1 X119.922 Y68.475 E9.58810
G1 X120.681 Y68.575 E9.60678
G1 X121.343 Y68.849 E9.62424
G1 X121.911 Y69.285 E9.64171
G1 X121.951 Y69.337 E9.64332
G1 X122.347 Y69.853 E9.65918
G1 X122.621 Y70.515 E9.67665
G1 X122.733 Y71.370 E9.69769
G1 X125.654 Y82.448 E9.97712
G1 X125.549 Y82.518 E9.98020
G1 X124.599 Y81.789 E10.00941
G1 X123.572 Y81.364 E10.03651
G1 X122.520 Y81.225 E10.06241
G1 X119.422 Y81.225 E10.13798
G1 X118.369 Y81.364 E10.16387
G1 X117.343 Y81.789 E10.19097
G1 X116.461 Y82.465 E10.21808
G1 X115.785 Y83.347 E10.24518
G1 X115.359 Y84.373 E10.27228
G1 X115.214 Y85.475 E10.29939
G1 X115.262 Y85.839 E10.30833
G1 X115.359 Y86.577 E10.32649
G1 X115.785 Y87.603 E10.35359
G1 X116.461 Y88.485 E10.38069
G1 X117.343 Y89.161 E10.40780
G1 X118.369 Y89.586 E10.43490
G1 X119.422 Y89.725 E10.46079
G1 X121.547 Y89.725 E10.51264
G1 X121.596 Y89.910 E10.51731
G1 X119.943 Y90.834 E10.56350
G1 X118.815 Y91.590 E10.59662
G1 X117.751 Y92.434 E10.62974
G1 X116.758 Y93.361 E10.66286
G1 X115.844 Y94.364 E10.69599
G1 X115.013 Y95.438 E10.72911
G1 X114.271 Y96.576 E10.76223
G1 X113.623 Y97.769 E10.79535
G1 X113.073 Y99.011 E10.82847
G1 X112.624 Y100.292 E10.86159
G1 X112.280 Y101.606 E10.89472
