; generated by Slic3r 0.9.9 on 2013-11-27 at 09:55:22

; layer_height = 0.25
; perimeters = 3
; top_solid_layers = 3
; bottom_solid_layers = 3
; fill_density = 0.75
; perimeter_speed = 100
; infill_speed = 110
; travel_speed = 155
; nozzle_diameter = 0.35
; filament_diameter = 2.89
; extrusion_multiplier = 1
; perimeters extrusion width = 0.37mm
; infill extrusion width = 0.50mm
; solid infill extrusion width = 0.37mm
; top infill extrusion width = 0.35mm
; first layer extrusion width = 0.37mm

G21 ; set units to millimeters
M107
G28 ; home all axes
G90 ; use absolute coordinates
G92 E0
M82 ; use absolute distances for extrusion
G1 F2400.000 E-1.45000
G92 E0
G1 Z0.300 F9300.000
G1 X89.891 Y103.075
G1 F2400.000 E1.45000
G1 X90.311 Y102.735 F5100.000 E1.45904
G1 X91.001 Y102.285 E1.47282
G1 X91.491 Y102.035 E1.48202
G1 X91.991 Y101.825 E1.49109
G1 X92.771 Y101.595 E1.50469
G1 X93.351 Y101.475 E1.51459
G1 X94.431 Y101.355 E1.53277
G1 X94.761 Y101.345 E1.53829
G1 X164.961 Y101.345 E2.71239
G1 X165.771 Y101.395 E2.72597
G1 X166.601 Y101.495 E2.73995
G1 X166.901 Y101.535 E2.74501
G1 X167.521 Y101.665 E2.75561
G1 X168.111 Y101.855 E2.76597
G1 X169.481 Y102.435 E2.79086
G1 X169.791 Y102.595 E2.79669
G1 X170.381 Y102.965 E2.80834
G1 X170.671 Y103.165 E2.81423
G1 X171.571 Y103.875 E2.83340
G1 X172.041 Y104.315 E2.84417
G1 X172.261 Y104.545 E2.84949
G1 X172.461 Y104.795 E2.85485
G1 X173.081 Y105.615 E2.87204
G1 X173.651 Y106.495 E2.88958
G1 X173.941 Y107.135 E2.90133
G1 X174.251 Y107.895 E2.91506
G1 X194.171 Y161.735 E3.87520
G1 X194.321 Y162.235 E3.88393
G1 X194.671 Y163.605 E3.90758
G1 X194.721 Y163.845 E3.91168
G1 X194.861 Y164.945 E3.93022
G1 X194.871 Y166.525 E3.95665
G1 X194.831 Y167.325 E3.97005
G1 X194.711 Y168.135 E3.98374
G1 X194.571 Y168.775 E3.99470
G1 X194.291 Y169.805 E4.01255
G1 X194.071 Y170.475 E4.02435
G1 X193.621 Y171.495 E4.04299
G1 X192.901 Y172.765 E4.06741
G1 X192.581 Y173.265 E4.07734
G1 X192.081 Y173.945 E4.09145
G1 X191.921 Y174.135 E4.09561
G1 X191.501 Y174.585 E4.10590
G1 X190.321 Y175.725 E4.13335
G1 X189.501 Y176.345 E4.15054
G1 X188.991 Y176.665 E4.16061
G1 X188.071 Y177.195 E4.17837
G1 X187.501 Y177.495 E4.18914
G1 X186.621 Y177.865 E4.20511
G1 X185.971 Y178.065 E4.21648
G1 X184.951 Y178.335 E4.23413
G1 X184.361 Y178.465 E4.24423
G1 X183.261 Y178.605 E4.26278
G1 X183.011 Y178.615 E4.26696
G1 X181.381 Y178.605 E4.29423
G1 X125.661 Y176.095 E5.22710
G1 X125.141 Y176.055 E5.23582
G1 X123.591 Y175.865 E5.26194
G1 X122.861 Y175.705 E5.27444
G1 X122.241 Y175.515 E5.28528
G1 X121.731 Y175.335 E5.29433
G1 X120.821 Y174.965 E5.31076
G1 X119.991 Y174.555 E5.32624
G1 X119.611 Y174.335 E5.33358
G1 X118.911 Y173.865 E5.34769
G1 X118.121 Y173.265 E5.36428
G1 X117.591 Y172.815 E5.37591
G1 X117.271 Y172.515 E5.38324
G1 X116.531 Y171.705 E5.40159
G1 X115.691 Y170.595 E5.42487
G1 X115.441 Y170.225 E5.43234
G1 X115.031 Y169.525 E5.44591
G1 X88.201 Y117.105 E6.43081
G1 X87.981 Y116.565 E6.44056
G1 X87.741 Y115.735 E6.45501
G1 X87.641 Y115.165 E6.46469
G1 X87.591 Y114.585 E6.47443
G1 X87.591 Y107.875 E6.58665
G1 X87.641 Y107.325 E6.59589
G1 X87.731 Y106.785 E6.60505
G1 X87.941 Y105.995 E6.61872
G1 X88.141 Y105.485 E6.62788
G1 X88.371 Y104.995 E6.63693
G1 X88.501 Y104.755 E6.64150
G1 X88.961 Y104.075 E6.65523
G1 X89.491 Y103.455 E6.66887
G1 X89.851 Y103.113 E6.67718
G1 X90.051 Y103.425 F9300.000
G1 X90.461 Y103.085 F5100.000 E6.68609
G1 X91.131 Y102.635 E6.69959
G1 X91.361 Y102.505 E6.70401
G1 X91.841 Y102.285 E6.71284
G1 X92.341 Y102.095 E6.72178
G1 X92.591 Y102.015 E6.72617
G1 X93.421 Y101.835 E6.74038
G1 X94.441 Y101.725 E6.75754
G1 X94.961 Y101.705 E6.76624
G1 X164.961 Y101.705 E7.93700
G1 X165.721 Y101.755 E7.94974
G1 X166.841 Y101.895 E7.96862
G1 X167.711 Y102.105 E7.98359
G1 X168.261 Y102.305 E7.99337
G1 X169.321 Y102.765 E8.01270
G1 X169.611 Y102.915 E8.01816
G1 X170.181 Y103.265 E8.02935
G1 X171.341 Y104.155 E8.05380
G1 X171.781 Y104.565 E8.06386
G1 X172.181 Y105.025 E8.07406
G1 X172.791 Y105.835 E8.09102
G1 X173.161 Y106.385 E8.10210
G1 X173.471 Y106.965 E8.11310
G1 X173.991 Y108.225 E8.13590
G1 X193.821 Y161.855 E9.09222
G1 X193.971 Y162.335 E9.10063
G1 X194.311 Y163.675 E9.12376
G1 X194.361 Y163.915 E9.12786
G1 X194.491 Y164.965 E9.14555
G1 X194.511 Y165.465 E9.15392
G1 X194.511 Y166.525 E9.17165
G1 X194.461 Y167.295 E9.18455
G1 X194.301 Y168.305 E9.20166
G1 X193.931 Y169.705 E9.22588
G1 X193.721 Y170.355 E9.23730
G1 X193.401 Y171.115 E9.25109
G1 X193.121 Y171.665 E9.26142
G1 X192.591 Y172.585 E9.27917
G1 X192.281 Y173.055 E9.28859
G1 X191.641 Y173.895 E9.30625
G1 X191.241 Y174.325 E9.31607
G1 X190.491 Y175.065 E9.33370
G1 X190.071 Y175.445 E9.34317
G1 X189.301 Y176.045 E9.35950
G1 X188.811 Y176.355 E9.36919
G1 X187.891 Y176.885 E9.38695
G1 X187.341 Y177.165 E9.39727
G1 X186.501 Y177.515 E9.41249
G1 X185.881 Y177.705 E9.42334
G1 X184.861 Y177.975 E9.44099
G1 X184.291 Y178.105 E9.45076
G1 X183.241 Y178.235 E9.46846
G1 X182.741 Y178.255 E9.47683
G1 X181.391 Y178.245 E9.49941
G1 X125.671 Y175.735 E10.43228
G1 X125.191 Y175.695 E10.44034
G1 X123.651 Y175.505 E10.46629
G1 X122.961 Y175.355 E10.47810
G1 X122.351 Y175.165 E10.48878
G1 X121.871 Y174.995 E10.49730
G1 X120.961 Y174.625 E10.51373
G1 X120.171 Y174.235 E10.52846
G1 X119.791 Y174.015 E10.53581
G1 X119.131 Y173.575 E10.54908
G1 X118.341 Y172.975 E10.56567
G1 X117.841 Y172.545 E10.57670
G1 X117.521 Y172.245 E10.58403
G1 X116.821 Y171.485 E10.60131
G1 X116.221 Y170.705 E10.61777
G1 X115.751 Y170.015 E10.63174
G1 X115.351 Y169.355 E10.64464
G1 X88.651 Y117.195 E11.62468
G1 X88.401 Y116.645 E11.63478
G1 X88.131 Y115.785 E11.64986
G1 X88.021 Y115.195 E11.65990
G1 X87.961 Y114.595 E11.66998
G1 X87.951 Y108.145 E11.77786
G1 X88.001 Y107.345 E11.79127
G1 X88.091 Y106.825 E11.80009
G1 X88.221 Y106.305 E11.80906
G1 X88.401 Y105.805 E11.81795
G1 X88.621 Y105.315 E11.82693
G1 X88.871 Y104.855 E11.83569
G1 X89.171 Y104.405 E11.84473
G1 X89.671 Y103.795 E11.85792
G1 X90.011 Y103.463 E11.86588
G1 F2400.000 E10.41588
G92 E0
G1 X160.912 Y124.521 F9300.000
G1 F2400.000 E1.45000
M204 S1000
G1 X161.280 Y123.633 F2550.000 E1.46609
G1 X161.866 Y122.870 E1.48217
G1 X162.629 Y122.284 E1.49826
G1 X163.517 Y121.916 E1.51435
G1 X164.459 Y121.792 E1.53023
G1 X167.483 Y121.792 E1.58081
G1 X168.424 Y121.916 E1.59669
G1 X169.313 Y122.284 E1.61278
G1 X170.021 Y122.827 E1.62770
G1 X170.076 Y122.870 E1.62887
G1 X170.662 Y123.633 E1.64495
G1 X171.030 Y124.521 E1.66104
G1 X171.155 Y125.475 E1.67713
G1 X171.030 Y126.429 E1.69321
G1 X170.662 Y127.317 E1.70930
G1 X170.076 Y128.080 E1.72539
G1 X169.313 Y128.666 E1.74147
G1 X168.424 Y129.034 E1.75756
G1 X167.483 Y129.158 E1.77344
G1 X164.459 Y129.158 E1.82402
G1 X163.517 Y129.034 E1.83991
G1 X162.629 Y128.666 E1.85599
G1 X161.866 Y128.080 E1.87208
G1 X161.280 Y127.317 E1.88817
G1 X160.912 Y126.429 E1.90425
G1 X160.786 Y125.475 E1.92034
G1 X160.905 Y124.576 E1.93551
M204 S900
G1 X160.665 Y124.252 F9300.000
G1 F2400.000 E0.48551
G92 E0
G1 X161.250 Y115.302 F9300.000
G1 F2400.000 E1.45000
M204 S1000
G1 X155.146 Y135.139 F5100.000 E1.79714
G1 X143.057 Y135.139 E1.99934
G1 X143.057 Y120.695 E2.24092
G1 X143.114 Y119.822 E2.25554
G1 X143.290 Y118.935 E2.27068
G1 X143.581 Y118.078 E2.28581
G1 X143.981 Y117.267 E2.30094
G1 X144.484 Y116.515 E2.31607
G1 X145.080 Y115.834 E2.33120
G1 X145.760 Y115.238 E2.34633
G1 X146.513 Y114.735 E2.36146
G1 X147.324 Y114.335 E2.37659
G1 X148.181 Y114.044 E2.39173
G1 X149.068 Y113.868 E2.40686
G1 X149.941 Y113.811 E2.42149
G1 X161.709 Y113.811 E2.61830
G1 X161.266 Y115.249 E2.64348
M204 S900
G1 X160.900 Y115.194 F9300.000
M204 S1000
G1 X154.876 Y134.774 F5100.000 E2.98610
G1 X143.422 Y134.774 E3.17766
G1 X143.422 Y120.707 E3.41293
G1 X143.477 Y119.870 E3.42695
G1 X143.644 Y119.030 E3.44128
G1 X143.920 Y118.219 E3.45561
G1 X144.299 Y117.450 E3.46994
G1 X144.775 Y116.738 E3.48427
G1 X145.339 Y116.094 E3.49860
G1 X145.984 Y115.529 E3.51293
G1 X146.696 Y115.053 E3.52726
G1 X147.464 Y114.674 E3.54159
G1 X148.276 Y114.398 E3.55592
G1 X149.116 Y114.231 E3.57025
G1 X149.953 Y114.176 E3.58427
G1 X161.214 Y114.176 E3.77261
G1 X160.917 Y115.142 E3.78950
M204 S900
G1 X160.551 Y115.087 F9300.000
M204 S1000
G1 X154.606 Y134.408 F3570.000 E4.12761
G1 X143.788 Y134.408 E4.30854
G1 X143.788 Y120.719 E4.53748
G1 X143.840 Y119.918 E4.55091
G1 X143.998 Y119.125 E4.56444
G1 X144.258 Y118.359 E4.57797
G1 X144.616 Y117.633 E4.59149
G1 X145.065 Y116.961 E4.60502
G1 X145.599 Y116.353 E4.61855
G1 X146.207 Y115.820 E4.63208
G1 X146.879 Y115.370 E4.64560
G1 X147.628 Y115.005 E4.65953
G1 X148.370 Y114.752 E4.67265
G1 X149.164 Y114.595 E4.68618
G1 X149.965 Y114.542 E4.69961
G1 X160.718 Y114.542 E4.87946
G1 X160.567 Y115.034 E4.88808
M204 S900
G1 X160.800 Y115.355 F9300.000
G1 F2400.000 E3.43808
G92 E0
G1 X155.554 Y149.545 F9300.000
G1 F2400.000 E1.45000
M204 S1000
G1 X156.442 Y149.913 F2550.000 E1.46609
G1 X157.205 Y150.499 E1.48217
G1 X157.791 Y151.262 E1.49826
G1 X158.159 Y152.151 E1.51435
G1 X158.284 Y153.104 E1.53043
G1 X158.159 Y154.058 E1.54652
G1 X157.791 Y154.946 E1.56261
G1 X157.205 Y155.709 E1.57869
G1 X156.442 Y156.295 E1.59478
G1 X155.554 Y156.663 E1.61087
G1 X154.612 Y156.787 E1.62675
G1 X151.588 Y156.787 E1.67733
G1 X150.646 Y156.663 E1.69322
G1 X149.758 Y156.295 E1.70931
G1 X148.994 Y155.709 E1.72539
G1 X148.409 Y154.946 E1.74148
G1 X148.041 Y154.058 E1.75756
G1 X147.915 Y153.104 E1.77365
G1 X148.041 Y152.150 E1.78974
G1 X148.409 Y151.262 E1.80582
G1 X148.995 Y150.499 E1.82191
G1 X149.758 Y149.913 E1.83800
G1 X150.646 Y149.545 E1.85408
G1 X151.588 Y149.421 E1.86997
G1 X154.612 Y149.421 E1.92055
G1 X155.499 Y149.538 E1.93551
M204 S900
G1 X155.823 Y149.298 F9300.000
G1 F2400.000 E0.48551
G92 E0
G1 X175.705 Y163.968 F9300.000
G1 F2400.000 E1.45000
M204 S1000
G1 X176.370 Y163.099 F2550.000 E1.46831
G1 X177.146 Y162.512 E1.48458
G1 X177.244 Y162.439 E1.48662
G1 X178.262 Y162.036 E1.50493
G1 X179.305 Y161.926 E1.52248
G1 X182.153 Y161.926 E1.57012
G1 X183.197 Y162.036 E1.58766
G1 X184.215 Y162.439 E1.60598
G1 X184.312 Y162.512 E1.60802
G1 X185.088 Y163.099 E1.62429
G1 X185.754 Y163.968 E1.64260
G1 X186.162 Y164.984 E1.66091
G1 X186.284 Y166.072 E1.67922
G1 X186.110 Y167.153 E1.69753
G1 X185.653 Y168.148 E1.71585
G1 X184.947 Y168.985 E1.73416
G1 X184.043 Y169.602 E1.75247
G1 X183.007 Y169.955 E1.77078
G1 X181.973 Y170.015 E1.78811
G1 X179.486 Y170.015 E1.82970
G1 X178.452 Y169.955 E1.84702
G1 X177.415 Y169.602 E1.86533
G1 X176.612 Y169.054 E1.88160
G1 X176.511 Y168.985 E1.88364
G1 X175.805 Y168.148 E1.90196
G1 X175.348 Y167.153 E1.92027
G1 X175.175 Y166.072 E1.93858
G1 X175.296 Y164.984 E1.95689
G1 X175.684 Y164.019 E1.97428
M204 S900
G1 X176.026 Y164.151 F9300.000
M204 S1000
G1 X176.630 Y163.360 F2550.000 E1.99093
G1 X177.367 Y162.804 E2.00637
G1 X177.424 Y162.761 E2.00757
G1 X178.350 Y162.395 E2.02422
G1 X179.324 Y162.292 E2.04061
G1 X182.134 Y162.292 E2.08760
G1 X183.109 Y162.395 E2.10399
G1 X184.034 Y162.761 E2.12064
G1 X184.092 Y162.804 E2.12184
G1 X184.828 Y163.360 E2.13728
G1 X185.433 Y164.151 E2.15393
G1 X185.804 Y165.074 E2.17057
G1 X185.915 Y166.063 E2.18722
G1 X185.757 Y167.046 E2.20386
G1 X185.342 Y167.951 E2.22051
G1 X184.700 Y168.711 E2.23715
G1 X183.878 Y169.272 E2.25380
G1 X182.936 Y169.593 E2.27044
G1 X181.962 Y169.649 E2.28676
G1 X179.496 Y169.649 E2.32800
G1 X178.522 Y169.593 E2.34431
G1 X177.580 Y169.272 E2.36096
G1 X176.818 Y168.752 E2.37640
G1 X176.758 Y168.711 E2.37760
G1 X176.117 Y167.951 E2.39425
G1 X175.702 Y167.046 E2.41089
G1 X175.544 Y166.063 E2.42754
G1 X175.654 Y165.074 E2.44418
G1 X176.005 Y164.202 E2.45991
M204 S900
G1 X175.855 Y163.827 F9300.000
G1 F2400.000 E1.00991
G92 E0
G1 X180.284 Y161.560 F9300.000
G1 F2400.000 E1.45000
M204 S1000
G1 X180.254 Y161.323 F2550.000 E1.45400
G1 X181.443 Y161.011 E1.47457
G1 X181.754 Y160.972 E1.47981
G1 X182.910 Y160.988 E1.49915
G1 X184.177 Y161.333 E1.52111
G1 X185.311 Y161.995 E1.54307
G1 X186.132 Y162.809 E1.56241
G1 X186.322 Y163.059 E1.56766
G1 X186.887 Y164.067 E1.58699
G1 X187.192 Y165.182 E1.60633
G1 X187.232 Y165.494 E1.61158
G1 X187.218 Y166.650 E1.63091
G1 X186.873 Y167.917 E1.65287
G1 X186.301 Y168.921 E1.67221
G1 X186.109 Y169.170 E1.67746
G1 X185.282 Y169.977 E1.69679
G1 X184.143 Y170.631 E1.71875
G1 X183.028 Y170.937 E1.73809
G1 X182.717 Y170.977 E1.74334
G1 X181.526 Y170.962 E1.76326
G1 X179.246 Y170.682 E1.80169
G1 X179.264 Y170.381 E1.80674
G1 X181.983 Y170.381 E1.85222
G1 X183.077 Y170.318 E1.87055
G1 X184.208 Y169.933 E1.89053
G1 X185.195 Y169.259 E1.91051
G1 X185.965 Y168.346 E1.93049
G1 X186.463 Y167.260 E1.95047
G1 X186.653 Y166.081 E1.97044
G1 X186.520 Y164.894 E1.99042
G1 X186.074 Y163.786 E2.01040
G1 X185.349 Y162.837 E2.03038
G1 X184.396 Y162.117 E2.05036
G1 X183.285 Y161.678 E2.07033
G1 X182.173 Y161.560 E2.08904
G1 X180.339 Y161.560 E2.11970
M204 S900
G1 F2400.000 E0.66970
G92 E0
G1 X176.535 Y162.516 F9300.000
G1 F2400.000 E1.45000
M204 S1000
G1 X176.110 Y162.837 F5100.000 E1.45891
G1 X175.384 Y163.786 E1.47889
G1 X174.939 Y164.894 E1.49887
G1 X174.806 Y166.081 E1.51884
G1 X174.995 Y167.260 E1.53882
G1 X175.493 Y168.346 E1.55880
G1 X176.264 Y169.259 E1.57878
G1 X177.250 Y169.933 E1.59876
G1 X178.363 Y170.312 E1.61842
G1 X178.304 Y170.567 E1.62280
G1 X175.324 Y170.201 E1.67301
G1 X169.072 Y169.575 E1.77811
G1 X162.808 Y169.088 E1.88320
G1 X156.534 Y168.739 E1.98829
G1 X150.254 Y168.530 E2.09338
G1 X143.976 Y168.461 E2.19839
G1 X126.012 Y168.461 E2.49884
G1 X124.845 Y168.318 E2.51850
G1 X124.584 Y168.241 E2.52305
G1 X123.765 Y167.902 E2.53788
G1 X123.485 Y167.746 E2.54323
G1 X122.790 Y167.212 E2.55789
G1 X122.553 Y166.993 E2.56329
G1 X122.020 Y166.298 E2.57794
G1 X121.841 Y166.030 E2.58333
G1 X121.394 Y164.919 E2.60336
G1 X121.235 Y163.671 E2.62440
G1 X121.235 Y155.770 E2.75654
G1 X121.265 Y155.533 E2.76055
G1 X121.332 Y155.364 E2.76359
G1 X121.438 Y155.216 E2.76663
G1 X121.578 Y155.100 E2.76967
G1 X121.742 Y155.021 E2.77271
G1 X121.920 Y154.986 E2.77575
G1 X122.102 Y154.996 E2.77879
G1 X122.275 Y155.051 E2.78183
G1 X122.497 Y155.189 E2.78620
G1 X123.398 Y155.852 E2.80491
G1 X124.425 Y156.468 E2.82493
G1 X125.505 Y156.985 E2.84496
G1 X126.628 Y157.398 E2.86498
G1 X127.786 Y157.705 E2.88501
G1 X128.967 Y157.901 E2.90503
G1 X130.161 Y157.987 E2.92506
G1 X131.358 Y157.959 E2.94508
G1 X132.547 Y157.820 E2.96511
G1 X133.718 Y157.570 E2.98513
G1 X134.860 Y157.212 E3.00516
G1 X135.964 Y156.748 E3.02518
G1 X136.287 Y156.575 E3.03131
G1 X137.020 Y156.182 E3.04521
G1 X138.017 Y155.521 E3.06523
G1 X138.949 Y154.768 E3.08526
G1 X139.806 Y153.932 E3.10528
G1 X140.580 Y153.019 E3.12531
G1 X140.790 Y152.719 E3.13144
G1 X141.266 Y152.038 E3.14533
G1 X141.857 Y150.996 E3.16536
G1 X142.348 Y149.904 E3.18538
G1 X142.734 Y148.771 E3.20541
G1 X143.012 Y147.606 E3.22543
G1 X143.180 Y146.421 E3.24546
G1 X143.236 Y145.225 E3.26548
G1 X143.180 Y144.029 E3.28551
G1 X143.012 Y142.844 E3.30553
G1 X142.734 Y141.679 E3.32556
G1 X142.348 Y140.546 E3.34558
G1 X141.857 Y139.454 E3.36561
G1 X141.266 Y138.412 E3.38563
G1 X140.580 Y137.431 E3.40566
G1 X140.043 Y136.797 E3.41955
G1 X139.806 Y136.518 E3.42568
G1 X138.949 Y135.682 E3.44571
G1 X138.017 Y134.929 E3.46573
G1 X137.020 Y134.268 E3.48576
G1 X135.964 Y133.702 E3.50578
G1 X134.860 Y133.238 E3.52581
G1 X134.511 Y133.128 E3.53194
G1 X133.718 Y132.880 E3.54583
G1 X132.547 Y132.630 E3.56586
G1 X131.358 Y132.491 E3.58588
G1 X130.161 Y132.463 E3.60591
G1 X128.967 Y132.549 E3.62593
G1 X127.786 Y132.745 E3.64596
G1 X126.628 Y133.052 E3.66598
G1 X125.505 Y133.465 E3.68601
G1 X124.425 Y133.982 E3.70603
G1 X123.398 Y134.598 E3.72606
G1 X122.497 Y135.261 E3.74477
G1 X122.275 Y135.399 E3.74913
G1 X122.067 Y135.456 E3.75274
G1 X121.920 Y135.464 E3.75520
G1 X121.742 Y135.429 E3.75824
G1 X121.578 Y135.350 E3.76128
G1 X121.438 Y135.234 E3.76432
G1 X121.332 Y135.086 E3.76736
G1 X121.265 Y134.917 E3.77040
G1 X121.235 Y134.680 E3.77441
G1 X121.235 Y120.695 E4.00830
G1 X121.175 Y119.777 E4.02370
G1 X120.989 Y118.844 E4.03960
G1 X120.684 Y117.944 E4.05549
G1 X120.264 Y117.092 E4.07139
G1 X119.736 Y116.302 E4.08729
