; generated by Slic3r 0.9.9 on 2013-11-26 at 09:04:56

; layer_height = 0.4
; perimeters = 2
; top_solid_layers = 2
; bottom_solid_layers = 2
; fill_density = 0.75
; perimeter_speed = 90
; infill_speed = 110
; travel_speed = 130
; nozzle_diameter = 0.5
; filament_diameter = 2.89
; extrusion_multiplier = 1
; perimeters extrusion width = 0.50mm
; infill extrusion width = 0.60mm
; solid infill extrusion width = 0.50mm
; top infill extrusion width = 0.43mm
; first layer extrusion width = 0.50mm

G21 ; set units to millimeters
M107
G28 ; home all axes
G90 ; use absolute coordinates
G92 E0
M82 ; use absolute distances for extrusion
G1 F2400.000 E-1.40000
G92 E0
G1 Z0.320 F7800.000
G1 X45.241 Y62.445
G1 F2400.000 E1.40000
G1 X45.941 Y61.995 F3240.000 E1.42030
G1 X46.691 Y61.645 E1.44048
G1 X47.211 Y61.455 E1.45399
G1 X47.481 Y61.375 E1.46086
G1 X48.341 Y61.195 E1.48229
G1 X49.421 Y61.075 E1.50879
G1 X49.751 Y61.065 E1.51685
G1 X119.961 Y61.065 E3.22936
G1 X120.801 Y61.115 E3.24988
G1 X121.631 Y61.215 E3.27027
G1 X122.281 Y61.325 E3.28635
G1 X122.611 Y61.405 E3.29463
G1 X123.241 Y61.605 E3.31076
G1 X124.321 Y62.065 E3.33939
G1 X124.651 Y62.215 E3.34823
G1 X125.291 Y62.565 E3.36602
G1 X125.881 Y62.985 E3.38369
G1 X126.531 Y63.495 E3.40384
G1 X127.041 Y63.945 E3.42043
G1 X127.511 Y64.425 E3.43682
G1 X128.461 Y65.655 E3.47472
G1 X128.801 Y66.195 E3.49029
G1 X129.091 Y66.755 E3.50567
G1 X129.601 Y68.005 E3.53860
G1 X149.311 Y121.285 E4.92424
G1 X149.491 Y121.835 E4.93835
G1 X149.851 Y123.175 E4.97220
G1 X150.021 Y123.895 E4.99024
G1 X150.121 Y124.685 E5.00966
G1 X150.151 Y125.475 E5.02895
G1 X150.151 Y126.505 E5.05407
G1 X150.111 Y127.305 E5.07361
G1 X150.001 Y128.085 E5.09282
G1 X149.831 Y128.865 E5.11229
G1 X149.561 Y129.855 E5.13732
G1 X149.311 Y130.635 E5.15730
G1 X148.981 Y131.395 E5.17751
G1 X148.671 Y131.985 E5.19377
G1 X148.161 Y132.875 E5.21879
G1 X147.721 Y133.555 E5.23854
G1 X147.271 Y134.145 E5.25664
G1 X146.691 Y134.795 E5.27789
G1 X145.961 Y135.515 E5.30290
G1 X145.571 Y135.865 E5.31568
G1 X144.781 Y136.485 E5.34017
G1 X144.561 Y136.635 E5.34667
G1 X144.101 Y136.925 E5.35993
G1 X143.211 Y137.435 E5.38495
G1 X142.621 Y137.745 E5.40121
G1 X141.621 Y138.155 E5.42757
G1 X141.371 Y138.235 E5.43397
G1 X140.091 Y138.585 E5.46634
G1 X139.571 Y138.705 E5.47936
G1 X139.311 Y138.755 E5.48582
G1 X138.251 Y138.885 E5.51186
G1 X137.981 Y138.895 E5.51845
G1 X136.391 Y138.885 E5.55724
G1 X80.651 Y136.375 E6.91818
G1 X80.101 Y136.335 E6.93163
G1 X78.801 Y136.175 E6.96358
G1 X77.651 Y135.925 E6.99229
G1 X77.251 Y135.805 E7.00247
G1 X76.571 Y135.565 E7.02006
G1 X75.681 Y135.195 E7.04357
G1 X74.951 Y134.845 E7.06332
G1 X74.541 Y134.615 E7.07478
G1 X73.711 Y134.065 E7.09907
G1 X72.951 Y133.485 E7.12239
G1 X72.401 Y133.025 E7.13988
G1 X72.061 Y132.705 E7.15127
G1 X71.331 Y131.895 E7.17786
G1 X70.741 Y131.135 E7.20133
G1 X70.451 Y130.725 E7.21358
G1 X70.191 Y130.335 E7.22501
G1 X69.781 Y129.645 E7.24459
G1 X43.081 Y77.495 E8.67362
G1 X42.831 Y76.945 E8.68835
G1 X42.621 Y76.385 E8.70294
G1 X42.471 Y75.795 E8.71779
G1 X42.371 Y75.205 E8.73239
G1 X42.321 Y74.605 E8.74707
G1 X42.311 Y68.135 E8.90488
G1 X42.331 Y67.585 E8.91831
G1 X42.401 Y67.035 E8.93183
G1 X42.511 Y66.485 E8.94551
G1 X42.751 Y65.695 E8.96565
G1 X43.081 Y64.935 E8.98586
G1 X43.361 Y64.455 E8.99941
G1 X43.511 Y64.215 E9.00632
G1 X44.011 Y63.555 E9.02651
G1 X44.591 Y62.965 E9.04669
G1 X45.180 Y62.489 E9.06517
G1 X45.461 Y62.895 F7800.000
G1 X45.901 Y62.605 F3240.000 E9.07802
G1 X46.361 Y62.345 E9.09091
G1 X46.841 Y62.125 E9.10379
G1 X47.341 Y61.945 E9.11675
G1 X47.851 Y61.805 E9.12965
G1 X48.431 Y61.685 E9.14410
G1 X49.431 Y61.575 E9.16864
G1 X49.761 Y61.565 E9.17669
G1 X119.961 Y61.565 E10.88896
G1 X120.741 Y61.615 E10.90802
G1 X121.571 Y61.715 E10.92841
G1 X121.871 Y61.755 E10.93579
G1 X122.481 Y61.885 E10.95101
G1 X123.061 Y62.075 E10.96589
G1 X124.431 Y62.665 E11.00228
G1 X124.731 Y62.815 E11.01046
G1 X125.301 Y63.175 E11.02690
G1 X126.221 Y63.895 E11.05540
G1 X126.701 Y64.305 E11.07079
G1 X127.131 Y64.755 E11.08598
G1 X127.881 Y65.705 E11.11550
G1 X128.281 Y66.295 E11.13288
G1 X128.451 Y66.595 E11.14129
G1 X128.751 Y67.235 E11.15854
G1 X129.131 Y68.175 E11.18327
G1 X148.841 Y121.455 E12.56890
G1 X149.011 Y121.985 E12.58248
G1 X149.371 Y123.305 E12.61585
G1 X149.571 Y124.235 E12.63906
G1 X149.601 Y124.475 E12.64496
G1 X149.651 Y125.225 E12.66329
G1 X149.651 Y126.505 E12.69451
G1 X149.611 Y127.265 E12.71307
G1 X149.511 Y127.995 E12.73105
G1 X149.351 Y128.735 E12.74951
G1 X149.081 Y129.725 E12.77454
G1 X148.841 Y130.465 E12.79352
G1 X148.531 Y131.175 E12.81241
G1 X148.241 Y131.735 E12.82779
G1 X147.731 Y132.625 E12.85281
G1 X147.311 Y133.275 E12.87169
G1 X146.891 Y133.825 E12.88857
G1 X146.331 Y134.445 E12.90895
G1 X145.251 Y135.485 E12.94552
G1 X144.501 Y136.075 E12.96879
G1 X144.281 Y136.225 E12.97529
G1 X143.851 Y136.495 E12.98767
G1 X142.961 Y137.005 E13.01269
G1 X142.401 Y137.295 E13.02807
G1 X141.471 Y137.675 E13.05258
G1 X140.951 Y137.835 E13.06585
G1 X139.961 Y138.105 E13.09088
G1 X139.221 Y138.265 E13.10935
G1 X138.231 Y138.385 E13.13367
G1 X137.961 Y138.395 E13.14026
G1 X136.411 Y138.385 E13.17807
G1 X80.671 Y135.875 E14.53901
G1 X80.171 Y135.835 E14.55125
G1 X78.871 Y135.675 E14.58320
G1 X77.791 Y135.455 E14.61008
G1 X77.391 Y135.335 E14.62027
G1 X76.761 Y135.105 E14.63662
G1 X75.871 Y134.735 E14.66013
G1 X75.191 Y134.405 E14.67857
G1 X74.781 Y134.175 E14.69004
G1 X74.021 Y133.675 E14.71223
G1 X73.261 Y133.095 E14.73554
G1 X72.751 Y132.655 E14.75197
G1 X72.411 Y132.335 E14.76336
G1 X71.731 Y131.595 E14.78788
G1 X70.861 Y130.455 E14.82285
G1 X70.601 Y130.065 E14.83429
G1 X70.221 Y129.415 E14.85265
G1 X43.521 Y77.265 E16.28168
G1 X43.291 Y76.755 E16.29532
G1 X43.101 Y76.235 E16.30883
G1 X42.961 Y75.695 E16.32243
G1 X42.861 Y75.145 E16.33607
G1 X42.831 Y74.865 E16.34294
G1 X42.811 Y74.305 E16.35661
G1 X42.811 Y68.135 E16.50710
G1 X42.831 Y67.605 E16.52004
G1 X42.941 Y66.815 E16.53949
G1 X43.071 Y66.305 E16.55233
G1 X43.341 Y65.555 E16.57177
G1 X43.571 Y65.085 E16.58454
G1 X43.841 Y64.625 E16.59755
G1 X44.141 Y64.195 E16.61033
G1 X44.481 Y63.785 E16.62333
G1 X44.851 Y63.405 E16.63626
G1 X45.401 Y62.940 E16.65383
G1 F2400.000 E15.25383
G92 E0
G1 X115.847 Y84.504 F7800.000
G1 F2400.000 E1.40000
G1 X116.221 Y83.599 F2160.000 E1.42389
G1 X116.818 Y82.822 E1.44778
G1 X117.595 Y82.226 E1.47167
G1 X118.500 Y81.851 E1.49557
G1 X119.454 Y81.725 E1.51905
G1 X122.487 Y81.725 E1.59303
G1 X123.442 Y81.851 E1.61652
G1 X124.347 Y82.226 E1.64041
G1 X125.059 Y82.772 E1.66231
G1 X125.124 Y82.822 E1.66430
G1 X125.720 Y83.599 E1.68819
G1 X126.095 Y84.504 E1.71208
G1 X126.223 Y85.475 E1.73597
G1 X126.095 Y86.446 E1.75986
G1 X125.720 Y87.351 E1.78376
G1 X125.124 Y88.128 E1.80765
G1 X124.347 Y88.724 E1.83154
G1 X123.442 Y89.099 E1.85543
G1 X122.487 Y89.225 E1.87892
G1 X119.454 Y89.225 E1.95289
G1 X118.500 Y89.099 E1.97638
G1 X117.595 Y88.724 E2.00027
G1 X116.818 Y88.128 E2.02416
G1 X116.221 Y87.351 E2.04805
G1 X115.847 Y86.446 E2.07195
G1 X115.719 Y85.475 E2.09584
G1 X115.837 Y84.578 E2.11790
G1 X115.509 Y84.135 F7800.000
G1 F2400.000 E0.71790
G92 E0
G1 X116.087 Y75.274 F7800.000
G1 F2400.000 E1.40000
G1 X110.025 Y94.975 F3240.000 E1.90277
G1 X98.221 Y94.975 E2.19068
G1 X98.221 Y80.701 E2.53885
G1 X98.277 Y79.844 E2.55979
G1 X98.449 Y78.978 E2.58134
G1 X98.733 Y78.141 E2.60288
G1 X99.096 Y77.405 E2.62290
G1 X99.614 Y76.615 E2.64595
G1 X100.197 Y75.951 E2.66749
G1 X100.861 Y75.369 E2.68903
G1 X101.595 Y74.878 E2.71057
G1 X102.387 Y74.487 E2.73211
G1 X103.223 Y74.203 E2.75365
G1 X104.090 Y74.031 E2.77519
G1 X104.946 Y73.975 E2.79613
G1 X116.486 Y73.975 E3.07761
G1 X116.109 Y75.202 E3.10893
G1 X115.609 Y75.127 F7800.000
G1 X109.655 Y94.475 F2520.000 E3.60269
G1 X98.721 Y94.475 E3.86940
G1 X98.721 Y80.717 E4.20498
G1 X98.774 Y79.909 E4.22472
G1 X98.933 Y79.107 E4.24466
G1 X99.196 Y78.333 E4.26461
G1 X99.558 Y77.600 E4.28455
G1 X100.012 Y76.920 E4.30449
G1 X100.551 Y76.305 E4.32443
G1 X101.166 Y75.766 E4.34438
G1 X101.846 Y75.312 E4.36432
G1 X102.579 Y74.950 E4.38426
G1 X103.353 Y74.687 E4.40420
G1 X104.155 Y74.528 E4.42415
G1 X104.963 Y74.475 E4.44389
G1 X115.809 Y74.475 E4.70845
G1 X115.631 Y75.055 E4.72326
G1 X115.949 Y75.493 F7800.000
G1 F2400.000 E3.32326
G92 E0
G1 X110.571 Y109.480 F7800.000
G1 F2400.000 E1.40000
G1 X111.476 Y109.855 F2160.000 E1.42389
G1 X112.253 Y110.451 E1.44778
G1 X112.849 Y111.228 E1.47167
G1 X113.224 Y112.133 E1.49557
G1 X113.352 Y113.104 E1.51946
G1 X113.224 Y114.075 E1.54335
G1 X112.849 Y114.980 E1.56724
G1 X112.253 Y115.757 E1.59113
G1 X111.476 Y116.354 E1.61502
G1 X110.571 Y116.729 E1.63891
G1 X109.616 Y116.854 E1.66240
G1 X106.583 Y116.854 E1.73638
G1 X105.629 Y116.728 E1.75987
G1 X104.724 Y116.354 E1.78376
G1 X103.947 Y115.757 E1.80766
G1 X103.350 Y114.980 E1.83155
G1 X103.319 Y114.905 E1.83354
G1 X102.976 Y114.075 E1.85544
G1 X102.848 Y113.104 E1.87933
G1 X102.976 Y112.133 E1.90322
G1 X103.351 Y111.228 E1.92711
G1 X103.947 Y110.451 E1.95100
G1 X104.724 Y109.855 E1.97489
G1 X105.629 Y109.480 E1.99879
G1 X106.584 Y109.354 E2.02227
G1 X109.616 Y109.354 E2.09625
G1 X110.497 Y109.470 E2.11791
G1 X110.940 Y109.142 F7800.000
G1 F2400.000 E0.71791
G92 E0
G1 X130.967 Y124.117 F7800.000
G1 F2400.000 E1.40000
G1 X131.582 Y123.312 F2160.000 E1.42472
G1 X132.391 Y122.701 E1.44944
G1 X133.334 Y122.329 E1.47416
G1 X134.321 Y122.225 E1.49837
G1 X137.138 Y122.225 E1.56708
G1 X138.125 Y122.329 E1.59129
G1 X139.067 Y122.701 E1.61601
G1 X139.135 Y122.752 E1.61807
G1 X139.876 Y123.312 E1.64073
G1 X140.492 Y124.117 E1.66545
G1 X140.870 Y125.058 E1.69017
G1 X140.982 Y126.065 E1.71489
G1 X140.822 Y127.066 E1.73961
G1 X140.399 Y127.987 E1.76434
G1 X139.745 Y128.761 E1.78906
G1 X138.908 Y129.333 E1.81378
G1 X137.949 Y129.660 E1.83850
G1 X136.964 Y129.716 E1.86256
G1 X134.494 Y129.716 E1.92280
G1 X133.509 Y129.660 E1.94686
G1 X132.550 Y129.333 E1.97158
G1 X131.713 Y128.761 E1.99630
G1 X131.059 Y127.987 E2.02102
G1 X130.637 Y127.066 E2.04575
G1 X130.476 Y126.065 E2.07047
G1 X130.589 Y125.058 E2.09519
G1 X130.939 Y124.187 E2.11808
G1 X130.734 Y123.675 F7800.000
G1 X130.528 Y123.868
G1 X130.099 Y124.934 F3240.000 E2.14612
G1 X129.972 Y126.077 E2.17417
G1 X129.996 Y126.228 E2.17789
G1 X130.154 Y127.212 E2.20221
G1 X130.633 Y128.257 E2.23025
G1 X131.375 Y129.136 E2.25830
G1 X132.324 Y129.784 E2.28634
G1 X133.413 Y130.155 E2.31438
G1 X134.480 Y130.216 E2.34046
G1 X136.978 Y130.216 E2.40140
G1 X138.046 Y130.155 E2.42747
G1 X139.134 Y129.784 E2.45552
G1 X139.958 Y129.222 E2.47984
G1 X140.084 Y129.136 E2.48356
G1 X140.825 Y128.257 E2.51160
G1 X141.305 Y127.212 E2.53965
G1 X141.487 Y126.077 E2.56769
G1 X141.359 Y124.934 E2.59574
G1 X140.930 Y123.868 E2.62378
G1 X140.232 Y122.955 E2.65182
G1 X139.436 Y122.353 E2.67614
G1 X139.314 Y122.261 E2.67987
G1 X138.245 Y121.839 E2.70791
G1 X137.164 Y121.725 E2.73443
G1 X134.474 Y121.725 E2.80005
G1 X134.426 Y121.454 E2.80675
G1 X135.442 Y121.093 E2.83304
G1 X136.389 Y120.844 E2.85694
G1 X136.765 Y120.796 E2.86618
G1 X137.934 Y120.815 E2.89470
G1 X139.245 Y121.172 E2.92783
G1 X140.418 Y121.857 E2.96097
G1 X141.250 Y122.678 E2.98949
G1 X141.479 Y122.980 E2.99873
G1 X142.049 Y124.001 E3.02724
G1 X142.359 Y125.128 E3.05576
G1 X142.407 Y125.504 E3.06500
G1 X142.391 Y126.673 E3.09352
G1 X142.035 Y127.984 E3.12666
G1 X141.352 Y129.158 E3.15979
G1 X140.388 Y130.116 E3.19293
G1 X139.210 Y130.792 E3.22606
G1 X138.083 Y131.104 E3.25458
G1 X137.707 Y131.152 E3.26382
G1 X136.509 Y131.135 E3.29304
G1 X130.305 Y130.375 E3.44551
G1 X124.057 Y129.749 E3.59867
G1 X117.796 Y129.262 E3.75184
G1 X111.526 Y128.914 E3.90501
G1 X105.250 Y128.705 E4.05817
G1 X98.975 Y128.635 E4.21124
G1 X81.005 Y128.635 E4.64956
G1 X79.818 Y128.491 E4.67871
G1 X79.511 Y128.401 E4.68651
G1 X78.703 Y128.066 E4.70786
G1 X78.379 Y127.885 E4.71691
G1 X77.692 Y127.358 E4.73803
G1 X77.417 Y127.104 E4.74715
G1 X76.891 Y126.418 E4.76825
G1 X76.683 Y126.107 E4.77736
G1 X76.223 Y124.958 E4.80755
G1 X76.061 Y123.681 E4.83895
G1 X76.061 Y115.760 E5.03215
G1 X76.095 Y115.489 E5.03880
G1 X76.178 Y115.279 E5.04431
G1 X76.310 Y115.096 E5.04981
G1 X76.483 Y114.952 E5.05531
G1 X76.687 Y114.855 E5.06082
G1 X76.844 Y114.824 E5.06472
G1 X76.908 Y114.811 E5.06632
G1 X77.133 Y114.824 E5.07182
G1 X77.348 Y114.892 E5.07733
G1 X77.595 Y115.045 E5.08441
G1 X78.495 Y115.706 E5.11164
G1 X79.507 Y116.314 E5.14045
G1 X80.572 Y116.824 E5.16925
G1 X81.681 Y117.232 E5.19806
G1 X82.822 Y117.534 E5.22686
G1 X83.987 Y117.728 E5.25567
G1 X85.165 Y117.812 E5.28447
G1 X86.346 Y117.785 E5.31328
G1 X87.519 Y117.648 E5.34208
G1 X88.674 Y117.402 E5.37089
G1 X89.037 Y117.288 E5.38016
G1 X89.800 Y117.048 E5.39969
G1 X90.889 Y116.590 E5.42849
G1 X91.930 Y116.033 E5.45730
G1 X92.914 Y115.380 E5.48610
G1 X93.833 Y114.638 E5.51491
G1 X94.678 Y113.813 E5.54371
G1 X95.442 Y112.913 E5.57252
G1 X96.119 Y111.945 E5.60132
G1 X96.701 Y110.918 E5.63013
G1 X97.185 Y109.840 E5.65893
G1 X97.566 Y108.723 E5.68774
G1 X97.841 Y107.574 E5.71654
G1 X98.006 Y106.405 E5.74535
G1 X98.062 Y105.225 E5.77415
G1 X98.006 Y104.045 E5.80295
G1 X97.953 Y103.669 E5.81223
G1 X97.841 Y102.876 E5.83176
G1 X97.566 Y101.728 E5.86056
G1 X97.185 Y100.610 E5.88937
G1 X96.701 Y99.532 E5.91817
G1 X96.119 Y98.505 E5.94698
G1 X95.442 Y97.537 E5.97578
G1 X94.924 Y96.927 E5.99531
G1 X94.678 Y96.637 E6.00459
G1 X93.833 Y95.812 E6.03339
G1 X92.914 Y95.070 E6.06220
G1 X91.930 Y94.417 E6.09100
G1 X90.889 Y93.860 E6.11981
G1 X90.151 Y93.549 E6.13933
G1 X89.800 Y93.402 E6.14861
G1 X88.674 Y93.048 E6.17741
G1 X87.519 Y92.802 E6.20622
G1 X86.346 Y92.665 E6.23502
G1 X85.165 Y92.638 E6.26383
G1 X83.987 Y92.722 E6.29263
G1 X82.822 Y92.916 E6.32144
G1 X81.681 Y93.218 E6.35024
G1 X80.929 Y93.495 E6.36977
G1 X80.572 Y93.626 E6.37905
G1 X79.507 Y94.136 E6.40785
G1 X78.495 Y94.744 E6.43666
G1 X77.595 Y95.405 E6.46389
G1 X77.348 Y95.558 E6.47097
G1 X77.133 Y95.626 E6.47648
G1 X76.908 Y95.639 E6.48198
G1 X76.687 Y95.595 E6.48748
G1 X76.483 Y95.498 E6.49299
G1 X76.310 Y95.354 E6.49849
G1 X76.178 Y95.171 E6.50399
G1 X76.095 Y94.961 E6.50950
G1 X76.061 Y94.690 E6.51615
G1 X76.061 Y80.700 E6.85738
G1 X76.002 Y79.799 E6.87940
G1 X75.821 Y78.890 E6.90203
G1 X75.619 Y78.296 E6.91733
G1 X75.523 Y78.011 E6.92465
G1 X75.112 Y77.179 E6.94728
G1 X74.597 Y76.408 E6.96991
G1 X73.985 Y75.710 E6.99253
G1 X73.288 Y75.099 E7.01516
G1 X72.517 Y74.583 E7.03778
G1 X71.954 Y74.306 E7.05309
G1 X71.685 Y74.173 E7.06041
G1 X70.806 Y73.875 E7.08304
G1 X69.896 Y73.694 E7.10566
G1 X68.995 Y73.635 E7.12769
G1 X50.061 Y73.635 E7.58953
G1 X50.061 Y68.815 E7.70709
G1 X119.922 Y68.815 E9.41109
G1 X120.599 Y68.905 E9.42776
G1 X121.183 Y69.149 E9.44320
G1 X121.683 Y69.538 E9.45865
G1 X121.800 Y69.691 E9.46334
G1 X122.065 Y70.044 E9.47409
G1 X122.301 Y70.631 E9.48954
G1 X122.391 Y71.406 E9.50856
G1 X125.213 Y82.110 E9.77856
G1 X125.108 Y82.180 E9.78164
G1 X124.599 Y81.789 E9.79730
G1 X123.572 Y81.364 E9.82440
G1 X122.520 Y81.225 E9.85029
G1 X119.422 Y81.225 E9.92586
G1 X118.369 Y81.364 E9.95176
G1 X117.343 Y81.789 E9.97886
G1 X116.461 Y82.465 E10.00596
G1 X115.785 Y83.347 E10.03307
G1 X115.359 Y84.373 E10.06017
G1 X115.214 Y85.475 E10.08727
G1 X115.359 Y86.577 E10.11437
G1 X115.785 Y87.603 E10.14148
G1 X116.461 Y88.485 E10.16858
G1 X117.343 Y89.161 E10.19568
G1 X118.369 Y89.586 E10.22278
G1 X119.422 Y89.725 E10.24868
G1 X120.851 Y89.725 E10.28354
G1 X120.899 Y89.910 E10.28822
G1 X119.765 Y90.544 E10.31991
G1 X118.614 Y91.315 E10.35370
G1 X117.529 Y92.176 E10.38749
G1 X116.516 Y93.122 E10.42128
G1 X115.583 Y94.146 E10.45507
G1 X114.736 Y95.241 E10.48886
G1 X113.979 Y96.402 E10.52265
G1 X113.318 Y97.619 E10.55643
G1 X112.756 Y98.886 E10.59022
G1 X112.299 Y100.193 E10.62401
G1 X111.948 Y101.533 E10.65780
G1 X111.707 Y102.897 E10.69159
G1 X111.575 Y104.276 E10.72538
G1 X111.555 Y105.662 E10.75917
G1 X111.647 Y107.044 E10.79296
G1 X111.849 Y108.414 E10.82675
G1 X112.118 Y109.580 E10.85592
G1 X110.702 Y108.993 E10.89333
G1 X109.649 Y108.854 E10.91922
G1 X106.551 Y108.854 E10.99479
G1 X105.498 Y108.993 E11.02068
