; generated by Slic3r 1.0.0RC3 on 2014-04-04 at 14:50:09

; layer_height = 0.4
; perimeters = 2
; top_solid_layers = 2
; bottom_solid_layers = 2
; fill_density = 0.75
; perimeter_speed = 80
; infill_speed = 100
; travel_speed = 130
; nozzle_diameter = 0.5
; filament_diameter = 2.89
; extrusion_multiplier = 1
; perimeters extrusion width = 0.50mm
; infill extrusion width = 0.60mm
; solid infill extrusion width = 0.50mm
; top infill extrusion width = 0.43mm
; first layer extrusion width = 0.50mm

G21 ; set units to millimeters
M107
M301 P34 I4 D113     ; set PID nozzle
M304 P162 I17 D378 ; set PID Bed

M104 S230                 ; set extruder temp
M140 S100                 ; set bed temp

G28                            ; home
G1 Z5 F300                ; move bed down 5mm
M84                            ; disable steppers
G4 S300                     ; wait 5 mins to preheat

G28                            ; home

G90 ; use absolute coordinates
G92 E0
M82 ; use absolute distances for extrusion
M204 S800
G1 F1500.000 E-1.40000
G92 E0
G1 Z0.320 F7800.000
G1 X174.521 Y107.825 F7800.000
G1 E1.40000 F1500.000
G1 X174.601 Y108.005 E1.40480 F2880.000
G1 X194.311 Y161.285 E2.79044
G1 X194.491 Y161.835 E2.80456
G1 X194.851 Y163.175 E2.83840
G1 X195.081 Y164.285 E2.86605
G1 X195.151 Y165.475 E2.89513
G1 X195.151 Y166.505 E2.92025
G1 X195.131 Y167.045 E2.93343
G1 X195.001 Y168.085 E2.95900
G1 X194.831 Y168.865 E2.97847
G1 X194.401 Y170.385 E3.01700
G1 X194.311 Y170.635 E3.02348
G1 X193.981 Y171.395 E3.04369
G1 X193.671 Y171.985 E3.05994
G1 X193.161 Y172.875 E3.08496
G1 X192.721 Y173.555 E3.10472
G1 X192.101 Y174.345 E3.12921
G1 X191.691 Y174.795 E3.14406
G1 X190.961 Y175.515 E3.16907
G1 X190.371 Y176.035 E3.18825
G1 X189.781 Y176.485 E3.20635
G1 X189.101 Y176.925 E3.22611
G1 X188.211 Y177.435 E3.25113
G1 X187.621 Y177.745 E3.26738
G1 X186.621 Y178.155 E3.29375
G1 X185.091 Y178.585 E3.33251
G1 X184.311 Y178.755 E3.35198
G1 X183.251 Y178.885 E3.37803
G1 X181.391 Y178.885 E3.42340
G1 X125.651 Y176.375 E4.78435
G1 X125.101 Y176.335 E4.79780
G1 X123.801 Y176.175 E4.82974
G1 X122.651 Y175.925 E4.85845
G1 X122.251 Y175.805 E4.86864
G1 X121.571 Y175.565 E4.88622
G1 X120.681 Y175.195 E4.90973
G1 X119.951 Y174.845 E4.92948
G1 X119.541 Y174.615 E4.94095
G1 X118.711 Y174.065 E4.96523
G1 X117.951 Y173.485 E4.98855
G1 X117.401 Y173.025 E5.00604
G1 X117.061 Y172.705 E5.01743
G1 X116.331 Y171.895 E5.04403
G1 X115.741 Y171.135 E5.06749
G1 X115.451 Y170.725 E5.07974
G1 X115.191 Y170.335 E5.09117
G1 X114.781 Y169.645 E5.11075
G1 X88.081 Y117.495 E6.53978
G1 X87.511 Y115.945 E6.58006
G1 X87.311 Y114.305 E6.62036
G1 X87.311 Y108.135 E6.77085
G1 X87.451 Y106.755 E6.80469
G1 X87.851 Y105.435 E6.83833
G1 X88.511 Y104.215 E6.87216
G1 X89.391 Y103.155 E6.90576
G1 X90.471 Y102.285 E6.93959
G1 X91.691 Y101.645 E6.97319
G1 X93.021 Y101.255 E7.00700
G1 X93.341 Y101.195 E7.01494
G1 X94.421 Y101.075 E7.04145
G1 X164.971 Y101.065 E8.76225
G1 X165.821 Y101.115 E8.78302
G1 X166.641 Y101.215 E8.80317
G1 X167.611 Y101.405 E8.82728
G1 X168.551 Y101.735 E8.85158
G1 X169.321 Y102.065 E8.87201
G1 X170.041 Y102.425 E8.89164
G1 X170.721 Y102.865 E8.91140
G1 X170.951 Y103.035 E8.91838
G1 X171.611 Y103.565 E8.93902
G1 X172.221 Y104.115 E8.95906
G1 X172.751 Y104.725 E8.97877
G1 X173.261 Y105.385 E8.99911
G1 X173.791 Y106.185 E9.02252
G1 X174.211 Y107.055 E9.04608
G1 X174.493 Y107.755 E9.06450
G1 X174.061 Y108.005 F7800.000
G1 X193.841 Y161.455 E10.45462 F2880.000
G1 X194.111 Y162.315 E10.47660
G1 X194.371 Y163.305 E10.50157
G1 X194.581 Y164.355 E10.52769
G1 X194.651 Y165.225 E10.54898
G1 X194.651 Y166.505 E10.58020
G1 X194.631 Y167.005 E10.59240
G1 X194.511 Y167.995 E10.61673
G1 X194.351 Y168.735 E10.63519
G1 X193.931 Y170.215 E10.67272
G1 X193.841 Y170.465 E10.67920
G1 X193.531 Y171.175 E10.69810
G1 X193.241 Y171.735 E10.71348
G1 X192.731 Y172.625 E10.73850
G1 X192.311 Y173.275 E10.75737
G1 X191.721 Y174.025 E10.78065
G1 X191.331 Y174.445 E10.79463
G1 X190.601 Y175.165 E10.81964
G1 X190.051 Y175.655 E10.83761
G1 X189.501 Y176.075 E10.85449
G1 X188.851 Y176.495 E10.87336
G1 X187.961 Y177.005 E10.89838
G1 X187.401 Y177.295 E10.91376
G1 X186.471 Y177.675 E10.93827
G1 X184.961 Y178.105 E10.97656
G1 X184.221 Y178.265 E10.99503
G1 X183.231 Y178.385 E11.01935
G1 X181.411 Y178.385 E11.06375
G1 X125.671 Y175.875 E12.42469
G1 X125.171 Y175.835 E12.43693
G1 X123.871 Y175.675 E12.46887
G1 X122.791 Y175.455 E12.49576
G1 X122.391 Y175.335 E12.50594
G1 X121.761 Y175.105 E12.52230
G1 X120.871 Y174.735 E12.54581
G1 X120.191 Y174.405 E12.56425
G1 X119.781 Y174.175 E12.57572
G1 X119.021 Y173.675 E12.59790
G1 X118.261 Y173.095 E12.62122
G1 X117.751 Y172.655 E12.63765
G1 X117.411 Y172.335 E12.64904
G1 X116.731 Y171.595 E12.67355
G1 X115.861 Y170.455 E12.70853
G1 X115.601 Y170.065 E12.71996
G1 X115.221 Y169.415 E12.73833
G1 X88.521 Y117.265 E14.16736
G1 X87.991 Y115.825 E14.20478
G1 X87.811 Y114.305 E14.24212
G1 X87.811 Y108.135 E14.39261
G1 X87.941 Y106.855 E14.42399
G1 X88.311 Y105.625 E14.45532
G1 X88.921 Y104.495 E14.48664
G1 X89.741 Y103.515 E14.51781
G1 X90.741 Y102.705 E14.54920
G1 X91.881 Y102.105 E14.58062
G1 X93.111 Y101.745 E14.61188
G1 X93.431 Y101.685 E14.61982
G1 X94.441 Y101.575 E14.64460
G1 X164.971 Y101.565 E16.36492
G1 X165.761 Y101.615 E16.38423
G1 X166.581 Y101.715 E16.40438
G1 X167.481 Y101.885 E16.42672
G1 X168.351 Y102.195 E16.44925
G1 X169.121 Y102.525 E16.46968
G1 X169.791 Y102.855 E16.48790
G1 X170.651 Y103.435 E16.51320
G1 X171.301 Y103.955 E16.53350
G1 X171.861 Y104.465 E16.55197
G1 X172.351 Y105.035 E16.57031
G1 X172.861 Y105.695 E16.59065
G1 X173.361 Y106.435 E16.61244
G1 X173.751 Y107.235 E16.63415
G1 X174.033 Y107.935 E16.65256
G1 F1500.000 E15.25256
G92 E0
G1 X161.486 Y113.975 F7800.000
G1 E1.40000 F1500.000
G1 X155.025 Y134.975 E1.93592 F2880.000
G1 X143.221 Y134.975 E2.22383
G1 X143.221 Y120.700 E2.57200
G1 X143.277 Y119.844 E2.59294
G1 X143.449 Y118.978 E2.61449
G1 X143.733 Y118.141 E2.63603
G1 X144.124 Y117.349 E2.65757
G1 X144.614 Y116.615 E2.67911
G1 X145.197 Y115.951 E2.70065
G1 X145.814 Y115.410 E2.72067
G1 X146.595 Y114.878 E2.74372
G1 X147.446 Y114.467 E2.76677
G1 X148.223 Y114.203 E2.78679
G1 X149.090 Y114.031 E2.80833
G1 X149.946 Y113.975 E2.82927
G1 X161.411 Y113.975 E3.10892
G1 X160.809 Y114.475 F7800.000
G1 X154.655 Y134.475 E3.61932 F2160.000
G1 X143.721 Y134.475 E3.88602
G1 X143.721 Y120.717 E4.22160
G1 X143.774 Y119.909 E4.24135
G1 X143.933 Y119.107 E4.26129
G1 X144.196 Y118.333 E4.28123
G1 X144.558 Y117.600 E4.30117
G1 X145.012 Y116.920 E4.32112
G1 X145.551 Y116.305 E4.34106
G1 X146.143 Y115.786 E4.36028
G1 X146.846 Y115.312 E4.38094
G1 X147.607 Y114.941 E4.40160
G1 X148.353 Y114.687 E4.42082
G1 X149.155 Y114.528 E4.44076
G1 X149.963 Y114.475 E4.46050
G1 X160.734 Y114.475 E4.72324
G1 X161.299 Y114.574 F7800.000
G1 F1500.000 E3.32324
G92 E0
G1 X181.869 Y162.225 F7800.000
G1 E1.40000 F1500.000
G1 X181.869 Y162.196 E1.40069 F1800.000
G1 X183.125 Y162.329 E1.43148
G1 X184.067 Y162.701 E1.45620
G1 X184.876 Y163.312 E1.48092
G1 X185.492 Y164.117 E1.50565
G1 X185.870 Y165.058 E1.53037
G1 X185.982 Y166.065 E1.55509
G1 X185.822 Y167.066 E1.57981
G1 X185.399 Y167.987 E1.60453
G1 X184.745 Y168.761 E1.62925
G1 X183.908 Y169.333 E1.65397
G1 X182.949 Y169.660 E1.67869
G1 X181.964 Y169.716 E1.70276
G1 X179.494 Y169.716 E1.76299
G1 X178.509 Y169.660 E1.78706
G1 X177.550 Y169.333 E1.81178
G1 X176.713 Y168.761 E1.83650
G1 X176.059 Y167.987 E1.86122
G1 X175.637 Y167.066 E1.88594
G1 X175.476 Y166.065 E1.91066
G1 X175.589 Y165.058 E1.93538
G1 X175.935 Y164.196 E1.95804
G1 X175.967 Y164.117 E1.96010
G1 X176.582 Y163.312 E1.98482
G1 X177.391 Y162.701 E2.00954
G1 X178.334 Y162.329 E2.03426
G1 X179.321 Y162.225 E2.05848
G1 X181.794 Y162.225 E2.11881
G1 X181.855 Y162.200 F7800.000
G1 X181.369 Y161.640 F7800.000
G1 X181.369 Y161.725 E2.12086 F2880.000
G1 X179.474 Y161.725 E2.16710
G1 X179.426 Y161.454 E2.17380
G1 X180.442 Y161.093 E2.20010
G1 X181.389 Y160.844 E2.22399
G1 X181.765 Y160.796 E2.23323
G1 X182.934 Y160.815 E2.26175
G1 X184.245 Y161.172 E2.29488
G1 X185.418 Y161.857 E2.32802
G1 X186.375 Y162.822 E2.36116
G1 X187.049 Y164.001 E2.39429
G1 X187.396 Y165.315 E2.42743
G1 X187.391 Y166.673 E2.46057
G1 X187.096 Y167.805 E2.48908
G1 X186.950 Y168.154 E2.49832
G1 X186.351 Y169.158 E2.52684
G1 X185.531 Y169.991 E2.55536
G1 X185.230 Y170.221 E2.56460
G1 X184.210 Y170.792 E2.59312
G1 X182.897 Y171.140 E2.62625
G1 X181.726 Y171.150 E2.65480
G1 X181.536 Y170.996 E2.66078
G1 X175.321 Y170.234 E2.81351
G1 X169.069 Y169.608 E2.96675
G1 X162.805 Y169.120 E3.12000
G1 X156.553 Y168.773 E3.27273
G1 X156.311 Y168.906 E3.27946
G1 X150.250 Y168.705 E3.42739
G1 X143.975 Y168.635 E3.58046
G1 X126.005 Y168.635 E4.01878
G1 X124.818 Y168.491 E4.04793
G1 X124.511 Y168.401 E4.05573
G1 X123.703 Y168.066 E4.07708
G1 X123.379 Y167.885 E4.08613
G1 X122.692 Y167.358 E4.10725
G1 X122.417 Y167.104 E4.11637
G1 X121.891 Y166.418 E4.13747
G1 X121.683 Y166.107 E4.14658
G1 X121.223 Y164.958 E4.17677
G1 X121.061 Y163.681 E4.20817
G1 X121.061 Y155.760 E4.40137
G1 X121.095 Y155.489 E4.40802
G1 X121.178 Y155.279 E4.41353
G1 X121.310 Y155.096 E4.41903
G1 X121.483 Y154.952 E4.42453
G1 X121.687 Y154.855 E4.43004
G1 X121.908 Y154.811 E4.43554
G1 X122.133 Y154.824 E4.44104
G1 X122.348 Y154.892 E4.44655
G1 X122.595 Y155.045 E4.45363
G1 X123.495 Y155.706 E4.48087
G1 X124.507 Y156.314 E4.50967
G1 X125.572 Y156.824 E4.53847
G1 X126.681 Y157.232 E4.56728
G1 X127.822 Y157.534 E4.59608
G1 X128.987 Y157.728 E4.62489
G1 X130.165 Y157.812 E4.65369
G1 X131.346 Y157.785 E4.68250
G1 X132.519 Y157.648 E4.71130
G1 X133.674 Y157.402 E4.74011
G1 X134.800 Y157.048 E4.76891
G1 X135.889 Y156.590 E4.79772
G1 X136.224 Y156.411 E4.80699
G1 X136.930 Y156.033 E4.82652
G1 X137.914 Y155.380 E4.85533
G1 X138.833 Y154.638 E4.88413
G1 X139.678 Y153.813 E4.91293
G1 X140.442 Y152.913 E4.94174
G1 X141.119 Y151.945 E4.97054
G1 X141.701 Y150.918 E4.99935
G1 X142.185 Y149.840 E5.02815
G1 X142.566 Y148.723 E5.05696
G1 X142.841 Y147.574 E5.08576
G1 X143.006 Y146.405 E5.11457
G1 X143.062 Y145.225 E5.14337
G1 X143.006 Y144.045 E5.17218
G1 X142.841 Y142.876 E5.20098
G1 X142.566 Y141.728 E5.22978
G1 X142.185 Y140.610 E5.25859
G1 X141.701 Y139.532 E5.28739
G1 X141.119 Y138.505 E5.31620
G1 X140.442 Y137.537 E5.34500
G1 X139.678 Y136.637 E5.37381
G1 X138.833 Y135.812 E5.40261
G1 X137.914 Y135.070 E5.43142
G1 X136.930 Y134.417 E5.46022
G1 X135.889 Y133.860 E5.48903
G1 X134.800 Y133.402 E5.51783
G1 X134.373 Y133.268 E5.52877
G1 X133.674 Y133.048 E5.54664
G1 X132.519 Y132.802 E5.57544
G1 X131.346 Y132.665 E5.60424
G1 X130.165 Y132.638 E5.63305
G1 X128.987 Y132.722 E5.66185
G1 X127.822 Y132.916 E5.69066
G1 X126.681 Y133.218 E5.71946
G1 X125.572 Y133.626 E5.74827
G1 X124.507 Y134.136 E5.77707
G1 X123.495 Y134.744 E5.80588
G1 X122.595 Y135.405 E5.83311
G1 X122.348 Y135.558 E5.84020
G1 X122.133 Y135.626 E5.84570
G1 X121.908 Y135.639 E5.85120
G1 X121.687 Y135.595 E5.85671
G1 X121.483 Y135.498 E5.86221
G1 X121.310 Y135.354 E5.86771
G1 X121.178 Y135.171 E5.87321
G1 X121.095 Y134.961 E5.87872
G1 X121.061 Y134.690 E5.88538
G1 X121.061 Y120.700 E6.22660
G1 X121.002 Y119.799 E6.24862
G1 X120.821 Y118.890 E6.27125
G1 X120.523 Y118.011 E6.29388
G1 X120.112 Y117.179 E6.31650
G1 X119.597 Y116.408 E6.33913
G1 X118.985 Y115.710 E6.36175
G1 X118.288 Y115.099 E6.38438
G1 X117.517 Y114.583 E6.40701
G1 X116.685 Y114.173 E6.42963
G1 X116.091 Y113.972 E6.44493
G1 X115.806 Y113.875 E6.45226
G1 X114.896 Y113.694 E6.47488
G1 X113.995 Y113.635 E6.49691
G1 X95.061 Y113.635 E6.95875
G1 X95.061 Y108.815 E7.07631
G1 X164.922 Y108.815 E8.78031
G1 X165.599 Y108.905 E8.79698
G1 X166.183 Y109.149 E8.81242
G1 X166.683 Y109.538 E8.82787
G1 X166.800 Y109.691 E8.83256
G1 X167.065 Y110.044 E8.84331
G1 X167.301 Y110.631 E8.85876
G1 X167.391 Y111.406 E8.87778
G1 X170.213 Y122.110 E9.14778
G1 X170.108 Y122.180 E9.15086
G1 X169.599 Y121.789 E9.16652
G1 X168.572 Y121.364 E9.19362
G1 X167.520 Y121.225 E9.21951
G1 X164.422 Y121.225 E9.29508
G1 X163.369 Y121.364 E9.32098
G1 X162.343 Y121.789 E9.34808
G1 X161.461 Y122.465 E9.37518
G1 X160.785 Y123.347 E9.40229
G1 X160.359 Y124.373 E9.42939
G1 X160.214 Y125.475 E9.45649
G1 X160.359 Y126.577 E9.48359
G1 X160.785 Y127.603 E9.51070
G1 X161.461 Y128.485 E9.53780
G1 X162.343 Y129.161 E9.56490
G1 X163.369 Y129.586 E9.59201
G1 X164.422 Y129.725 E9.61790
G1 X165.851 Y129.725 E9.65276
G1 X165.899 Y129.910 E9.65744
G1 X164.765 Y130.544 E9.68913
G1 X163.614 Y131.315 E9.72292
G1 X162.529 Y132.176 E9.75671
G1 X161.516 Y133.122 E9.79050
G1 X160.583 Y134.146 E9.82429
G1 X159.736 Y135.241 E9.85808
G1 X158.979 Y136.402 E9.89187
G1 X158.318 Y137.619 E9.92565
G1 X157.756 Y138.886 E9.95944
G1 X157.299 Y140.193 E9.99323
G1 X156.948 Y141.533 E10.02702
G1 X156.707 Y142.897 E10.06081
G1 X156.575 Y144.276 E10.09460
G1 X156.555 Y145.662 E10.12839
G1 X156.647 Y147.044 E10.16218
G1 X156.849 Y148.414 E10.19597
G1 X157.118 Y149.580 E10.22514
G1 X155.702 Y148.993 E10.26255
G1 X154.649 Y148.854 E10.28844
G1 X151.551 Y148.854 E10.36401
G1 X150.498 Y148.993 E10.38990
G1 X149.472 Y149.418 E10.41701
G1 X148.590 Y150.094 E10.44411
G1 X147.914 Y150.976 E10.47121
G1 X147.545 Y151.866 E10.49472
G1 X147.489 Y152.002 E10.49831
G1 X147.343 Y153.104 E10.52542
G1 X147.488 Y154.206 E10.55252
G1 X147.914 Y155.232 E10.57962
G1 X148.590 Y156.114 E10.60672
G1 X149.471 Y156.790 E10.63382
G1 X150.498 Y157.216 E10.66093
G1 X151.551 Y157.354 E10.68682
G1 X154.649 Y157.354 E10.76240
G1 X155.702 Y157.216 E10.78829
G1 X156.728 Y156.790 E10.81540
G1 X157.610 Y156.114 E10.84250
G1 X158.286 Y155.232 E10.86960
G1 X158.868 Y153.827 E10.90670
G1 X159.454 Y154.784 E10.93405
G1 X160.269 Y155.904 E10.96784
G1 X161.173 Y156.954 E11.00163
G1 X162.157 Y157.928 E11.03542
G1 X163.217 Y158.820 E11.06921
G1 X164.346 Y159.624 E11.10300
G1 X165.535 Y160.335 E11.13679
G1 X166.777 Y160.947 E11.17057
G1 X168.065 Y161.458 E11.20436
G1 X169.390 Y161.863 E11.23815
G1 X170.743 Y162.161 E11.27194
G1 X172.115 Y162.348 E11.30573
G1 X173.498 Y162.425 E11.33952
G1 X174.883 Y162.390 E11.37331
G1 X176.261 Y162.244 E11.40710
G1 X177.004 Y162.104 E11.42556
G1 X177.092 Y162.301 E11.43080
G1 X176.227 Y162.955 E11.45724
G1 X175.528 Y163.868 E11.48529
G1 X175.099 Y164.934 E11.51333
G1 X174.972 Y166.077 E11.54137
G1 X175.154 Y167.212 E11.56942
G1 X175.633 Y168.257 E11.59746
G1 X176.375 Y169.136 E11.62550
G1 X177.324 Y169.784 E11.65355
G1 X178.413 Y170.155 E11.68159
G1 X179.480 Y170.216 E11.70767
G1 X181.978 Y170.216 E11.76860
G1 X183.046 Y170.155 E11.79468
G1 X184.134 Y169.784 E11.82272
G1 X185.084 Y169.136 E11.85077
G1 X185.825 Y168.257 E11.87881
G1 X186.305 Y167.212 E11.90686
G1 X186.487 Y166.077 E11.93490
G1 X186.359 Y164.934 E11.96294
G1 X185.930 Y163.868 E11.99099
G1 X185.232 Y162.955 E12.01903
G1 X184.314 Y162.261 E12.04707
G1 X183.245 Y161.839 E12.07512
G1 X181.444 Y161.648 E12.11929
G1 F1500.000 E10.71929
G92 E0
G1 X178.807 Y161.146 F7800.000
G1 E1.40000 F1500.000
G1 X180.299 Y160.613 E1.43863 F2160.000
G1 X181.278 Y160.356 E1.46333
G1 X181.513 Y160.311 E1.46915
G1 X181.751 Y160.296 E1.47498
G1 X182.764 Y160.301 E1.49968
G1 X183.002 Y160.318 E1.50550
G1 X183.236 Y160.366 E1.51133
G1 X184.213 Y160.632 E1.53602
G1 X184.439 Y160.710 E1.54185
G1 X184.652 Y160.817 E1.54768
G1 X185.527 Y161.327 E1.57237
G1 X185.725 Y161.461 E1.57820
G1 X185.904 Y161.619 E1.58403
G1 X186.617 Y162.338 E1.60872
G1 X186.773 Y162.518 E1.61455
G1 X186.905 Y162.718 E1.62038
G1 X187.408 Y163.596 E1.64507
G1 X187.513 Y163.811 E1.65090
G1 X187.589 Y164.038 E1.65673
G1 X187.847 Y165.017 E1.68142
G1 X187.893 Y165.251 E1.68725
G1 X187.907 Y165.489 E1.69308
G1 X187.904 Y166.502 E1.71777
G1 X187.887 Y166.740 E1.72360
G1 X187.840 Y166.974 E1.72942
G1 X187.574 Y167.951 E1.75412
G1 X187.497 Y168.177 E1.75995
G1 X187.390 Y168.391 E1.76577
G1 X186.881 Y169.266 E1.79047
G1 X186.748 Y169.465 E1.79629
G1 X186.590 Y169.644 E1.80212
G1 X185.872 Y170.358 E1.82682
G1 X185.692 Y170.515 E1.83264
G1 X185.493 Y170.647 E1.83847
G1 X184.615 Y171.151 E1.86316
