; generated by Slic3r 0.9.11-dev on 2013-11-21 at 09:44:25

; layer_height = 0.4
; perimeters = 2
; top_solid_layers = 2
; bottom_solid_layers = 2
; fill_density = 0.75
; perimeter_speed = 90
; infill_speed = 110
; travel_speed = 130
; nozzle_diameter = 0.5
; filament_diameter = 2.89
; extrusion_multiplier = 1
; perimeters extrusion width = 0.50mm
; infill extrusion width = 0.60mm
; solid infill extrusion width = 0.50mm
; top infill extrusion width = 0.43mm
; first layer extrusion width = 0.50mm

G21 ; set units to millimeters
M107
G28 ; home all axes
G90 ; use absolute coordinates
G92 E0
M82 ; use absolute distances for extrusion
G1 F2400.000 E-1.40000
G92 E0
G1 Z0.320 F7800.000
G1 X44.888 Y62.518 F7800.000
G1 E1.40000 F2400.000
G1 X46.098 Y61.868 E1.43350 F3240.000
G1 X47.408 Y61.468 E1.46691
G1 X48.768 Y61.338 E1.50023
G1 X121.838 Y61.338 E3.28250
G1 X123.148 Y61.458 E3.31459
G1 X124.418 Y61.828 E3.34686
G1 X125.598 Y62.428 E3.37914
G1 X125.818 Y62.568 E3.38550
G1 X126.438 Y63.018 E3.40419
G1 X127.008 Y63.528 E3.42285
G1 X127.618 Y64.138 E3.44389
G1 X128.198 Y64.788 E3.46514
G1 X128.688 Y65.508 E3.48638
G1 X129.128 Y66.248 E3.50738
G1 X129.418 Y66.788 E3.52233
G1 X129.658 Y67.348 E3.53719
G1 X149.738 Y120.388 E4.92051
G1 X150.068 Y121.358 E4.94550
G1 X150.308 Y122.208 E4.96704
G1 X150.478 Y123.018 E4.98723
G1 X150.608 Y123.868 E5.00821
G1 X150.678 Y124.698 E5.02852
G1 X150.698 Y125.548 E5.04926
G1 X150.668 Y126.368 E5.06927
G1 X150.578 Y127.208 E5.08988
G1 X150.448 Y128.028 E5.11013
G1 X150.268 Y128.858 E5.13085
G1 X150.038 Y129.658 E5.15115
G1 X149.758 Y130.448 E5.17159
G1 X149.438 Y131.208 E5.19171
G1 X149.068 Y131.948 E5.21189
G1 X148.658 Y132.668 E5.23210
G1 X148.228 Y133.338 E5.25151
G1 X147.738 Y134.008 E5.27176
G1 X147.158 Y134.698 E5.29375
G1 X146.588 Y135.298 E5.31393
G1 X145.928 Y135.908 E5.33585
G1 X145.288 Y136.428 E5.35597
G1 X144.668 Y136.888 E5.37480
G1 X143.968 Y137.338 E5.39510
G1 X143.208 Y137.758 E5.41628
G1 X142.458 Y138.118 E5.43657
G1 X141.488 Y138.498 E5.46198
G1 X140.448 Y138.818 E5.48852
G1 X139.288 Y139.068 E5.51746
G1 X138.208 Y139.208 E5.54402
G1 X137.048 Y139.268 E5.57236
G1 X75.238 Y136.998 E7.08100
G1 X73.738 Y136.778 E7.11797
G1 X72.328 Y136.238 E7.15480
G1 X71.058 Y135.408 E7.19181
G1 X69.998 Y134.328 E7.22872
G1 X69.198 Y133.038 E7.26574
G1 X42.448 Y77.608 E8.76696
G1 X41.918 Y76.118 E8.80553
G1 X41.748 Y74.548 E8.84405
G1 X41.768 Y68.318 E8.99601
G1 X41.908 Y66.958 E9.02935
G1 X42.308 Y65.648 E9.06276
G1 X42.958 Y64.438 E9.09626
G1 X43.828 Y63.378 E9.12971
G1 X44.829 Y62.565 E9.16118
G1 X45.168 Y62.928 F7800.000
G1 X46.288 Y62.328 E9.19217 F3240.000
G1 X47.498 Y61.958 E9.22303
G1 X48.768 Y61.838 E9.25415
G1 X121.838 Y61.838 E11.03642
G1 X123.658 Y62.098 E11.08126
G1 X125.328 Y62.858 E11.12601
G1 X125.548 Y62.998 E11.13237
G1 X126.128 Y63.408 E11.14970
G1 X126.658 Y63.878 E11.16697
G1 X127.268 Y64.488 E11.18802
G1 X127.798 Y65.098 E11.20773
G1 X128.258 Y65.768 E11.22755
G1 X128.698 Y66.508 E11.24855
G1 X128.968 Y67.008 E11.26241
G1 X129.188 Y67.528 E11.27618
G1 X149.268 Y120.568 E12.65950
G1 X149.598 Y121.518 E12.68403
G1 X149.818 Y122.308 E12.70403
G1 X149.988 Y123.118 E12.72422
G1 X150.108 Y123.908 E12.74371
G1 X150.178 Y124.738 E12.76403
G1 X150.198 Y125.528 E12.78330
G1 X150.168 Y126.348 E12.80332
G1 X150.088 Y127.128 E12.82244
G1 X149.958 Y127.948 E12.84269
G1 X149.788 Y128.728 E12.86216
G1 X149.558 Y129.528 E12.88247
G1 X149.298 Y130.248 E12.90114
G1 X148.978 Y131.008 E12.92125
G1 X148.638 Y131.708 E12.94023
G1 X148.228 Y132.428 E12.96044
G1 X147.828 Y133.048 E12.97844
G1 X147.338 Y133.718 E12.99869
G1 X146.798 Y134.358 E13.01911
G1 X146.228 Y134.958 E13.03930
G1 X145.618 Y135.518 E13.05949
G1 X144.978 Y136.038 E13.07961
G1 X144.388 Y136.468 E13.09742
G1 X143.688 Y136.918 E13.11771
G1 X142.988 Y137.308 E13.13726
G1 X142.238 Y137.668 E13.15755
G1 X141.338 Y138.018 E13.18110
G1 X140.298 Y138.338 E13.20764
G1 X139.228 Y138.578 E13.23439
G1 X138.148 Y138.718 E13.26095
G1 X137.068 Y138.768 E13.28733
G1 X75.258 Y136.498 E14.79597
G1 X73.868 Y136.288 E14.83025
G1 X72.548 Y135.788 E14.86468
G1 X71.378 Y135.018 E14.89885
G1 X70.388 Y134.018 E14.93317
G1 X69.648 Y132.828 E14.96735
G1 X42.898 Y77.398 E16.46856
G1 X42.408 Y76.008 E16.50451
G1 X42.248 Y74.548 E16.54033
G1 X42.268 Y68.318 E16.69229
G1 X42.398 Y67.048 E16.72343
G1 X42.768 Y65.838 E16.75429
G1 X43.368 Y64.718 E16.78529
G1 X44.178 Y63.738 E16.81630
G1 X45.110 Y62.975 E16.84567
G1 F2400.000 E15.44567
G92 E0
G1 X98.276 Y78.980 F7800.000
G1 E1.40000 F2400.000
G1 X98.560 Y78.144 E1.42154 F3240.000
G1 X98.951 Y77.352 E1.44308
G1 X99.441 Y76.617 E1.46462
G1 X100.024 Y75.953 E1.48616
G1 X100.688 Y75.371 E1.50771
G1 X101.422 Y74.880 E1.52925
G1 X102.214 Y74.490 E1.55079
G1 X103.050 Y74.206 E1.57233
G1 X103.916 Y74.034 E1.59387
G1 X104.773 Y73.978 E1.61481
G1 X116.313 Y73.978 E1.89629
G1 X109.852 Y94.978 E2.43220
G1 X98.048 Y94.978 E2.72012
G1 X98.048 Y80.703 E3.06829
G1 X98.104 Y79.846 E3.08923
G1 X98.262 Y79.054 E3.10894
G1 X98.754 Y79.139 F7800.000
G1 X99.023 Y78.336 E3.12960 F2520.000
G1 X99.385 Y77.602 E3.14954
G1 X99.839 Y76.922 E3.16949
G1 X100.378 Y76.308 E3.18943
G1 X100.993 Y75.769 E3.20937
G1 X101.672 Y75.314 E3.22931
G1 X102.406 Y74.953 E3.24926
G1 X103.180 Y74.690 E3.26920
G1 X103.982 Y74.531 E3.28914
G1 X104.790 Y74.478 E3.30888
G1 X115.636 Y74.478 E3.57345
G1 X109.482 Y94.478 E4.08384
G1 X98.548 Y94.478 E4.35055
G1 X98.548 Y80.719 E4.68613
G1 X98.601 Y79.912 E4.70588
G1 X98.740 Y79.212 E4.72327
G1 X98.408 Y78.779 F7800.000
G1 F2400.000 E3.32327
G92 E0
G1 X115.090 Y84.350 F7800.000
G1 E1.40000 F2400.000
G1 X115.525 Y83.299 E1.42774 F2160.000
G1 X116.217 Y82.397 E1.45548
G1 X117.119 Y81.705 E1.48322
G1 X118.170 Y81.270 E1.51096
G1 X119.249 Y81.128 E1.53749
G1 X122.347 Y81.128 E1.61306
G1 X123.425 Y81.270 E1.63959
G1 X124.476 Y81.705 E1.66733
G1 X125.378 Y82.397 E1.69507
G1 X126.071 Y83.299 E1.72281
G1 X126.506 Y84.350 E1.75055
G1 X126.654 Y85.478 E1.77829
G1 X126.506 Y86.605 E1.80603
G1 X126.071 Y87.656 E1.83376
G1 X125.378 Y88.558 E1.86150
G1 X124.476 Y89.250 E1.88924
G1 X123.425 Y89.686 E1.91698
G1 X122.347 Y89.828 E1.94351
G1 X119.249 Y89.828 E2.01909
G1 X118.170 Y89.686 E2.04562
G1 X117.119 Y89.250 E2.07335
G1 X116.217 Y88.558 E2.10109
G1 X115.109 Y87.113 E2.14551
G1 X115.300 Y87.113 E2.15018
G1 X115.090 Y86.605 E2.16360
G1 X114.941 Y85.478 E2.19134
G1 X115.080 Y84.424 E2.21725
G1 X115.577 Y84.481 F7800.000
G1 X115.962 Y83.551 E2.24178 F2160.000
G1 X116.574 Y82.754 E2.26631
G1 X117.372 Y82.142 E2.29084
G1 X118.301 Y81.757 E2.31536
G1 X119.281 Y81.628 E2.33949
G1 X122.314 Y81.628 E2.41346
G1 X123.295 Y81.757 E2.43759
G1 X124.224 Y82.142 E2.46211
G1 X125.022 Y82.754 E2.48664
G1 X125.634 Y83.551 E2.51117
G1 X126.019 Y84.481 E2.53570
G1 X126.150 Y85.478 E2.56023
G1 X126.019 Y86.475 E2.58476
G1 X125.634 Y87.404 E2.60928
G1 X125.022 Y88.201 E2.63381
G1 X124.224 Y88.814 E2.65834
G1 X123.295 Y89.198 E2.68287
G1 X122.314 Y89.328 E2.70699
G1 X119.281 Y89.328 E2.78097
G1 X118.301 Y89.198 E2.80509
G1 X117.372 Y88.814 E2.82962
G1 X116.574 Y88.201 E2.85415
G1 X115.962 Y87.404 E2.87868
G1 X115.577 Y86.475 E2.90321
G1 X115.446 Y85.478 E2.92773
G1 X115.567 Y84.555 E2.95043
G1 X115.239 Y84.112 F7800.000
G1 F2400.000 E1.55043
G92 E0
G1 X110.554 Y108.899 F7800.000
G1 E1.40000 F2400.000
G1 X111.605 Y109.334 E1.42774 F2160.000
G1 X112.507 Y110.026 E1.45548
G1 X113.200 Y110.929 E1.48322
G1 X113.635 Y111.979 E1.51096
G1 X113.783 Y113.107 E1.53870
G1 X113.635 Y114.234 E1.56644
G1 X113.200 Y115.285 E1.59418
G1 X112.507 Y116.187 E1.62192
G1 X111.605 Y116.880 E1.64965
G1 X110.554 Y117.315 E1.67739
G1 X109.476 Y117.457 E1.70392
G1 X106.378 Y117.457 E1.77950
G1 X105.299 Y117.315 E1.80603
G1 X104.249 Y116.880 E1.83377
G1 X103.346 Y116.187 E1.86150
G1 X102.654 Y115.285 E1.88924
G1 X102.219 Y114.234 E1.91698
G1 X102.070 Y113.107 E1.94472
G1 X102.219 Y111.979 E1.97246
G1 X102.578 Y111.112 E1.99535
G1 X102.654 Y110.929 E2.00020
G1 X103.346 Y110.026 E2.02794
G1 X104.249 Y109.334 E2.05568
G1 X105.299 Y108.899 E2.08342
G1 X106.378 Y108.757 E2.10995
G1 X109.476 Y108.757 E2.18552
G1 X110.480 Y108.889 E2.21022
G1 X110.424 Y109.386 F7800.000
G1 X111.353 Y109.771 E2.23475 F2160.000
G1 X112.151 Y110.383 E2.25928
G1 X112.763 Y111.181 E2.28381
G1 X113.148 Y112.110 E2.30834
G1 X113.279 Y113.107 E2.33286
G1 X113.148 Y114.104 E2.35739
G1 X112.763 Y115.033 E2.38192
G1 X112.151 Y115.831 E2.40645
G1 X111.353 Y116.443 E2.43098
G1 X110.424 Y116.828 E2.45550
G1 X109.443 Y116.957 E2.47963
G1 X106.411 Y116.957 E2.55360
G1 X105.430 Y116.828 E2.57773
G1 X104.501 Y116.443 E2.60226
G1 X103.703 Y115.831 E2.62678
G1 X103.091 Y115.033 E2.65131
G1 X102.706 Y114.104 E2.67584
G1 X102.575 Y113.107 E2.70037
G1 X102.706 Y112.110 E2.72490
G1 X103.040 Y111.304 E2.74618
G1 X103.091 Y111.181 E2.74943
G1 X103.703 Y110.383 E2.77395
G1 X104.501 Y109.771 E2.79848
G1 X105.430 Y109.386 E2.82301
G1 X106.411 Y109.257 E2.84714
G1 X109.443 Y109.257 E2.92111
G1 X110.350 Y109.376 E2.94340
G1 X110.793 Y109.048 F7800.000
G1 F2400.000 E1.54340
G92 E0
G1 X130.283 Y123.799 F7800.000
G1 E1.40000 F2400.000
G1 X130.976 Y122.897 E1.42774 F2160.000
G1 X131.720 Y122.326 E1.45063
G1 X131.878 Y122.205 E1.45548
G1 X132.929 Y121.770 E1.48322
G1 X134.007 Y121.628 E1.50975
G1 X137.105 Y121.628 E1.58532
G1 X138.184 Y121.770 E1.61185
G1 X139.234 Y122.205 E1.63959
G1 X140.137 Y122.897 E1.66733
G1 X140.829 Y123.799 E1.69507
G1 X141.264 Y124.850 E1.72281
G1 X141.413 Y125.978 E1.75055
G1 X141.264 Y127.105 E1.77829
G1 X140.829 Y128.156 E1.80603
G1 X140.137 Y129.058 E1.83376
G1 X139.234 Y129.750 E1.86150
G1 X138.184 Y130.186 E1.88924
G1 X137.105 Y130.328 E1.91577
G1 X134.007 Y130.328 E1.99135
G1 X132.929 Y130.186 E2.01788
G1 X131.878 Y129.750 E2.04562
G1 X130.976 Y129.058 E2.07335
G1 X129.867 Y127.613 E2.11777
G1 X130.059 Y127.613 E2.12244
G1 X129.848 Y127.105 E2.13586
G1 X129.700 Y125.978 E2.16360
G1 X129.848 Y124.850 E2.19134
G1 X130.255 Y123.869 E2.21725
G1 X130.720 Y124.051 F7800.000
G1 X131.332 Y123.254 E2.24178 F2160.000
G1 X132.024 Y122.723 E2.26306
G1 X132.130 Y122.642 E2.26631
G1 X133.059 Y122.257 E2.29084
G1 X134.040 Y122.128 E2.31496
G1 X137.073 Y122.128 E2.38893
G1 X138.053 Y122.257 E2.41306
G1 X138.982 Y122.642 E2.43759
G1 X139.780 Y123.254 E2.46211
G1 X140.392 Y124.051 E2.48664
G1 X140.777 Y124.981 E2.51117
G1 X140.908 Y125.978 E2.53570
G1 X140.777 Y126.975 E2.56023
G1 X140.392 Y127.904 E2.58476
G1 X139.780 Y128.701 E2.60928
G1 X138.982 Y129.314 E2.63381
G1 X138.053 Y129.698 E2.65834
G1 X137.073 Y129.828 E2.68247
G1 X134.040 Y129.828 E2.75644
G1 X133.059 Y129.698 E2.78056
G1 X132.130 Y129.314 E2.80509
G1 X131.332 Y128.701 E2.82962
G1 X130.720 Y127.904 E2.85415
G1 X130.335 Y126.975 E2.87868
G1 X130.204 Y125.978 E2.90321
G1 X130.335 Y124.981 E2.92773
G1 X130.691 Y124.121 E2.95043
G1 X130.489 Y123.608 F7800.000
G1 F2400.000 E1.55043
G92 E0
G1 X130.677 Y120.831 F7800.000
G1 E1.40000 F2400.000
G1 X131.991 Y120.598 E1.43255 F3240.000
G1 X133.281 Y120.254 E1.46510
G1 X135.236 Y119.567 E1.51564
G1 X135.958 Y119.416 E1.53363
G1 X136.693 Y119.353 E1.55163
G1 X137.430 Y119.379 E1.56962
G1 X138.158 Y119.494 E1.58761
G1 X138.868 Y119.696 E1.60560
G1 X139.548 Y119.982 E1.62359
G1 X140.188 Y120.347 E1.64158
G1 X140.780 Y120.788 E1.65957
G1 X141.315 Y121.296 E1.67757
G1 X141.784 Y121.865 E1.69556
G1 X142.181 Y122.487 E1.71355
G1 X142.500 Y123.152 E1.73154
G1 X142.737 Y123.850 E1.74953
G1 X142.888 Y124.572 E1.76752
G1 X142.951 Y125.307 E1.78552
G1 X142.925 Y126.044 E1.80351
G1 X142.810 Y126.773 E1.82150
G1 X142.608 Y127.482 E1.83949
G1 X142.322 Y128.162 E1.85748
G1 X141.957 Y128.803 E1.87547
G1 X141.516 Y129.395 E1.89347
G1 X141.008 Y129.929 E1.91146
G1 X140.439 Y130.398 E1.92945
G1 X139.817 Y130.796 E1.94744
G1 X139.161 Y131.111 E1.96519
G1 X138.234 Y131.398 E1.98888
G1 X137.280 Y131.520 E2.01232
G1 X136.283 Y131.474 E2.03667
G1 X130.094 Y130.715 E2.18876
G1 X123.853 Y130.090 E2.34174
G1 X117.600 Y129.603 E2.49472
G1 X111.338 Y129.256 E2.64770
G1 X105.069 Y129.047 E2.80069
G1 X98.802 Y128.978 E2.95357
G1 X90.976 Y128.978 E3.14446
G1 X90.976 Y129.236 E3.15076
G1 X80.693 Y128.982 E3.40163
G1 X76.254 Y129.215 E3.51005
G1 X76.254 Y126.397 E3.57877
G1 X75.828 Y125.412 E3.60495
G1 X75.620 Y124.581 E3.62584
G1 X75.548 Y123.697 E3.64749
G1 X75.548 Y113.413 E3.89833
G1 X76.341 Y114.379 E3.92883
G1 X77.217 Y115.257 E3.95908
G1 X78.173 Y116.047 E3.98932
G1 X79.200 Y116.742 E4.01957
G1 X80.289 Y117.334 E4.04982
G1 X81.430 Y117.819 E4.08006
G1 X82.613 Y118.193 E4.11031
G1 X83.621 Y118.408 E4.13545
G1 X83.826 Y118.451 E4.14056
G1 X85.058 Y118.591 E4.17080
G1 X86.298 Y118.612 E4.20105
G1 X87.534 Y118.514 E4.23130
G1 X88.755 Y118.298 E4.26154
G1 X89.950 Y117.965 E4.29179
G1 X91.107 Y117.519 E4.32204
G1 X92.216 Y116.964 E4.35228
G1 X93.266 Y116.305 E4.38253
G1 X94.248 Y115.548 E4.41278
G1 X95.153 Y114.700 E4.44303
G1 X95.973 Y113.769 E4.47327
G1 X96.699 Y112.764 E4.50352
G1 X97.325 Y111.694 E4.53377
G1 X97.845 Y110.568 E4.56401
G1 X98.186 Y109.596 E4.58915
G1 X98.255 Y109.398 E4.59426
G1 X98.551 Y108.193 E4.62451
G1 X98.729 Y106.966 E4.65475
G1 X98.789 Y105.728 E4.68500
G1 X98.729 Y104.489 E4.71525
G1 X98.551 Y103.262 E4.74549
G1 X98.255 Y102.057 E4.77574
G1 X97.845 Y100.887 E4.80599
G1 X97.325 Y99.761 E4.83623
G1 X97.219 Y99.580 E4.84134
G1 X96.699 Y98.691 E4.86648
G1 X95.973 Y97.686 E4.89673
G1 X95.153 Y96.755 E4.92697
G1 X94.248 Y95.907 E4.95722
G1 X94.083 Y95.779 E4.96233
G1 X93.266 Y95.150 E4.98747
G1 X92.216 Y94.491 E5.01771
G1 X91.107 Y93.936 E5.04796
G1 X89.950 Y93.490 E5.07821
G1 X89.748 Y93.433 E5.08332
G1 X88.755 Y93.157 E5.10846
G1 X87.534 Y92.941 E5.13870
G1 X86.298 Y92.843 E5.16895
G1 X86.088 Y92.846 E5.17406
G1 X85.058 Y92.864 E5.19920
G1 X83.826 Y93.004 E5.22944
G1 X82.613 Y93.262 E5.25969
G1 X81.430 Y93.636 E5.28994
G1 X81.237 Y93.717 E5.29505
G1 X80.289 Y94.121 E5.32018
G1 X79.200 Y94.714 E5.35043
G1 X78.173 Y95.408 E5.38068
G1 X77.217 Y96.198 E5.41092
G1 X77.068 Y96.346 E5.41603
G1 X76.341 Y97.076 E5.44117
G1 X75.548 Y98.043 E5.47167
G1 X75.539 Y80.359 E5.90300
G1 X75.489 Y80.196 E5.90715
G1 X75.231 Y78.671 E5.94487
G1 X75.182 Y78.552 E5.94801
G1 X74.511 Y77.125 E5.98649
G1 X73.432 Y75.813 E6.02791
G1 X72.060 Y74.812 E6.06934
G1 X71.948 Y74.766 E6.07229
G1 X70.481 Y74.185 E6.11077
G1 X68.845 Y73.978 E6.15100
G1 X49.826 Y73.978 E6.61489
G1 X49.503 Y73.953 E6.62279
G1 X49.521 Y69.093 E6.74132
G1 X121.617 Y69.093 E8.49985
G1 X122.071 Y69.552 E8.51560
G1 X122.415 Y70.135 E8.53209
G1 X122.619 Y70.830 E8.54976
G1 X122.668 Y71.126 E8.55708
G1 X126.963 Y83.765 E8.88269
G1 X127.155 Y84.435 E8.89969
G1 X127.251 Y85.093 E8.91591
G1 X127.258 Y85.758 E8.93213
G1 X127.176 Y86.418 E8.94835
G1 X127.006 Y87.062 E8.96457
G1 X126.752 Y87.676 E8.98080
G1 X126.419 Y88.252 E8.99702
G1 X126.011 Y88.777 E9.01324
G1 X125.537 Y89.244 E9.02946
G1 X125.005 Y89.643 E9.04569
G1 X124.424 Y89.967 E9.06191
G1 X122.553 Y90.670 E9.11068
G1 X121.343 Y91.233 E9.14323
G1 X120.185 Y91.897 E9.17578
G1 X119.087 Y92.656 E9.20833
G1 X118.058 Y93.505 E9.24088
G1 X117.104 Y94.438 E9.27343
G1 X116.232 Y95.449 E9.30598
G1 X115.450 Y96.530 E9.33853
G1 X114.761 Y97.673 E9.37108
G1 X114.172 Y98.871 E9.40364
G1 X113.686 Y100.114 E9.43619
G1 X113.308 Y101.393 E9.46874
G1 X113.039 Y102.700 E9.50129
G1 X112.881 Y104.026 E9.53384
G1 X112.836 Y105.359 E9.56639
G1 X112.905 Y106.692 E9.59894
G1 X113.086 Y108.014 E9.63149
G1 X113.378 Y109.317 E9.66404
G1 X113.779 Y110.589 E9.69659
G1 X114.287 Y111.823 E9.72914
G1 X114.926 Y113.055 E9.76298
G1 X115.606 Y114.141 E9.79424
G1 X116.408 Y115.208 E9.82679
G1 X117.297 Y116.203 E9.85934
G1 X118.267 Y117.119 E9.89189
G1 X119.312 Y117.950 E9.92444
G1 X120.423 Y118.689 E9.95699
G1 X121.592 Y119.332 E9.98954
G1 X122.812 Y119.874 E10.02209
G1 X124.073 Y120.310 E10.05464
G1 X125.367 Y120.638 E10.08719
G1 X126.683 Y120.855 E10.11974
G1 X128.014 Y120.960 E10.15229
G1 X129.348 Y120.952 E10.18485
G1 X130.603 Y120.838 E10.21557
G1 X130.611 Y120.335 F7800.000
G1 X131.883 Y120.109 E10.24708 F2520.000
