; generated by Slic3r 1.0.0RC3 on 2014-04-04 at 14:50:09

; layer_height = 0.4
; perimeters = 2
; top_solid_layers = 2
; bottom_solid_layers = 2
; fill_density = 0.75
; perimeter_speed = 80
; infill_speed = 100
; travel_speed = 130
; nozzle_diameter = 0.5
; filament_diameter = 2.89
; extrusion_multiplier = 1
; perimeters extrusion width = 0.50mm
; infill extrusion width = 0.60mm
; solid infill extrusion width = 0.50mm
; top infill extrusion width = 0.43mm
; first layer extrusion width = 0.50mm

G21 ; set units to millimeters
M107
G28 ; home all axes
G90 ; use absolute coordinates
G92 E0
M82 ; use absolute distances for extrusion
M204 S800
G1 F1500.000 E-1.40000
G92 E0
G1 Z0.320 F7800.000
G1 X102.521 Y39.825 F7800.000
G1 E1.40000 F1500.000
G1 X102.601 Y40.005 E1.40480 F2880.000
G1 X122.311 Y93.285 E2.79044
G1 X122.491 Y93.835 E2.80456
G1 X122.851 Y95.175 E2.83840
G1 X123.081 Y96.285 E2.86605
G1 X123.151 Y97.475 E2.89513
G1 X123.151 Y98.505 E2.92025
G1 X123.131 Y99.045 E2.93343
G1 X123.001 Y100.085 E2.95900
G1 X122.831 Y100.865 E2.97847
G1 X122.401 Y102.385 E3.01700
G1 X122.311 Y102.635 E3.02348
G1 X121.981 Y103.395 E3.04369
G1 X121.671 Y103.985 E3.05994
G1 X121.161 Y104.875 E3.08496
G1 X120.721 Y105.555 E3.10472
G1 X120.101 Y106.345 E3.12921
G1 X119.691 Y106.795 E3.14406
G1 X118.961 Y107.515 E3.16907
G1 X118.371 Y108.035 E3.18825
G1 X117.781 Y108.485 E3.20635
G1 X117.101 Y108.925 E3.22611
G1 X116.211 Y109.435 E3.25113
G1 X115.621 Y109.745 E3.26738
G1 X114.621 Y110.155 E3.29375
G1 X113.091 Y110.585 E3.33251
G1 X112.311 Y110.755 E3.35198
G1 X111.251 Y110.885 E3.37803
G1 X109.391 Y110.885 E3.42340
G1 X53.651 Y108.375 E4.78435
G1 X53.101 Y108.335 E4.79780
G1 X51.801 Y108.175 E4.82974
G1 X50.651 Y107.925 E4.85845
G1 X50.251 Y107.805 E4.86864
G1 X49.571 Y107.565 E4.88622
G1 X48.681 Y107.195 E4.90973
G1 X47.951 Y106.845 E4.92948
G1 X47.541 Y106.615 E4.94095
G1 X46.711 Y106.065 E4.96523
G1 X45.951 Y105.485 E4.98855
G1 X45.401 Y105.025 E5.00604
G1 X45.061 Y104.705 E5.01743
G1 X44.331 Y103.895 E5.04403
G1 X43.741 Y103.135 E5.06749
G1 X43.451 Y102.725 E5.07974
G1 X43.191 Y102.335 E5.09117
G1 X42.781 Y101.645 E5.11075
G1 X16.081 Y49.495 E6.53978
G1 X15.511 Y47.945 E6.58006
G1 X15.311 Y46.305 E6.62036
G1 X15.311 Y40.135 E6.77085
G1 X15.451 Y38.755 E6.80469
G1 X15.851 Y37.435 E6.83833
G1 X16.511 Y36.215 E6.87216
G1 X17.391 Y35.155 E6.90576
G1 X18.471 Y34.285 E6.93959
G1 X19.691 Y33.645 E6.97319
G1 X21.021 Y33.255 E7.00700
G1 X21.341 Y33.195 E7.01494
G1 X22.421 Y33.075 E7.04145
G1 X92.971 Y33.065 E8.76225
G1 X93.821 Y33.115 E8.78302
G1 X94.641 Y33.215 E8.80317
G1 X95.611 Y33.405 E8.82728
G1 X96.551 Y33.735 E8.85158
G1 X97.321 Y34.065 E8.87201
G1 X98.041 Y34.425 E8.89164
G1 X98.721 Y34.865 E8.91140
G1 X98.951 Y35.035 E8.91838
G1 X99.611 Y35.565 E8.93902
G1 X100.221 Y36.115 E8.95906
G1 X100.751 Y36.725 E8.97877
G1 X101.261 Y37.385 E8.99911
G1 X101.791 Y38.185 E9.02252
G1 X102.211 Y39.055 E9.04608
G1 X102.493 Y39.755 E9.06450
G1 X102.061 Y40.005 F7800.000
G1 X121.841 Y93.455 E10.45462 F2880.000
G1 X122.111 Y94.315 E10.47660
G1 X122.371 Y95.305 E10.50157
G1 X122.581 Y96.355 E10.52769
G1 X122.651 Y97.225 E10.54898
G1 X122.651 Y98.505 E10.58020
G1 X122.631 Y99.005 E10.59240
G1 X122.511 Y99.995 E10.61673
G1 X122.351 Y100.735 E10.63519
G1 X121.931 Y102.215 E10.67272
G1 X121.841 Y102.465 E10.67920
G1 X121.531 Y103.175 E10.69810
G1 X121.241 Y103.735 E10.71348
G1 X120.731 Y104.625 E10.73850
G1 X120.311 Y105.275 E10.75737
G1 X119.721 Y106.025 E10.78065
G1 X119.331 Y106.445 E10.79463
G1 X118.601 Y107.165 E10.81964
G1 X118.051 Y107.655 E10.83761
G1 X117.501 Y108.075 E10.85449
G1 X116.851 Y108.495 E10.87336
G1 X115.961 Y109.005 E10.89838
G1 X115.401 Y109.295 E10.91376
G1 X114.471 Y109.675 E10.93827
G1 X112.961 Y110.105 E10.97656
G1 X112.221 Y110.265 E10.99503
G1 X111.231 Y110.385 E11.01935
G1 X109.411 Y110.385 E11.06375
G1 X53.671 Y107.875 E12.42469
G1 X53.171 Y107.835 E12.43693
G1 X51.871 Y107.675 E12.46887
G1 X50.791 Y107.455 E12.49576
G1 X50.391 Y107.335 E12.50594
G1 X49.761 Y107.105 E12.52230
G1 X48.871 Y106.735 E12.54581
G1 X48.191 Y106.405 E12.56425
G1 X47.781 Y106.175 E12.57572
G1 X47.021 Y105.675 E12.59790
G1 X46.261 Y105.095 E12.62122
G1 X45.751 Y104.655 E12.63765
G1 X45.411 Y104.335 E12.64904
G1 X44.731 Y103.595 E12.67355
G1 X43.861 Y102.455 E12.70853
G1 X43.601 Y102.065 E12.71996
G1 X43.221 Y101.415 E12.73833
G1 X16.521 Y49.265 E14.16736
G1 X15.991 Y47.825 E14.20478
G1 X15.811 Y46.305 E14.24212
G1 X15.811 Y40.135 E14.39261
G1 X15.941 Y38.855 E14.42399
G1 X16.311 Y37.625 E14.45532
G1 X16.921 Y36.495 E14.48664
G1 X17.741 Y35.515 E14.51781
G1 X18.741 Y34.705 E14.54920
G1 X19.881 Y34.105 E14.58062
G1 X21.111 Y33.745 E14.61188
G1 X21.431 Y33.685 E14.61982
G1 X22.441 Y33.575 E14.64460
G1 X92.971 Y33.565 E16.36492
G1 X93.761 Y33.615 E16.38423
G1 X94.581 Y33.715 E16.40438
G1 X95.481 Y33.885 E16.42672
G1 X96.351 Y34.195 E16.44925
G1 X97.121 Y34.525 E16.46968
G1 X97.791 Y34.855 E16.48790
G1 X98.651 Y35.435 E16.51320
G1 X99.301 Y35.955 E16.53350
G1 X99.861 Y36.465 E16.55197
G1 X100.351 Y37.035 E16.57031
G1 X100.861 Y37.695 E16.59065
G1 X101.361 Y38.435 E16.61244
G1 X101.751 Y39.235 E16.63415
G1 X102.033 Y39.935 E16.65256
G1 F1500.000 E15.25256
G92 E0
G1 X89.486 Y45.975 F7800.000
G1 E1.40000 F1500.000
G1 X83.025 Y66.975 E1.93592 F2880.000
G1 X71.221 Y66.975 E2.22383
G1 X71.221 Y52.700 E2.57200
G1 X71.277 Y51.844 E2.59294
G1 X71.449 Y50.978 E2.61449
G1 X71.733 Y50.141 E2.63603
G1 X72.124 Y49.349 E2.65757
G1 X72.614 Y48.615 E2.67911
G1 X73.197 Y47.951 E2.70065
G1 X73.814 Y47.410 E2.72067
G1 X74.595 Y46.878 E2.74372
G1 X75.446 Y46.467 E2.76677
G1 X76.223 Y46.203 E2.78679
G1 X77.090 Y46.031 E2.80833
G1 X77.946 Y45.975 E2.82927
G1 X89.411 Y45.975 E3.10892
G1 X88.809 Y46.475 F7800.000
G1 X82.655 Y66.475 E3.61932 F2160.000
G1 X71.721 Y66.475 E3.88602
G1 X71.721 Y52.717 E4.22160
G1 X71.774 Y51.909 E4.24135
G1 X71.933 Y51.107 E4.26129
G1 X72.196 Y50.333 E4.28123
G1 X72.558 Y49.600 E4.30117
G1 X73.012 Y48.920 E4.32112
G1 X73.551 Y48.305 E4.34106
G1 X74.143 Y47.786 E4.36028
G1 X74.846 Y47.312 E4.38094
G1 X75.607 Y46.941 E4.40160
G1 X76.353 Y46.687 E4.42082
G1 X77.155 Y46.528 E4.44076
G1 X77.963 Y46.475 E4.46050
G1 X88.734 Y46.475 E4.72324
G1 X89.299 Y46.574 F7800.000
G1 F1500.000 E3.32324
G92 E0
G1 X109.869 Y94.225 F7800.000
G1 E1.40000 F1500.000
G1 X109.869 Y94.196 E1.40069 F1800.000
G1 X111.125 Y94.329 E1.43148
G1 X112.067 Y94.701 E1.45620
G1 X112.876 Y95.312 E1.48092
G1 X113.492 Y96.117 E1.50565
G1 X113.870 Y97.058 E1.53037
G1 X113.982 Y98.065 E1.55509
G1 X113.822 Y99.066 E1.57981
G1 X113.399 Y99.987 E1.60453
G1 X112.745 Y100.761 E1.62925
G1 X111.908 Y101.333 E1.65397
G1 X110.949 Y101.660 E1.67869
G1 X109.964 Y101.716 E1.70276
G1 X107.494 Y101.716 E1.76299
G1 X106.509 Y101.660 E1.78706
G1 X105.550 Y101.333 E1.81178
G1 X104.713 Y100.761 E1.83650
G1 X104.059 Y99.987 E1.86122
G1 X103.637 Y99.066 E1.88594
G1 X103.476 Y98.065 E1.91066
G1 X103.589 Y97.058 E1.93538
G1 X103.935 Y96.196 E1.95804
G1 X103.967 Y96.117 E1.96010
G1 X104.582 Y95.312 E1.98482
G1 X105.391 Y94.701 E2.00954
G1 X106.334 Y94.329 E2.03426
G1 X107.321 Y94.225 E2.05848
G1 X109.794 Y94.225 E2.11881
G1 X109.855 Y94.200 F7800.000
G1 X109.369 Y93.640 F7800.000
G1 X109.369 Y93.725 E2.12086 F2880.000
G1 X107.474 Y93.725 E2.16710
G1 X107.426 Y93.454 E2.17380
G1 X108.442 Y93.093 E2.20010
G1 X109.389 Y92.844 E2.22399
G1 X109.765 Y92.796 E2.23323
G1 X110.934 Y92.815 E2.26175
G1 X112.245 Y93.172 E2.29488
G1 X113.418 Y93.857 E2.32802
G1 X114.375 Y94.822 E2.36116
G1 X115.049 Y96.001 E2.39429
G1 X115.396 Y97.315 E2.42743
G1 X115.391 Y98.673 E2.46057
G1 X115.096 Y99.805 E2.48908
G1 X114.950 Y100.154 E2.49832
G1 X114.351 Y101.158 E2.52684
G1 X113.531 Y101.991 E2.55536
G1 X113.230 Y102.221 E2.56460
G1 X112.210 Y102.792 E2.59312
G1 X110.897 Y103.140 E2.62625
G1 X109.726 Y103.150 E2.65480
G1 X109.536 Y102.996 E2.66078
G1 X103.321 Y102.234 E2.81351
G1 X97.069 Y101.608 E2.96675
G1 X90.805 Y101.120 E3.12000
G1 X84.553 Y100.773 E3.27273
G1 X84.311 Y100.906 E3.27946
G1 X78.250 Y100.705 E3.42739
G1 X71.975 Y100.635 E3.58046
G1 X54.005 Y100.635 E4.01878
G1 X52.818 Y100.491 E4.04793
G1 X52.511 Y100.401 E4.05573
G1 X51.703 Y100.066 E4.07708
G1 X51.379 Y99.885 E4.08613
G1 X50.692 Y99.358 E4.10725
G1 X50.417 Y99.104 E4.11637
G1 X49.891 Y98.418 E4.13747
G1 X49.683 Y98.107 E4.14658
G1 X49.223 Y96.958 E4.17677
G1 X49.061 Y95.681 E4.20817
G1 X49.061 Y87.760 E4.40137
G1 X49.095 Y87.489 E4.40802
G1 X49.178 Y87.279 E4.41353
G1 X49.310 Y87.096 E4.41903
G1 X49.483 Y86.952 E4.42453
G1 X49.687 Y86.855 E4.43004
G1 X49.908 Y86.811 E4.43554
G1 X50.133 Y86.824 E4.44104
G1 X50.348 Y86.892 E4.44655
G1 X50.595 Y87.045 E4.45363
G1 X51.495 Y87.706 E4.48087
G1 X52.507 Y88.314 E4.50967
G1 X53.572 Y88.824 E4.53847
G1 X54.681 Y89.232 E4.56728
G1 X55.822 Y89.534 E4.59608
G1 X56.987 Y89.728 E4.62489
G1 X58.165 Y89.812 E4.65369
G1 X59.346 Y89.785 E4.68250
G1 X60.519 Y89.648 E4.71130
G1 X61.674 Y89.402 E4.74011
G1 X62.800 Y89.048 E4.76891
G1 X63.889 Y88.590 E4.79772
G1 X64.224 Y88.411 E4.80699
G1 X64.930 Y88.033 E4.82652
G1 X65.914 Y87.380 E4.85533
G1 X66.833 Y86.638 E4.88413
G1 X67.678 Y85.813 E4.91293
G1 X68.442 Y84.913 E4.94174
G1 X69.119 Y83.945 E4.97054
G1 X69.701 Y82.918 E4.99935
G1 X70.185 Y81.840 E5.02815
G1 X70.566 Y80.723 E5.05696
G1 X70.841 Y79.574 E5.08576
G1 X71.006 Y78.405 E5.11457
G1 X71.062 Y77.225 E5.14337
G1 X71.006 Y76.045 E5.17218
G1 X70.841 Y74.876 E5.20098
G1 X70.566 Y73.728 E5.22978
G1 X70.185 Y72.610 E5.25859
G1 X69.701 Y71.532 E5.28739
G1 X69.119 Y70.505 E5.31620
G1 X68.442 Y69.537 E5.34500
G1 X67.678 Y68.637 E5.37381
G1 X66.833 Y67.812 E5.40261
G1 X65.914 Y67.070 E5.43142
G1 X64.930 Y66.417 E5.46022
G1 X63.889 Y65.860 E5.48903
G1 X62.800 Y65.402 E5.51783
G1 X62.373 Y65.268 E5.52877
G1 X61.674 Y65.048 E5.54664
G1 X60.519 Y64.802 E5.57544
G1 X59.346 Y64.665 E5.60424
G1 X58.165 Y64.638 E5.63305
G1 X56.987 Y64.722 E5.66185
G1 X55.822 Y64.916 E5.69066
G1 X54.681 Y65.218 E5.71946
G1 X53.572 Y65.626 E5.74827
G1 X52.507 Y66.136 E5.77707
G1 X51.495 Y66.744 E5.80588
G1 X50.595 Y67.405 E5.83311
G1 X50.348 Y67.558 E5.84020
G1 X50.133 Y67.626 E5.84570
G1 X49.908 Y67.639 E5.85120
G1 X49.687 Y67.595 E5.85671
G1 X49.483 Y67.498 E5.86221
G1 X49.310 Y67.354 E5.86771
G1 X49.178 Y67.171 E5.87321
G1 X49.095 Y66.961 E5.87872
G1 X49.061 Y66.690 E5.88538
G1 X49.061 Y52.700 E6.22660
G1 X49.002 Y51.799 E6.24862
G1 X48.821 Y50.890 E6.27125
G1 X48.523 Y50.011 E6.29388
G1 X48.112 Y49.179 E6.31650
G1 X47.597 Y48.408 E6.33913
G1 X46.985 Y47.710 E6.36175
G1 X46.288 Y47.099 E6.38438
G1 X45.517 Y46.583 E6.40701
G1 X44.685 Y46.173 E6.42963
G1 X44.091 Y45.972 E6.44493
G1 X43.806 Y45.875 E6.45226
G1 X42.896 Y45.694 E6.47488
G1 X41.995 Y45.635 E6.49691
G1 X23.061 Y45.635 E6.95875
G1 X23.061 Y40.815 E7.07631
G1 X92.922 Y40.815 E8.78031
G1 X93.599 Y40.905 E8.79698
G1 X94.183 Y41.149 E8.81242
G1 X94.683 Y41.538 E8.82787
G1 X94.800 Y41.691 E8.83256
G1 X95.065 Y42.044 E8.84331
G1 X95.301 Y42.631 E8.85876
G1 X95.391 Y43.406 E8.87778
G1 X98.213 Y54.110 E9.14778
G1 X98.108 Y54.180 E9.15086
G1 X97.599 Y53.789 E9.16652
G1 X96.572 Y53.364 E9.19362
G1 X95.520 Y53.225 E9.21951
G1 X92.422 Y53.225 E9.29508
G1 X91.369 Y53.364 E9.32098
G1 X90.343 Y53.789 E9.34808
G1 X89.461 Y54.465 E9.37518
G1 X88.785 Y55.347 E9.40229
G1 X88.359 Y56.373 E9.42939
G1 X88.214 Y57.475 E9.45649
G1 X88.359 Y58.577 E9.48359
G1 X88.785 Y59.603 E9.51070
G1 X89.461 Y60.485 E9.53780
G1 X90.343 Y61.161 E9.56490
G1 X91.369 Y61.586 E9.59201
G1 X92.422 Y61.725 E9.61790
G1 X93.851 Y61.725 E9.65276
G1 X93.899 Y61.910 E9.65744
G1 X92.765 Y62.544 E9.68913
G1 X91.614 Y63.315 E9.72292
G1 X90.529 Y64.176 E9.75671
G1 X89.516 Y65.122 E9.79050
G1 X88.583 Y66.146 E9.82429
G1 X87.736 Y67.241 E9.85808
G1 X86.979 Y68.402 E9.89187
G1 X86.318 Y69.619 E9.92565
G1 X85.756 Y70.886 E9.95944
G1 X85.299 Y72.193 E9.99323
G1 X84.948 Y73.533 E10.02702
G1 X84.707 Y74.897 E10.06081
G1 X84.575 Y76.276 E10.09460
G1 X84.555 Y77.662 E10.12839
G1 X84.647 Y79.044 E10.16218
G1 X84.849 Y80.414 E10.19597
G1 X85.118 Y81.580 E10.22514
G1 X83.702 Y80.993 E10.26255
G1 X82.649 Y80.854 E10.28844
G1 X79.551 Y80.854 E10.36401
G1 X78.498 Y80.993 E10.38990
G1 X77.472 Y81.418 E10.41701
G1 X76.590 Y82.094 E10.44411
G1 X75.914 Y82.976 E10.47121
G1 X75.545 Y83.866 E10.49472
G1 X75.489 Y84.002 E10.49831
G1 X75.343 Y85.104 E10.52542
G1 X75.488 Y86.206 E10.55252
G1 X75.914 Y87.232 E10.57962
G1 X76.590 Y88.114 E10.60672
G1 X77.471 Y88.790 E10.63382
G1 X78.498 Y89.216 E10.66093
G1 X79.551 Y89.354 E10.68682
G1 X82.649 Y89.354 E10.76240
G1 X83.702 Y89.216 E10.78829
G1 X84.728 Y88.790 E10.81540
G1 X85.610 Y88.114 E10.84250
G1 X86.286 Y87.232 E10.86960
G1 X86.868 Y85.827 E10.90670
G1 X87.454 Y86.784 E10.93405
G1 X88.269 Y87.904 E10.96784
G1 X89.173 Y88.954 E11.00163
G1 X90.157 Y89.928 E11.03542
G1 X91.217 Y90.820 E11.06921
G1 X92.346 Y91.624 E11.10300
G1 X93.535 Y92.335 E11.13679
G1 X94.777 Y92.947 E11.17057
G1 X96.065 Y93.458 E11.20436
G1 X97.390 Y93.863 E11.23815
G1 X98.743 Y94.161 E11.27194
G1 X100.115 Y94.348 E11.30573
G1 X101.498 Y94.425 E11.33952
G1 X102.883 Y94.390 E11.37331
G1 X104.261 Y94.244 E11.40710
G1 X105.004 Y94.104 E11.42556
G1 X105.092 Y94.301 E11.43080
G1 X104.227 Y94.955 E11.45724
G1 X103.528 Y95.868 E11.48529
G1 X103.099 Y96.934 E11.51333
G1 X102.972 Y98.077 E11.54137
G1 X103.154 Y99.212 E11.56942
G1 X103.633 Y100.257 E11.59746
G1 X104.375 Y101.136 E11.62550
G1 X105.324 Y101.784 E11.65355
G1 X106.413 Y102.155 E11.68159
G1 X107.480 Y102.216 E11.70767
G1 X109.978 Y102.216 E11.76860
G1 X111.046 Y102.155 E11.79468
G1 X112.134 Y101.784 E11.82272
G1 X113.084 Y101.136 E11.85077
G1 X113.825 Y100.257 E11.87881
G1 X114.305 Y99.212 E11.90686
G1 X114.487 Y98.077 E11.93490
G1 X114.359 Y96.934 E11.96294
G1 X113.930 Y95.868 E11.99099
G1 X113.232 Y94.955 E12.01903
G1 X112.314 Y94.261 E12.04707
G1 X111.245 Y93.839 E12.07512
G1 X109.444 Y93.648 E12.11929
G1 F1500.000 E10.71929
G92 E0
G1 X106.807 Y93.146 F7800.000
G1 E1.40000 F1500.000
G1 X108.299 Y92.613 E1.43863 F2160.000
G1 X109.278 Y92.356 E1.46333
G1 X109.513 Y92.311 E1.46915
G1 X109.751 Y92.296 E1.47498
G1 X110.764 Y92.301 E1.49968
G1 X111.002 Y92.318 E1.50550
G1 X111.236 Y92.366 E1.51133
G1 X112.213 Y92.632 E1.53602
G1 X112.439 Y92.710 E1.54185
G1 X112.652 Y92.817 E1.54768
G1 X113.527 Y93.327 E1.57237
G1 X113.725 Y93.461 E1.57820
G1 X113.904 Y93.619 E1.58403
G1 X114.617 Y94.338 E1.60872
G1 X114.773 Y94.518 E1.61455
G1 X114.905 Y94.718 E1.62038
G1 X115.408 Y95.596 E1.64507
G1 X115.513 Y95.811 E1.65090
G1 X115.589 Y96.038 E1.65673
G1 X115.847 Y97.017 E1.68142
G1 X115.893 Y97.251 E1.68725
G1 X115.907 Y97.489 E1.69308
G1 X115.904 Y98.502 E1.71777
G1 X115.887 Y98.740 E1.72360
G1 X115.840 Y98.974 E1.72942
G1 X115.574 Y99.951 E1.75412
G1 X115.497 Y100.177 E1.75995
G1 X115.390 Y100.391 E1.76577
G1 X114.881 Y101.266 E1.79047
G1 X114.748 Y101.465 E1.79629
G1 X114.590 Y101.644 E1.80212
G1 X113.872 Y102.358 E1.82682
G1 X113.692 Y102.515 E1.83264
G1 X113.493 Y102.647 E1.83847
G1 X112.615 Y103.151 E1.86316
G1 X112.400 Y103.256 E1.86899
G1 X112.174 Y103.332 E1.87482
G1 X111.195 Y103.591 E1.89951
G1 X110.961 Y103.637 E1.90534
G1 X110.722 Y103.652 E1.91117
G1 X109.710 Y103.650 E1.93586
G1 X109.534 Y103.638 E1.94016
G1 X109.332 Y103.475 E1.94649
G1 X103.265 Y102.731 E2.09559
G1 X97.025 Y102.106 E2.24856
G1 X90.772 Y101.619 E2.40153
G1 X84.669 Y101.280 E2.55063
G1 X84.432 Y101.411 E2.55722
G1 X78.239 Y101.205 E2.70837
G1 X71.972 Y101.135 E2.86123
G1 X53.982 Y101.135 E3.30003
G1 X52.714 Y100.982 E3.33118
G1 X52.345 Y100.873 E3.34058
G1 X51.484 Y100.517 E3.36330
G1 X51.103 Y100.303 E3.37394
G1 X50.369 Y99.740 E3.39650
G1 X50.047 Y99.442 E3.40723
G1 X49.484 Y98.709 E3.42976
G1 X49.240 Y98.344 E3.44048
G1 X48.735 Y97.078 E3.47371
G1 X48.561 Y95.710 E3.50735
G1 X48.561 Y87.729 E3.70203
G1 X48.607 Y87.364 E3.71098
G1 X48.735 Y87.038 E3.71955
G1 X48.941 Y86.753 E3.72812
G1 X49.211 Y86.528 E3.73669
G1 X49.412 Y86.432 E3.74214
G1 X49.528 Y86.376 E3.74526
G1 X49.873 Y86.308 E3.75384
G1 X50.224 Y86.328 E3.76241
