; generated by Slic3r 1.0.0RC3 on 2014-04-04 at 14:50:09

; layer_height = 0.4
; perimeters = 2
; top_solid_layers = 2
; bottom_solid_layers = 2
; fill_density = 0.75
; perimeter_speed = 80
; infill_speed = 100
; travel_speed = 130
; nozzle_diameter = 0.5
; filament_diameter = 2.89
; extrusion_multiplier = 1
; perimeters extrusion width = 0.50mm
; infill extrusion width = 0.60mm
; solid infill extrusion width = 0.50mm
; top infill extrusion width = 0.43mm
; first layer extrusion width = 0.50mm

G21 ; set units to millimeters
M107
M301 P34 I4 D113     ; set PID nozzle
M304 P162 I17 D378 ; set PID Bed

M104 S230                 ; set extruder temp
M140 S100                 ; set bed temp

G28                            ; home
G1 Z5 F300                ; move bed down 5mm
M84                            ; disable steppers
G4 S300                     ; wait 5 mins to preheat

G28                            ; home

G90 ; use absolute coordinates
G92 E0
M82 ; use absolute distances for extrusion
M204 S800
G1 F1500.000 E-1.40000
G92 E0
G1 Z0.320 F7800.000
G1 X246.521 Y175.825 F7800.000
G1 E1.40000 F1500.000
G1 X246.601 Y176.005 E1.40480 F2880.000
G1 X266.311 Y229.285 E2.79044
G1 X266.491 Y229.835 E2.80456
G1 X266.851 Y231.175 E2.83840
G1 X267.081 Y232.285 E2.86605
G1 X267.151 Y233.475 E2.89513
G1 X267.151 Y234.505 E2.92025
G1 X267.131 Y235.045 E2.93343
G1 X267.001 Y236.085 E2.95900
G1 X266.831 Y236.865 E2.97847
G1 X266.401 Y238.385 E3.01700
G1 X266.311 Y238.635 E3.02348
G1 X265.981 Y239.395 E3.04369
G1 X265.671 Y239.985 E3.05994
G1 X265.161 Y240.875 E3.08496
G1 X264.721 Y241.555 E3.10472
G1 X264.101 Y242.345 E3.12921
G1 X263.691 Y242.795 E3.14406
G1 X262.961 Y243.515 E3.16907
G1 X262.371 Y244.035 E3.18825
G1 X261.781 Y244.485 E3.20635
G1 X261.101 Y244.925 E3.22611
G1 X260.211 Y245.435 E3.25113
G1 X259.621 Y245.745 E3.26738
G1 X258.621 Y246.155 E3.29375
G1 X257.091 Y246.585 E3.33251
G1 X256.311 Y246.755 E3.35198
G1 X255.251 Y246.885 E3.37803
G1 X253.391 Y246.885 E3.42340
G1 X197.651 Y244.375 E4.78435
G1 X197.101 Y244.335 E4.79780
G1 X195.801 Y244.175 E4.82974
G1 X194.651 Y243.925 E4.85845
G1 X194.251 Y243.805 E4.86864
G1 X193.571 Y243.565 E4.88622
G1 X192.681 Y243.195 E4.90973
G1 X191.951 Y242.845 E4.92948
G1 X191.541 Y242.615 E4.94095
G1 X190.711 Y242.065 E4.96523
G1 X189.951 Y241.485 E4.98855
G1 X189.401 Y241.025 E5.00604
G1 X189.061 Y240.705 E5.01743
G1 X188.331 Y239.895 E5.04403
G1 X187.741 Y239.135 E5.06749
G1 X187.451 Y238.725 E5.07974
G1 X187.191 Y238.335 E5.09117
G1 X186.781 Y237.645 E5.11075
G1 X160.081 Y185.495 E6.53978
G1 X159.511 Y183.945 E6.58006
G1 X159.311 Y182.305 E6.62036
G1 X159.311 Y176.135 E6.77085
G1 X159.451 Y174.755 E6.80469
G1 X159.851 Y173.435 E6.83833
G1 X160.511 Y172.215 E6.87216
G1 X161.391 Y171.155 E6.90576
G1 X162.471 Y170.285 E6.93959
G1 X163.691 Y169.645 E6.97319
G1 X165.021 Y169.255 E7.00700
G1 X165.341 Y169.195 E7.01494
G1 X166.421 Y169.075 E7.04145
G1 X236.971 Y169.065 E8.76225
G1 X237.821 Y169.115 E8.78302
G1 X238.641 Y169.215 E8.80317
G1 X239.611 Y169.405 E8.82728
G1 X240.551 Y169.735 E8.85158
G1 X241.321 Y170.065 E8.87201
G1 X242.041 Y170.425 E8.89164
G1 X242.721 Y170.865 E8.91140
G1 X242.951 Y171.035 E8.91838
G1 X243.611 Y171.565 E8.93902
G1 X244.221 Y172.115 E8.95906
G1 X244.751 Y172.725 E8.97877
G1 X245.261 Y173.385 E8.99911
G1 X245.791 Y174.185 E9.02252
G1 X246.211 Y175.055 E9.04608
G1 X246.493 Y175.755 E9.06450
G1 X246.061 Y176.005 F7800.000
G1 X265.841 Y229.455 E10.45462 F2880.000
G1 X266.111 Y230.315 E10.47660
G1 X266.371 Y231.305 E10.50157
G1 X266.581 Y232.355 E10.52769
G1 X266.651 Y233.225 E10.54898
G1 X266.651 Y234.505 E10.58020
G1 X266.631 Y235.005 E10.59240
G1 X266.511 Y235.995 E10.61673
G1 X266.351 Y236.735 E10.63519
G1 X265.931 Y238.215 E10.67272
G1 X265.841 Y238.465 E10.67920
G1 X265.531 Y239.175 E10.69810
G1 X265.241 Y239.735 E10.71348
G1 X264.731 Y240.625 E10.73850
G1 X264.311 Y241.275 E10.75737
G1 X263.721 Y242.025 E10.78065
G1 X263.331 Y242.445 E10.79463
G1 X262.601 Y243.165 E10.81964
G1 X262.051 Y243.655 E10.83761
G1 X261.501 Y244.075 E10.85449
G1 X260.851 Y244.495 E10.87336
G1 X259.961 Y245.005 E10.89838
G1 X259.401 Y245.295 E10.91376
G1 X258.471 Y245.675 E10.93827
G1 X256.961 Y246.105 E10.97656
G1 X256.221 Y246.265 E10.99503
G1 X255.231 Y246.385 E11.01935
G1 X253.411 Y246.385 E11.06375
G1 X197.671 Y243.875 E12.42469
G1 X197.171 Y243.835 E12.43693
G1 X195.871 Y243.675 E12.46887
G1 X194.791 Y243.455 E12.49576
G1 X194.391 Y243.335 E12.50594
G1 X193.761 Y243.105 E12.52230
G1 X192.871 Y242.735 E12.54581
G1 X192.191 Y242.405 E12.56425
G1 X191.781 Y242.175 E12.57572
G1 X191.021 Y241.675 E12.59790
G1 X190.261 Y241.095 E12.62122
G1 X189.751 Y240.655 E12.63765
G1 X189.411 Y240.335 E12.64904
G1 X188.731 Y239.595 E12.67355
G1 X187.861 Y238.455 E12.70853
G1 X187.601 Y238.065 E12.71996
G1 X187.221 Y237.415 E12.73833
G1 X160.521 Y185.265 E14.16736
G1 X159.991 Y183.825 E14.20478
G1 X159.811 Y182.305 E14.24212
G1 X159.811 Y176.135 E14.39261
G1 X159.941 Y174.855 E14.42399
G1 X160.311 Y173.625 E14.45532
G1 X160.921 Y172.495 E14.48664
G1 X161.741 Y171.515 E14.51781
G1 X162.741 Y170.705 E14.54920
G1 X163.881 Y170.105 E14.58062
G1 X165.111 Y169.745 E14.61188
G1 X165.431 Y169.685 E14.61982
G1 X166.441 Y169.575 E14.64460
G1 X236.971 Y169.565 E16.36492
G1 X237.761 Y169.615 E16.38423
G1 X238.581 Y169.715 E16.40438
G1 X239.481 Y169.885 E16.42672
G1 X240.351 Y170.195 E16.44925
G1 X241.121 Y170.525 E16.46968
G1 X241.791 Y170.855 E16.48790
G1 X242.651 Y171.435 E16.51320
G1 X243.301 Y171.955 E16.53350
G1 X243.861 Y172.465 E16.55197
G1 X244.351 Y173.035 E16.57031
G1 X244.861 Y173.695 E16.59065
G1 X245.361 Y174.435 E16.61244
G1 X245.751 Y175.235 E16.63415
G1 X246.033 Y175.935 E16.65256
G1 F1500.000 E15.25256
G92 E0
G1 X233.486 Y181.975 F7800.000
G1 E1.40000 F1500.000
G1 X227.025 Y202.975 E1.93592 F2880.000
G1 X215.221 Y202.975 E2.22383
G1 X215.221 Y188.700 E2.57200
G1 X215.277 Y187.844 E2.59294
G1 X215.449 Y186.978 E2.61449
G1 X215.733 Y186.141 E2.63603
G1 X216.124 Y185.349 E2.65757
G1 X216.614 Y184.615 E2.67911
G1 X217.197 Y183.951 E2.70065
G1 X217.814 Y183.410 E2.72067
G1 X218.595 Y182.878 E2.74372
G1 X219.446 Y182.467 E2.76677
G1 X220.223 Y182.203 E2.78679
G1 X221.090 Y182.031 E2.80833
G1 X221.946 Y181.975 E2.82927
G1 X233.411 Y181.975 E3.10892
G1 X232.809 Y182.475 F7800.000
G1 X226.655 Y202.475 E3.61932 F2160.000
G1 X215.721 Y202.475 E3.88602
G1 X215.721 Y188.717 E4.22160
G1 X215.774 Y187.909 E4.24135
G1 X215.933 Y187.107 E4.26129
G1 X216.196 Y186.333 E4.28123
G1 X216.558 Y185.600 E4.30117
G1 X217.012 Y184.920 E4.32112
G1 X217.551 Y184.305 E4.34106
G1 X218.143 Y183.786 E4.36028
G1 X218.846 Y183.312 E4.38094
G1 X219.607 Y182.941 E4.40160
G1 X220.353 Y182.687 E4.42082
G1 X221.155 Y182.528 E4.44076
G1 X221.963 Y182.475 E4.46050
G1 X232.734 Y182.475 E4.72324
G1 X233.299 Y182.574 F7800.000
G1 F1500.000 E3.32324
G92 E0
G1 X253.869 Y230.225 F7800.000
G1 E1.40000 F1500.000
G1 X253.869 Y230.196 E1.40069 F1800.000
G1 X255.125 Y230.329 E1.43148
G1 X256.067 Y230.701 E1.45620
G1 X256.876 Y231.312 E1.48092
G1 X257.492 Y232.117 E1.50565
G1 X257.870 Y233.058 E1.53037
G1 X257.982 Y234.065 E1.55509
G1 X257.822 Y235.066 E1.57981
G1 X257.399 Y235.987 E1.60453
G1 X256.745 Y236.761 E1.62925
G1 X255.908 Y237.333 E1.65397
G1 X254.949 Y237.660 E1.67869
G1 X253.964 Y237.716 E1.70276
G1 X251.494 Y237.716 E1.76299
G1 X250.509 Y237.660 E1.78706
G1 X249.550 Y237.333 E1.81178
G1 X248.713 Y236.761 E1.83650
G1 X248.059 Y235.987 E1.86122
G1 X247.637 Y235.066 E1.88594
G1 X247.476 Y234.065 E1.91066
G1 X247.589 Y233.058 E1.93538
G1 X247.935 Y232.196 E1.95804
G1 X247.967 Y232.117 E1.96010
G1 X248.582 Y231.312 E1.98482
G1 X249.391 Y230.701 E2.00954
G1 X250.334 Y230.329 E2.03426
G1 X251.321 Y230.225 E2.05848
G1 X253.794 Y230.225 E2.11881
G1 X253.855 Y230.200 F7800.000
G1 X253.369 Y229.640 F7800.000
G1 X253.369 Y229.725 E2.12086 F2880.000
G1 X251.474 Y229.725 E2.16710
G1 X251.426 Y229.454 E2.17380
G1 X252.442 Y229.093 E2.20010
G1 X253.389 Y228.844 E2.22399
G1 X253.765 Y228.796 E2.23323
G1 X254.934 Y228.815 E2.26175
G1 X256.245 Y229.172 E2.29488
G1 X257.418 Y229.857 E2.32802
G1 X258.375 Y230.822 E2.36116
G1 X259.049 Y232.001 E2.39429
G1 X259.396 Y233.315 E2.42743
G1 X259.391 Y234.673 E2.46057
G1 X259.096 Y235.805 E2.48908
G1 X258.950 Y236.154 E2.49832
G1 X258.351 Y237.158 E2.52684
G1 X257.531 Y237.991 E2.55536
G1 X257.230 Y238.221 E2.56460
G1 X256.210 Y238.792 E2.59312
G1 X254.897 Y239.140 E2.62625
G1 X253.726 Y239.150 E2.65480
G1 X253.536 Y238.996 E2.66078
G1 X247.321 Y238.234 E2.81351
G1 X241.069 Y237.608 E2.96675
G1 X234.805 Y237.120 E3.12000
G1 X228.553 Y236.773 E3.27273
G1 X228.311 Y236.906 E3.27946
G1 X222.250 Y236.705 E3.42739
G1 X215.975 Y236.635 E3.58046
G1 X198.005 Y236.635 E4.01878
G1 X196.818 Y236.491 E4.04793
G1 X196.511 Y236.401 E4.05573
G1 X195.703 Y236.066 E4.07708
G1 X195.379 Y235.885 E4.08613
G1 X194.692 Y235.358 E4.10725
G1 X194.417 Y235.104 E4.11637
G1 X193.891 Y234.418 E4.13747
G1 X193.683 Y234.107 E4.14658
G1 X193.223 Y232.958 E4.17677
G1 X193.061 Y231.681 E4.20817
G1 X193.061 Y223.760 E4.40137
G1 X193.095 Y223.489 E4.40802
G1 X193.178 Y223.279 E4.41353
G1 X193.310 Y223.096 E4.41903
G1 X193.483 Y222.952 E4.42453
G1 X193.687 Y222.855 E4.43004
G1 X193.908 Y222.811 E4.43554
G1 X194.133 Y222.824 E4.44104
G1 X194.348 Y222.892 E4.44655
G1 X194.595 Y223.045 E4.45363
G1 X195.495 Y223.706 E4.48087
G1 X196.507 Y224.314 E4.50967
G1 X197.572 Y224.824 E4.53847
G1 X198.681 Y225.232 E4.56728
G1 X199.822 Y225.534 E4.59608
G1 X200.987 Y225.728 E4.62489
G1 X202.165 Y225.812 E4.65369
G1 X203.346 Y225.785 E4.68250
G1 X204.519 Y225.648 E4.71130
G1 X205.674 Y225.402 E4.74011
G1 X206.800 Y225.048 E4.76891
G1 X207.889 Y224.590 E4.79772
G1 X208.224 Y224.411 E4.80699
G1 X208.930 Y224.033 E4.82652
G1 X209.914 Y223.380 E4.85533
G1 X210.833 Y222.638 E4.88413
G1 X211.678 Y221.813 E4.91293
G1 X212.442 Y220.913 E4.94174
G1 X213.119 Y219.945 E4.97054
G1 X213.701 Y218.918 E4.99935
G1 X214.185 Y217.840 E5.02815
G1 X214.566 Y216.723 E5.05696
G1 X214.841 Y215.574 E5.08576
G1 X215.006 Y214.405 E5.11457
G1 X215.062 Y213.225 E5.14337
G1 X215.006 Y212.045 E5.17218
G1 X214.841 Y210.876 E5.20098
G1 X214.566 Y209.728 E5.22978
G1 X214.185 Y208.610 E5.25859
G1 X213.701 Y207.532 E5.28739
G1 X213.119 Y206.505 E5.31620
G1 X212.442 Y205.537 E5.34500
G1 X211.678 Y204.637 E5.37381
G1 X210.833 Y203.812 E5.40261
G1 X209.914 Y203.070 E5.43142
G1 X208.930 Y202.417 E5.46022
G1 X207.889 Y201.860 E5.48903
G1 X206.800 Y201.402 E5.51783
G1 X206.373 Y201.268 E5.52877
G1 X205.674 Y201.048 E5.54664
G1 X204.519 Y200.802 E5.57544
G1 X203.346 Y200.665 E5.60424
G1 X202.165 Y200.638 E5.63305
G1 X200.987 Y200.722 E5.66185
G1 X199.822 Y200.916 E5.69066
G1 X198.681 Y201.218 E5.71946
G1 X197.572 Y201.626 E5.74827
G1 X196.507 Y202.136 E5.77707
G1 X195.495 Y202.744 E5.80588
G1 X194.595 Y203.405 E5.83311
G1 X194.348 Y203.558 E5.84020
G1 X194.133 Y203.626 E5.84570
G1 X193.908 Y203.639 E5.85120
G1 X193.687 Y203.595 E5.85671
G1 X193.483 Y203.498 E5.86221
G1 X193.310 Y203.354 E5.86771
G1 X193.178 Y203.171 E5.87321
G1 X193.095 Y202.961 E5.87872
G1 X193.061 Y202.690 E5.88538
G1 X193.061 Y188.700 E6.22660
G1 X193.002 Y187.799 E6.24862
G1 X192.821 Y186.890 E6.27125
G1 X192.523 Y186.011 E6.29388
G1 X192.112 Y185.179 E6.31650
G1 X191.597 Y184.408 E6.33913
G1 X190.985 Y183.710 E6.36175
G1 X190.288 Y183.099 E6.38438
G1 X189.517 Y182.583 E6.40701
G1 X188.685 Y182.173 E6.42963
G1 X188.091 Y181.972 E6.44493
G1 X187.806 Y181.875 E6.45226
G1 X186.896 Y181.694 E6.47488
G1 X185.995 Y181.635 E6.49691
G1 X167.061 Y181.635 E6.95875
G1 X167.061 Y176.815 E7.07631
G1 X236.922 Y176.815 E8.78031
G1 X237.599 Y176.905 E8.79698
G1 X238.183 Y177.149 E8.81242
G1 X238.683 Y177.538 E8.82787
G1 X238.800 Y177.691 E8.83256
G1 X239.065 Y178.044 E8.84331
G1 X239.301 Y178.631 E8.85876
G1 X239.391 Y179.406 E8.87778
G1 X242.213 Y190.110 E9.14778
G1 X242.108 Y190.180 E9.15086
G1 X241.599 Y189.789 E9.16652
G1 X240.572 Y189.364 E9.19362
G1 X239.520 Y189.225 E9.21951
G1 X236.422 Y189.225 E9.29508
G1 X235.369 Y189.364 E9.32098
G1 X234.343 Y189.789 E9.34808
G1 X233.461 Y190.465 E9.37518
G1 X232.785 Y191.347 E9.40229
G1 X232.359 Y192.373 E9.42939
G1 X232.214 Y193.475 E9.45649
G1 X232.359 Y194.577 E9.48359
G1 X232.785 Y195.603 E9.51070
G1 X233.461 Y196.485 E9.53780
G1 X234.343 Y197.161 E9.56490
G1 X235.369 Y197.586 E9.59201
G1 X236.422 Y197.725 E9.61790
G1 X237.851 Y197.725 E9.65276
G1 X237.899 Y197.910 E9.65744
G1 X236.765 Y198.544 E9.68913
G1 X235.614 Y199.315 E9.72292
G1 X234.529 Y200.176 E9.75671
G1 X233.516 Y201.122 E9.79050
G1 X232.583 Y202.146 E9.82429
G1 X231.736 Y203.241 E9.85808
G1 X230.979 Y204.402 E9.89187
G1 X230.318 Y205.619 E9.92565
G1 X229.756 Y206.886 E9.95944
G1 X229.299 Y208.193 E9.99323
G1 X228.948 Y209.533 E10.02702
G1 X228.707 Y210.897 E10.06081
G1 X228.575 Y212.276 E10.09460
G1 X228.555 Y213.662 E10.12839
G1 X228.647 Y215.044 E10.16218
G1 X228.849 Y216.414 E10.19597
G1 X229.118 Y217.580 E10.22514
G1 X227.702 Y216.993 E10.26255
G1 X226.649 Y216.854 E10.28844
G1 X223.551 Y216.854 E10.36401
G1 X222.498 Y216.993 E10.38990
G1 X221.472 Y217.418 E10.41701
G1 X220.590 Y218.094 E10.44411
G1 X219.914 Y218.976 E10.47121
G1 X219.545 Y219.866 E10.49472
G1 X219.489 Y220.002 E10.49831
G1 X219.343 Y221.104 E10.52542
G1 X219.488 Y222.206 E10.55252
G1 X219.914 Y223.232 E10.57962
G1 X220.590 Y224.114 E10.60672
G1 X221.471 Y224.790 E10.63382
G1 X222.498 Y225.216 E10.66093
G1 X223.551 Y225.354 E10.68682
G1 X226.649 Y225.354 E10.76240
G1 X227.702 Y225.216 E10.78829
G1 X228.728 Y224.790 E10.81540
G1 X229.610 Y224.114 E10.84250
G1 X230.286 Y223.232 E10.86960
G1 X230.868 Y221.827 E10.90670
G1 X231.454 Y222.784 E10.93405
G1 X232.269 Y223.904 E10.96784
G1 X233.173 Y224.954 E11.00163
G1 X234.157 Y225.928 E11.03542
G1 X235.217 Y226.820 E11.06921
G1 X236.346 Y227.624 E11.10300
G1 X237.535 Y228.335 E11.13679
G1 X238.777 Y228.947 E11.17057
G1 X240.065 Y229.458 E11.20436
G1 X241.390 Y229.863 E11.23815
G1 X242.743 Y230.161 E11.27194
G1 X244.115 Y230.348 E11.30573
G1 X245.498 Y230.425 E11.33952
G1 X246.883 Y230.390 E11.37331
G1 X248.261 Y230.244 E11.40710
G1 X249.004 Y230.104 E11.42556
G1 X249.092 Y230.301 E11.43080
G1 X248.227 Y230.955 E11.45724
G1 X247.528 Y231.868 E11.48529
G1 X247.099 Y232.934 E11.51333
G1 X246.972 Y234.077 E11.54137
G1 X247.154 Y235.212 E11.56942
G1 X247.633 Y236.257 E11.59746
G1 X248.375 Y237.136 E11.62550
G1 X249.324 Y237.784 E11.65355
G1 X250.413 Y238.155 E11.68159
G1 X251.480 Y238.216 E11.70767
G1 X253.978 Y238.216 E11.76860
G1 X255.046 Y238.155 E11.79468
G1 X256.134 Y237.784 E11.82272
G1 X257.084 Y237.136 E11.85077
G1 X257.825 Y236.257 E11.87881
G1 X258.305 Y235.212 E11.90686
G1 X258.487 Y234.077 E11.93490
G1 X258.359 Y232.934 E11.96294
G1 X257.930 Y231.868 E11.99099
G1 X257.232 Y230.955 E12.01903
G1 X256.314 Y230.261 E12.04707
G1 X255.245 Y229.839 E12.07512
G1 X253.444 Y229.648 E12.11929
G1 F1500.000 E10.71929
G92 E0
G1 X250.807 Y229.146 F7800.000
G1 E1.40000 F1500.000
G1 X252.299 Y228.613 E1.43863 F2160.000
G1 X253.278 Y228.356 E1.46333
G1 X253.513 Y228.311 E1.46915
G1 X253.751 Y228.296 E1.47498
G1 X254.764 Y228.301 E1.49968
G1 X255.002 Y228.318 E1.50550
G1 X255.236 Y228.366 E1.51133
G1 X256.213 Y228.632 E1.53602
G1 X256.439 Y228.710 E1.54185
G1 X256.652 Y228.817 E1.54768
G1 X257.527 Y229.327 E1.57237
G1 X257.725 Y229.461 E1.57820
G1 X257.904 Y229.619 E1.58403
G1 X258.617 Y230.338 E1.60872
G1 X258.773 Y230.518 E1.61455
G1 X258.905 Y230.718 E1.62038
G1 X259.408 Y231.596 E1.64507
G1 X259.513 Y231.811 E1.65090
G1 X259.589 Y232.038 E1.65673
G1 X259.847 Y233.017 E1.68142
G1 X259.893 Y233.251 E1.68725
G1 X259.907 Y233.489 E1.69308
G1 X259.904 Y234.502 E1.71777
G1 X259.887 Y234.740 E1.72360
G1 X259.840 Y234.974 E1.72942
G1 X259.574 Y235.951 E1.75412
G1 X259.497 Y236.177 E1.75995
G1 X259.390 Y236.391 E1.76577
G1 X258.881 Y237.266 E1.79047
G1 X258.748 Y237.465 E1.79629
G1 X258.590 Y237.644 E1.80212
G1 X257.872 Y238.358 E1.82682
G1 X257.692 Y238.515 E1.83264
G1 X257.493 Y238.647 E1.83847
