; generated by Slic3r 1.0.0RC3 on 2014-03-24 at 11:13:49

; layer_height = 0.4
; perimeters = 3
; top_solid_layers = 3
; bottom_solid_layers = 3
; fill_density = .35
; perimeter_speed = 30
; infill_speed = 30
; travel_speed = 200
; nozzle_diameter = 0.5
; filament_diameter = 3
; extrusion_multiplier = 1.0
; perimeters extrusion width = 0.50mm
; infill extrusion width = 0.53mm
; solid infill extrusion width = 0.53mm
; top infill extrusion width = 0.53mm
; first layer extrusion width = 0.40mm

G21 ; set units to millimeters
M107
G28 ; home all axes
G90 ; use absolute coordinates
G92 E0
M82 ; use absolute distances for extrusion
G1 F1200.000 E-3.00000
G92 E0
G1 Z0.400 F12000.000
G1 X42.960 Y33.460 F12000.000
G1 E3.00000 F1200.000
G1 X43.860 Y32.360 E3.03390 F1800
G1 X44.960 Y31.460 E3.06779
G1 X46.220 Y30.790 E3.10183
G1 X47.580 Y30.380 E3.13571
G1 X49.000 Y30.240 E3.16974
G1 X249.000 Y30.240 E7.93969
G1 X250.420 Y30.380 E7.97372
G1 X251.780 Y30.790 E8.00760
G1 X253.040 Y31.460 E8.04163
G1 X254.140 Y32.360 E8.07553
G1 X255.040 Y33.460 E8.10943
G1 X255.710 Y34.720 E8.14346
G1 X256.120 Y36.080 E8.17734
G1 X256.260 Y37.500 E8.21137
G1 X256.260 Y237.500 E12.98133
G1 X256.120 Y238.920 E13.01536
G1 X255.710 Y240.280 E13.04923
G1 X255.040 Y241.540 E13.08327
G1 X254.140 Y242.640 E13.11717
G1 X253.040 Y243.540 E13.15106
G1 X251.780 Y244.210 E13.18510
G1 X250.420 Y244.620 E13.21898
G1 X249.000 Y244.760 E13.25301
G1 X49.000 Y244.760 E18.02296
G1 X47.580 Y244.620 E18.05699
G1 X46.220 Y244.210 E18.09087
G1 X44.960 Y243.540 E18.12490
G1 X43.860 Y242.640 E18.15880
G1 X42.960 Y241.540 E18.19270
G1 X42.290 Y240.280 E18.22673
G1 X41.880 Y238.920 E18.26061
G1 X41.740 Y237.500 E18.29464
G1 X41.740 Y37.500 E23.06459
G1 X41.880 Y36.080 E23.09862
G1 X42.290 Y34.720 E23.13250
G1 X42.930 Y33.516 E23.16503
G1 X43.310 Y33.700 F12000.000
G1 X44.160 Y32.660 E23.19706 F1800
G1 X45.200 Y31.810 E23.22910
G1 X46.380 Y31.180 E23.26100
G1 X47.670 Y30.790 E23.29314
G1 X49.000 Y30.660 E23.32501
G1 X249.000 Y30.660 E28.09497
G1 X250.330 Y30.790 E28.12684
G1 X251.620 Y31.180 E28.15898
G1 X252.800 Y31.810 E28.19088
G1 X253.840 Y32.660 E28.22292
G1 X254.690 Y33.700 E28.25495
G1 X255.320 Y34.880 E28.28685
G1 X255.710 Y36.170 E28.31899
G1 X255.840 Y37.500 E28.35087
G1 X255.840 Y237.500 E33.12082
G1 X255.710 Y238.830 E33.15269
G1 X255.320 Y240.120 E33.18483
G1 X254.690 Y241.300 E33.21674
G1 X253.840 Y242.340 E33.24877
G1 X252.800 Y243.190 E33.28080
G1 X251.620 Y243.820 E33.31271
G1 X250.330 Y244.210 E33.34485
G1 X249.000 Y244.340 E33.37672
G1 X49.000 Y244.340 E38.14667
G1 X47.670 Y244.210 E38.17854
G1 X46.380 Y243.820 E38.21069
G1 X45.200 Y243.190 E38.24259
G1 X44.160 Y242.340 E38.27462
G1 X43.310 Y241.300 E38.30666
G1 X42.680 Y240.120 E38.33856
G1 X42.290 Y238.830 E38.37070
G1 X42.160 Y237.500 E38.40257
G1 X42.160 Y37.500 E43.17253
G1 X42.290 Y36.170 E43.20440
G1 X42.680 Y34.880 E43.23654
G1 X43.280 Y33.756 E43.26693
G1 X43.660 Y33.930 F12000.000
G1 X44.460 Y32.960 E43.29692 F1800
G1 X45.430 Y32.160 E43.32691
G1 X46.540 Y31.570 E43.35689
G1 X47.750 Y31.200 E43.38707
G1 X49.000 Y31.080 E43.41701
G1 X249.000 Y31.080 E48.18697
G1 X250.250 Y31.200 E48.21692
G1 X251.460 Y31.570 E48.24709
G1 X252.570 Y32.160 E48.27708
G1 X253.540 Y32.960 E48.30706
G1 X254.340 Y33.930 E48.33705
G1 X254.930 Y35.040 E48.36703
G1 X255.300 Y36.250 E48.39721
G1 X255.420 Y37.500 E48.42716
G1 X255.420 Y237.500 E53.19711
G1 X255.300 Y238.750 E53.22706
G1 X254.930 Y239.960 E53.25724
G1 X254.340 Y241.070 E53.28722
G1 X253.540 Y242.040 E53.31720
G1 X252.570 Y242.840 E53.34719
G1 X251.460 Y243.430 E53.37717
G1 X250.250 Y243.800 E53.40735
G1 X249.000 Y243.920 E53.43730
G1 X49.000 Y243.920 E58.20725
G1 X47.750 Y243.800 E58.23720
G1 X46.540 Y243.430 E58.26738
G1 X45.430 Y242.840 E58.29736
G1 X44.460 Y242.040 E58.32735
G1 X43.660 Y241.070 E58.35733
G1 X43.070 Y239.960 E58.38731
G1 X42.700 Y238.750 E58.41749
G1 X42.580 Y237.500 E58.44744
G1 X42.580 Y37.500 E63.21739
G1 X42.700 Y36.250 E63.24734
G1 X43.070 Y35.040 E63.27752
G1 X43.630 Y33.986 E63.30599
G1 F1200.000 E60.30599
G92 E0
G1 X50.043 Y38.543 F12000.000
G1 E3.00000 F1200.000
G1 X247.957 Y38.543 E7.72021 F1800
G1 X247.957 Y236.457 E12.44041
G1 X50.043 Y236.457 E17.16062
G1 X50.043 Y38.606 E21.87932
G1 X49.621 Y38.121 F12000.000
G1 X248.379 Y38.121 E26.61963 F1800
G1 X248.379 Y236.879 E31.35994
G1 X49.621 Y236.879 E36.10025
G1 X49.621 Y38.185 E40.83905
G1 X49.200 Y37.700 F12000.000
G1 X248.800 Y37.700 E45.59947 F1800
G1 X248.800 Y237.300 E50.35988
G1 X49.200 Y237.300 E55.12029
G1 X49.200 Y37.763 E59.87920
G1 X49.565 Y37.911 F12000.000
G1 X247.662 Y39.454 F12000.000
G1 X247.046 Y38.838 E59.89997 F1800
G1 X246.450 Y38.838 E59.91419
G1 X247.662 Y40.050 E59.95507
G1 X247.662 Y40.647 E59.96929
G1 X245.853 Y38.838 E60.03028
G1 X245.257 Y38.838 E60.04450
G1 X247.662 Y41.243 E60.12559
G1 X247.662 Y41.839 E60.13981
G1 X244.661 Y38.838 E60.24101
G1 X244.065 Y38.838 E60.25523
G1 X247.662 Y42.435 E60.37654
G1 X247.662 Y43.031 E60.39076
G1 X243.469 Y38.838 E60.53217
G1 X242.873 Y38.838 E60.54639
G1 X247.662 Y43.627 E60.70791
G1 X247.662 Y44.223 E60.72213
G1 X242.277 Y38.838 E60.90376
G1 X241.681 Y38.838 E60.91798
G1 X247.662 Y44.819 E61.11971
G1 X247.662 Y45.415 E61.13393
G1 X241.085 Y38.838 E61.35577
G1 X240.489 Y38.838 E61.36999
G1 X247.662 Y46.011 E61.61194
G1 X247.662 Y46.607 E61.62615
G1 X239.893 Y38.838 E61.88821
G1 X239.297 Y38.838 E61.90243
G1 X247.662 Y47.203 E62.18459
G1 X247.662 Y47.800 E62.19881
G1 X238.700 Y38.838 E62.50107
G1 X238.104 Y38.838 E62.51529
G1 X247.662 Y48.396 E62.83767
G1 X247.662 Y48.992 E62.85188
G1 X237.508 Y38.838 E63.19437
G1 X236.912 Y38.838 E63.20858
G1 X247.662 Y49.588 E63.57117
G1 X247.662 Y50.184 E63.58539
G1 X236.316 Y38.838 E63.96809
G1 X235.720 Y38.838 E63.98230
G1 X247.662 Y50.780 E64.38510
G1 X247.662 Y51.376 E64.39932
G1 X235.124 Y38.838 E64.82223
G1 X234.528 Y38.838 E64.83645
G1 X247.662 Y51.972 E65.27946
G1 X247.662 Y52.568 E65.29368
G1 X233.932 Y38.838 E65.75680
G1 X233.336 Y38.838 E65.77102
G1 X247.662 Y53.164 E66.25425
G1 X247.662 Y53.760 E66.26847
G1 X232.740 Y38.838 E66.77180
G1 X232.144 Y38.838 E66.78602
G1 X247.662 Y54.356 E67.30946
G1 X247.662 Y54.953 E67.32368
G1 X231.547 Y38.838 E67.86723
G1 X230.951 Y38.838 E67.88144
G1 X247.662 Y55.549 E68.44510
G1 X247.662 Y56.145 E68.45932
G1 X230.355 Y38.838 E69.04308
G1 X229.759 Y38.838 E69.05730
G1 X247.662 Y56.741 E69.66116
G1 X247.662 Y57.337 E69.67538
G1 X229.163 Y38.838 E70.29936
G1 X228.567 Y38.838 E70.31357
G1 X247.662 Y57.933 E70.95766
G1 X247.662 Y58.529 E70.97187
G1 X227.971 Y38.838 E71.63606
G1 X227.375 Y38.838 E71.65028
G1 X247.662 Y59.125 E72.33457
G1 X247.662 Y59.721 E72.34879
G1 X226.779 Y38.838 E73.05319
G1 X226.183 Y38.838 E73.06741
G1 X247.662 Y60.317 E73.79192
G1 X247.662 Y60.913 E73.80614
G1 X225.587 Y38.838 E74.55075
G1 X224.991 Y38.838 E74.56497
G1 X247.662 Y61.509 E75.32969
G1 X247.662 Y62.105 E75.34391
G1 X224.395 Y38.838 E76.12874
G1 X223.798 Y38.838 E76.14295
G1 X247.662 Y62.702 E76.94789
G1 X247.662 Y63.298 E76.96211
G1 X223.202 Y38.838 E77.78715
G1 X222.606 Y38.838 E77.80137
G1 X247.662 Y63.894 E78.64651
G1 X247.662 Y64.490 E78.66073
G1 X222.010 Y38.838 E79.52599
G1 X221.414 Y38.838 E79.54020
G1 X247.662 Y65.086 E80.42557
G1 X247.662 Y65.682 E80.43978
G1 X220.818 Y38.838 E81.34525
G1 X220.222 Y38.838 E81.35947
G1 X247.662 Y66.278 E82.28504
G1 X247.662 Y66.874 E82.29926
G1 X219.626 Y38.838 E83.24494
G1 X219.030 Y38.838 E83.25916
G1 X247.662 Y67.470 E84.22495
G1 X247.662 Y68.066 E84.23917
G1 X218.434 Y38.838 E85.22506
G1 X217.838 Y38.838 E85.23928
G1 X247.662 Y68.662 E86.24528
G1 X247.662 Y69.258 E86.25950
G1 X217.242 Y38.838 E87.28560
G1 X216.645 Y38.838 E87.29982
G1 X247.662 Y69.855 E88.34604
G1 X247.662 Y70.451 E88.36025
G1 X216.049 Y38.838 E89.42658
G1 X215.453 Y38.838 E89.44079
G1 X247.662 Y71.047 E90.52722
G1 X247.662 Y71.643 E90.54144
G1 X214.857 Y38.838 E91.64797
G1 X214.261 Y38.838 E91.66219
G1 X247.662 Y72.239 E92.78883
G1 X247.662 Y72.835 E92.80305
G1 X213.665 Y38.838 E93.94980
G1 X213.069 Y38.838 E93.96401
G1 X247.662 Y73.431 E95.13087
G1 X247.662 Y74.027 E95.14509
G1 X212.473 Y38.838 E96.33205
G1 X211.877 Y38.838 E96.34627
G1 X247.662 Y74.623 E97.55333
G1 X247.662 Y75.219 E97.56755
G1 X211.281 Y38.838 E98.79473
G1 X210.685 Y38.838 E98.80894
G1 X247.662 Y75.815 E100.05622
G1 X247.662 Y76.411 E100.07044
G1 X210.089 Y38.838 E101.33783
G1 X209.492 Y38.838 E101.35205
G1 X247.662 Y77.008 E102.63954
G1 X247.662 Y77.604 E102.65376
G1 X208.896 Y38.838 E103.96136
G1 X208.300 Y38.838 E103.97558
G1 X247.662 Y78.200 E105.30329
G1 X247.662 Y78.796 E105.31750
G1 X207.704 Y38.838 E106.66532
G1 X207.108 Y38.838 E106.67953
G1 X247.662 Y79.392 E108.04746
G1 X247.662 Y79.988 E108.06167
G1 X206.512 Y38.838 E109.44970
G1 X205.916 Y38.838 E109.46392
G1 X247.662 Y80.584 E110.87205
G1 X247.662 Y81.180 E110.88627
G1 X205.320 Y38.838 E112.31451
G1 X204.724 Y38.838 E112.32873
G1 X247.662 Y81.776 E113.77708
G1 X247.662 Y82.372 E113.79129
G1 X204.128 Y38.838 E115.25975
G1 X203.532 Y38.838 E115.27397
G1 X247.662 Y82.968 E116.76253
G1 X247.662 Y83.564 E116.77674
G1 X202.936 Y38.838 E118.28541
G1 X202.339 Y38.838 E118.29963
G1 X247.662 Y84.161 E119.82840
G1 X247.662 Y84.757 E119.84262
G1 X201.743 Y38.838 E121.39150
G1 X201.147 Y38.838 E121.40572
G1 X247.662 Y85.353 E122.97471
G1 X247.662 Y85.949 E122.98892
G1 X200.551 Y38.838 E124.57802
G1 X199.955 Y38.838 E124.59224
G1 X247.662 Y86.545 E126.20144
G1 X247.662 Y87.141 E126.21565
G1 X199.359 Y38.838 E127.84496
G1 X198.763 Y38.838 E127.85918
G1 X247.662 Y87.737 E129.50859
G1 X247.662 Y88.333 E129.52281
G1 X198.167 Y38.838 E131.19233
G1 X197.571 Y38.838 E131.20655
G1 X247.662 Y88.929 E132.89618
G1 X247.662 Y89.525 E132.91039
G1 X196.975 Y38.838 E134.62013
G1 X196.379 Y38.838 E134.63435
G1 X247.662 Y90.121 E136.36419
G1 X247.662 Y90.717 E136.37840
G1 X195.783 Y38.838 E138.12835
G1 X195.186 Y38.838 E138.14257
G1 X247.662 Y91.314 E139.91262
G1 X247.662 Y91.910 E139.92684
G1 X194.590 Y38.838 E141.71700
G1 X193.994 Y38.838 E141.73122
G1 X247.662 Y92.506 E143.54149
G1 X247.662 Y93.102 E143.55570
G1 X193.398 Y38.838 E145.38608
G1 X192.802 Y38.838 E145.40030
G1 X247.662 Y93.698 E147.25078
G1 X247.662 Y94.294 E147.26499
G1 X192.206 Y38.838 E149.13558
G1 X191.610 Y38.838 E149.14980
G1 X247.662 Y94.890 E151.04049
G1 X247.662 Y95.486 E151.05471
G1 X191.014 Y38.838 E152.96551
G1 X190.418 Y38.838 E152.97973
G1 X247.662 Y96.082 E154.91064
G1 X247.662 Y96.678 E154.92485
G1 X189.822 Y38.838 E156.87587
G1 X189.226 Y38.838 E156.89009
G1 X247.662 Y97.274 E158.86121
G1 X247.662 Y97.870 E158.87542
G1 X188.630 Y38.838 E160.86665
G1 X188.034 Y38.838 E160.88087
G1 X247.662 Y98.466 E162.89220
G1 X247.662 Y99.063 E162.90642
G1 X187.437 Y38.838 E164.93786
G1 X186.841 Y38.838 E164.95208
G1 X247.662 Y99.659 E167.00362
G1 X247.662 Y100.255 E167.01784
G1 X186.245 Y38.838 E169.08950
G1 X185.649 Y38.838 E169.10371
G1 X247.662 Y100.851 E171.19547
G1 X247.662 Y101.447 E171.20969
G1 X185.053 Y38.838 E173.32156
G1 X184.457 Y38.838 E173.33578
G1 X247.662 Y102.043 E175.46775
G1 X247.662 Y102.639 E175.48197
G1 X183.861 Y38.838 E177.63405
G1 X183.265 Y38.838 E177.64827
G1 X247.662 Y103.235 E179.82045
G1 X247.662 Y103.831 E179.83467
G1 X182.669 Y38.838 E182.02696
G1 X182.073 Y38.838 E182.04118
G1 X247.662 Y104.427 E184.25358
G1 X247.662 Y105.023 E184.26780
G1 X181.477 Y38.838 E186.50031
G1 X180.881 Y38.838 E186.51452
G1 X247.662 Y105.619 E188.76714
G1 X247.662 Y106.216 E188.78135
G1 X180.284 Y38.838 E191.05408
G1 X179.688 Y38.838 E191.06829
G1 X247.662 Y106.812 E193.36112
G1 X247.662 Y107.408 E193.37534
G1 X179.092 Y38.838 E195.68827
G1 X178.496 Y38.838 E195.70249
G1 X247.662 Y108.004 E198.03553
G1 X247.662 Y108.600 E198.04975
G1 X177.900 Y38.838 E200.40289
G1 X177.304 Y38.838 E200.41711
G1 X247.662 Y109.196 E202.79036
G1 X247.662 Y109.792 E202.80458
G1 X176.708 Y38.838 E205.19794
G1 X176.112 Y38.838 E205.21216
G1 X247.662 Y110.388 E207.62563
G1 X247.662 Y110.984 E207.63984
G1 X175.516 Y38.838 E210.07342
G1 X174.920 Y38.838 E210.08763
G1 X247.662 Y111.580 E212.54132
G1 X247.662 Y112.176 E212.55553
G1 X174.324 Y38.838 E215.02932
G1 X173.728 Y38.838 E215.04354
G1 X247.662 Y112.772 E217.53743
G1 X247.662 Y113.369 E217.55165
G1 X173.131 Y38.838 E220.06565
G1 X172.535 Y38.838 E220.07987
G1 X247.662 Y113.965 E222.61397
G1 X247.662 Y114.561 E222.62819
G1 X171.939 Y38.838 E225.18240
G1 X171.343 Y38.838 E225.19662
G1 X247.662 Y115.157 E227.77094
G1 X247.662 Y115.753 E227.78516
G1 X170.747 Y38.838 E230.37959
G1 X170.151 Y38.838 E230.39380
G1 X247.662 Y116.349 E233.00834
G1 X247.662 Y116.945 E233.02255
G1 X169.555 Y38.838 E235.65719
G1 X168.959 Y38.838 E235.67141
G1 X247.662 Y117.541 E238.32616
G1 X247.662 Y118.137 E238.34038
G1 X168.363 Y38.838 E241.01523
G1 X167.767 Y38.838 E241.02945
G1 X247.662 Y118.733 E243.72441
G1 X247.662 Y119.329 E243.73862
G1 X167.171 Y38.838 E246.45369
G1 X166.575 Y38.838 E246.46791
G1 X247.662 Y119.925 E249.20308
G1 X247.662 Y120.522 E249.21730
G1 X165.978 Y38.838 E251.97258
G1 X165.382 Y38.838 E251.98680
G1 X247.662 Y121.118 E254.76218
G1 X247.662 Y121.714 E254.77640
G1 X164.786 Y38.838 E257.57189
G1 X164.190 Y38.838 E257.58611
G1 X247.662 Y122.310 E260.40171
G1 X247.662 Y122.906 E260.41593
G1 X163.594 Y38.838 E263.25163
G1 X162.998 Y38.838 E263.26585
G1 X247.662 Y123.502 E266.12167
G1 X247.662 Y124.098 E266.13588
G1 X162.402 Y38.838 E269.01180
G1 X161.806 Y38.838 E269.02602
G1 X247.662 Y124.694 E271.92205
G1 X247.662 Y125.290 E271.93626
G1 X161.210 Y38.838 E274.85240
G1 X160.614 Y38.838 E274.86662
G1 X247.662 Y125.886 E277.80285
G1 X247.662 Y126.482 E277.81707
G1 X160.018 Y38.838 E280.77342
G1 X159.422 Y38.838 E280.78764
G1 X247.662 Y127.078 E283.76409
G1 X247.662 Y127.675 E283.77831
G1 X158.825 Y38.838 E286.77487
G1 X158.229 Y38.838 E286.78908
G1 X247.662 Y128.271 E289.80575
G1 X247.662 Y128.867 E289.81997
G1 X157.633 Y38.838 E292.85674
G1 X157.037 Y38.838 E292.87096
G1 X247.662 Y129.463 E295.92784
G1 X247.662 Y130.059 E295.94206
G1 X156.441 Y38.838 E299.01904
G1 X155.845 Y38.838 E299.03326
G1 X247.662 Y130.655 E302.13035
G1 X247.662 Y131.251 E302.14457
G1 X155.249 Y38.838 E305.26177
G1 X154.653 Y38.838 E305.27599
G1 X247.662 Y131.847 E308.41329
G1 X247.662 Y132.443 E308.42751
G1 X154.057 Y38.838 E311.58492
G1 X153.461 Y38.838 E311.59914
G1 X247.662 Y133.039 E314.77666
G1 X247.662 Y133.635 E314.79088
G1 X152.865 Y38.838 E317.98851
G1 X152.269 Y38.838 E318.00272
G1 X247.662 Y134.231 E321.22046
G1 X247.662 Y134.827 E321.23467
G1 X151.672 Y38.838 E324.47251
G1 X151.076 Y38.838 E324.48673
G1 X247.662 Y135.424 E327.74468
G1 X247.662 Y136.020 E327.75889
G1 X150.480 Y38.838 E331.03695
G1 X149.884 Y38.838 E331.05116
G1 X247.662 Y136.616 E334.34932
G1 X247.662 Y137.212 E334.36354
G1 X149.288 Y38.838 E337.68181
G1 X148.692 Y38.838 E337.69602
G1 X247.662 Y137.808 E341.03440
G1 X247.662 Y138.404 E341.04862
G1 X148.096 Y38.838 E344.40709
G1 X147.500 Y38.838 E344.42131
G1 X247.662 Y139.000 E347.79990
G1 X247.662 Y139.596 E347.81412
G1 X146.904 Y38.838 E351.21281
G1 X146.308 Y38.838 E351.22703
G1 X247.662 Y140.192 E354.64583
G1 X247.662 Y140.788 E354.66004
G1 X145.712 Y38.838 E358.09895
G1 X145.116 Y38.838 E358.11317
G1 X247.662 Y141.384 E361.57218
G1 X247.662 Y141.980 E361.58640
G1 X144.520 Y38.838 E365.06552
G1 X143.923 Y38.838 E365.07973
G1 X247.662 Y142.577 E368.57896
G1 X247.662 Y143.173 E368.59318
G1 X143.327 Y38.838 E372.11251
G1 X142.731 Y38.838 E372.12673
G1 X247.662 Y143.769 E375.66617
G1 X247.662 Y144.365 E375.68038
G1 X142.135 Y38.838 E379.23993
G1 X141.539 Y38.838 E379.25415
G1 X247.662 Y144.961 E382.83380
G1 X247.662 Y145.557 E382.84802
G1 X140.943 Y38.838 E386.44778
G1 X140.347 Y38.838 E386.46199
G1 X247.662 Y146.153 E390.08186
G1 X247.662 Y146.749 E390.09608
G1 X139.751 Y38.838 E393.73605
G1 X139.155 Y38.838 E393.75027
G1 X247.662 Y147.345 E397.41035
G1 X247.662 Y147.941 E397.42456
G1 X138.559 Y38.838 E401.10475
G1 X137.963 Y38.838 E401.11897
G1 X247.662 Y148.537 E404.81926
G1 X247.662 Y149.133 E404.83348
