; generated by Slic3r 1.0.0RC3 on 2014-04-23 at 14:55:25

; layer_height = 0.4
; perimeters = 3
; top_solid_layers = 3
; bottom_solid_layers = 3
; fill_density = .35
; perimeter_speed = 25
; infill_speed = 25
; travel_speed = 175
; nozzle_diameter = 0.5
; filament_diameter = 3
; extrusion_multiplier = 1.0
; perimeters extrusion width = 0.50mm
; infill extrusion width = 0.53mm
; solid infill extrusion width = 0.53mm
; top infill extrusion width = 0.53mm
; first layer extrusion width = 0.40mm

G21 ; set units to millimeters
M107
G28 ; home all axes
G90 ; use absolute coordinates
G92 E0
M82 ; use absolute distances for extrusion
G1 F1200.000 E-3.00000
G92 E0
G1 Z0.400 F10500.000
G1 X100.545 Y98.430 F10500.000
G1 E3.00000 F1200.000
G1 X100.935 Y97.440 E3.02538 F1500
G1 X101.265 Y96.710 E3.04448
G1 X101.745 Y95.800 E3.06902
G1 X102.215 Y95.040 E3.09033
G1 X102.785 Y94.220 E3.11415
G1 X103.395 Y93.450 E3.13758
G1 X104.085 Y92.700 E3.16189
G1 X104.705 Y92.100 E3.18246
G1 X105.545 Y91.380 E3.20885
G1 X106.245 Y90.860 E3.22965
G1 X107.235 Y90.200 E3.25802
G1 X107.925 Y89.790 E3.27717
G1 X109.025 Y89.220 E3.30671
G1 X109.715 Y88.910 E3.32475
G1 X143.115 Y75.810 E4.18042
G1 X143.705 Y75.600 E4.19535
G1 X145.225 Y75.150 E4.23316
G1 X146.005 Y74.970 E4.25225
G1 X146.795 Y74.870 E4.27124
G1 X148.425 Y74.760 E4.31021
G1 X149.275 Y74.750 E4.33048
G1 X150.115 Y74.850 E4.35065
G1 X151.845 Y75.140 E4.39249
G1 X152.985 Y75.420 E4.42049
G1 X154.875 Y76.070 E4.46815
G1 X188.395 Y89.300 E5.32761
G1 X188.975 Y89.560 E5.34277
G1 X189.955 Y90.050 E5.36891
G1 X190.875 Y90.600 E5.39447
G1 X191.745 Y91.210 E5.41981
G1 X192.465 Y91.790 E5.44186
G1 X193.245 Y92.500 E5.46702
G1 X193.785 Y93.050 E5.48540
G1 X194.495 Y93.850 E5.51091
G1 X195.195 Y94.780 E5.53867
G1 X195.785 Y95.710 E5.56494
G1 X196.135 Y96.320 E5.58171
G1 X196.425 Y96.960 E5.59847
G1 X210.185 Y132.250 E6.50184
G1 X210.655 Y133.670 E6.53752
G1 X210.915 Y134.720 E6.56332
G1 X211.085 Y135.730 E6.58774
G1 X211.185 Y136.730 E6.61171
G1 X211.215 Y137.760 E6.63629
G1 X211.195 Y138.540 E6.65490
G1 X211.115 Y139.560 E6.67930
G1 X211.015 Y140.330 E6.69782
G1 X210.825 Y141.340 E6.72233
G1 X210.575 Y142.300 E6.74599
G1 X210.255 Y143.260 E6.77012
G1 X210.035 Y143.830 E6.78469
G1 X195.805 Y176.920 E7.64376
G1 X195.165 Y178.220 E7.67832
G1 X194.595 Y179.180 E7.70495
G1 X193.825 Y180.280 E7.73697
G1 X193.355 Y180.880 E7.75515
G1 X192.825 Y181.430 E7.77337
G1 X191.955 Y182.240 E7.80172
G1 X191.465 Y182.650 E7.81695
G1 X190.945 Y183.020 E7.83217
G1 X189.955 Y183.660 E7.86029
G1 X189.305 Y184.030 E7.87813
G1 X187.755 Y184.810 E7.91951
G1 X155.125 Y199.040 E8.76851
G1 X154.415 Y199.310 E8.78663
G1 X152.895 Y199.790 E8.82465
G1 X152.075 Y199.990 E8.84478
G1 X151.235 Y200.100 E8.86498
G1 X149.605 Y200.220 E8.90396
G1 X148.765 Y200.240 E8.92400
G1 X147.925 Y200.150 E8.94415
G1 X146.185 Y199.870 E8.98618
G1 X144.975 Y199.570 E9.01591
G1 X142.925 Y198.850 E9.06773
G1 X109.345 Y184.570 E9.93802
G1 X108.875 Y184.350 E9.95039
G1 X107.605 Y183.700 E9.98442
G1 X106.605 Y183.080 E10.01248
G1 X105.505 Y182.270 E10.04506
G1 X104.585 Y181.460 E10.07429
G1 X103.775 Y180.620 E10.10212
G1 X103.325 Y180.110 E10.11835
G1 X102.935 Y179.570 E10.13423
G1 X102.305 Y178.610 E10.16162
G1 X101.795 Y177.690 E10.18671
G1 X101.075 Y176.130 E10.22768
G1 X87.845 Y142.940 E11.07983
G1 X87.325 Y141.380 E11.11905
G1 X87.065 Y140.300 E11.14554
G1 X86.895 Y139.250 E11.17091
G1 X86.805 Y138.290 E11.19390
G1 X86.775 Y137.210 E11.21967
G1 X86.795 Y136.470 E11.23733
G1 X86.875 Y135.400 E11.26292
G1 X86.965 Y134.650 E11.28093
G1 X87.155 Y133.600 E11.30638
G1 X87.375 Y132.700 E11.32848
G1 X87.695 Y131.690 E11.35375
G1 X87.845 Y131.260 E11.36461
G1 X100.518 Y98.487 E12.20264
G1 X100.925 Y98.620 F10500.000
G1 X101.325 Y97.590 E12.22899 F1500
G1 X101.645 Y96.910 E12.24691
G1 X102.125 Y96.000 E12.27145
G1 X102.555 Y95.280 E12.29145
G1 X103.125 Y94.460 E12.31527
G1 X103.705 Y93.740 E12.33732
G1 X104.395 Y92.990 E12.36163
G1 X104.985 Y92.420 E12.38119
G1 X105.825 Y91.700 E12.40758
G1 X106.475 Y91.210 E12.42699
G1 X107.465 Y90.550 E12.45537
G1 X108.115 Y90.160 E12.47345
G1 X109.215 Y89.590 E12.50300
G1 X109.865 Y89.300 E12.51997
G1 X143.265 Y76.200 E13.37563
G1 X143.825 Y76.010 E13.38974
G1 X145.345 Y75.560 E13.42754
G1 X146.075 Y75.380 E13.44547
G1 X146.825 Y75.290 E13.46349
G1 X148.455 Y75.180 E13.50245
G1 X149.255 Y75.180 E13.52153
G1 X150.045 Y75.260 E13.54047
G1 X151.775 Y75.550 E13.58231
G1 X152.845 Y75.820 E13.60863
G1 X154.715 Y76.460 E13.65576
G1 X188.235 Y89.690 E14.51523
G1 X188.785 Y89.940 E14.52963
G1 X189.765 Y90.430 E14.55577
G1 X190.635 Y90.950 E14.57994
G1 X191.505 Y91.560 E14.60528
G1 X192.185 Y92.100 E14.62599
G1 X192.965 Y92.810 E14.65115
G1 X193.475 Y93.330 E14.66852
G1 X194.185 Y94.130 E14.69403
G1 X194.845 Y95.000 E14.72007
G1 X195.435 Y95.930 E14.74634
G1 X195.765 Y96.510 E14.76225
G1 X196.035 Y97.110 E14.77795
G1 X209.795 Y132.400 E15.68132
G1 X210.255 Y133.800 E15.71647
G1 X210.505 Y134.790 E15.74082
G1 X210.675 Y135.800 E15.76525
G1 X210.765 Y136.740 E15.78777
G1 X210.795 Y137.770 E15.81234
G1 X210.775 Y138.510 E15.83000
G1 X210.695 Y139.530 E15.85440
G1 X210.595 Y140.260 E15.87197
G1 X210.405 Y141.270 E15.89648
G1 X210.175 Y142.160 E15.91841
G1 X209.655 Y143.660 E15.95627
G1 X195.575 Y176.410 E16.80648
G1 X194.785 Y178.030 E16.84946
G1 X194.255 Y178.930 E16.87437
G1 X193.485 Y180.030 E16.90640
G1 X193.035 Y180.600 E16.92372
G1 X192.535 Y181.120 E16.94092
G1 X191.665 Y181.930 E16.96927
G1 X191.215 Y182.320 E16.98347
G1 X190.725 Y182.670 E16.99783
G1 X189.735 Y183.310 E17.02595
G1 X189.115 Y183.660 E17.04293
G1 X187.955 Y184.250 E17.07397
G1 X154.965 Y198.650 E17.93246
G1 X154.285 Y198.910 E17.94982
G1 X152.765 Y199.390 E17.98784
G1 X151.995 Y199.580 E18.00676
G1 X151.205 Y199.680 E18.02575
G1 X149.575 Y199.800 E18.06473
G1 X148.785 Y199.820 E18.08358
G1 X147.985 Y199.740 E18.10275
G1 X146.245 Y199.460 E18.14478
G1 X145.105 Y199.170 E18.17284
G1 X143.085 Y198.460 E18.22390
G1 X109.505 Y184.180 E19.09419
G1 X107.795 Y183.320 E19.13984
G1 X106.855 Y182.740 E19.16618
G1 X105.755 Y181.930 E19.19876
G1 X104.885 Y181.170 E19.22631
G1 X104.075 Y180.330 E19.25414
G1 X103.655 Y179.850 E19.26935
G1 X103.285 Y179.330 E19.28457
G1 X102.655 Y178.370 E19.31196
G1 X102.175 Y177.510 E19.33545
G1 X101.465 Y175.970 E19.37589
G1 X88.235 Y142.780 E20.22804
G1 X87.725 Y141.250 E20.26650
G1 X87.485 Y140.230 E20.29149
G1 X87.315 Y139.180 E20.31686
G1 X87.225 Y138.280 E20.33843
G1 X87.195 Y137.200 E20.36420
G1 X87.215 Y136.500 E20.38090
G1 X87.295 Y135.430 E20.40649
G1 X87.385 Y134.720 E20.42356
G1 X87.575 Y133.670 E20.44901
G1 X87.785 Y132.820 E20.46989
G1 X88.105 Y131.810 E20.49516
G1 X88.245 Y131.410 E20.50527
G1 X100.902 Y98.679 E21.34223
G1 X101.335 Y98.740 F10500.000
G1 X101.725 Y97.750 E21.36761 F1500
G1 X102.015 Y97.100 E21.38458
G1 X102.495 Y96.190 E21.40912
G1 X102.905 Y95.520 E21.42785
G1 X103.475 Y94.700 E21.45167
G1 X104.015 Y94.020 E21.47238
G1 X104.705 Y93.270 E21.49669
G1 X105.255 Y92.740 E21.51490
G1 X106.095 Y92.020 E21.54129
G1 X106.715 Y91.560 E21.55970
G1 X107.705 Y90.900 E21.58808
G1 X108.315 Y90.540 E21.60497
G1 X109.415 Y89.970 E21.63452
G1 X110.025 Y89.690 E21.65053
G1 X143.425 Y76.590 E22.50619
G1 X143.945 Y76.410 E22.51931
G1 X145.465 Y75.960 E22.55712
G1 X146.155 Y75.800 E22.57401
G1 X146.855 Y75.710 E22.59084
G1 X148.485 Y75.600 E22.62981
G1 X149.235 Y75.600 E22.64770
G1 X149.975 Y75.680 E22.66545
G1 X151.705 Y75.970 E22.70728
G1 X152.715 Y76.220 E22.73210
G1 X154.275 Y76.750 E22.77139
G1 X188.085 Y90.090 E23.63825
G1 X188.595 Y90.320 E23.65159
G1 X189.575 Y90.810 E23.67772
G1 X190.395 Y91.290 E23.70039
G1 X191.265 Y91.900 E23.72573
G1 X191.895 Y92.410 E23.74506
G1 X192.675 Y93.120 E23.77021
G1 X193.155 Y93.610 E23.78657
G1 X193.865 Y94.410 E23.81208
G1 X194.485 Y95.230 E23.83660
G1 X195.075 Y96.160 E23.86287
G1 X195.385 Y96.700 E23.87772
G1 X195.635 Y97.270 E23.89256
G1 X209.395 Y132.560 E24.79594
G1 X209.855 Y133.930 E24.83040
G1 X210.085 Y134.860 E24.85325
G1 X210.255 Y135.870 E24.87768
G1 X210.345 Y136.750 E24.89878
G1 X210.375 Y137.780 E24.92335
G1 X210.355 Y138.470 E24.93982
G1 X210.275 Y139.490 E24.96422
G1 X210.185 Y140.180 E24.98081
G1 X209.995 Y141.190 E25.00532
G1 X209.775 Y142.030 E25.02603
G1 X209.265 Y143.500 E25.06314
G1 X195.185 Y176.250 E25.91335
G1 X194.405 Y177.850 E25.95580
G1 X193.905 Y178.690 E25.97912
G1 X193.135 Y179.790 E26.01114
G1 X192.715 Y180.320 E26.02727
G1 X192.255 Y180.810 E26.04330
G1 X191.385 Y181.620 E26.07165
G1 X190.955 Y181.990 E26.08518
G1 X190.495 Y182.310 E26.09854
G1 X189.505 Y182.950 E26.12666
G1 X188.925 Y183.280 E26.14257
G1 X187.425 Y184.040 E26.18268
G1 X154.795 Y198.270 E27.03168
G1 X154.155 Y198.500 E27.04790
G1 X152.635 Y198.980 E27.08591
G1 X151.915 Y199.170 E27.10367
G1 X151.175 Y199.260 E27.12145
G1 X149.545 Y199.380 E27.16043
G1 X148.795 Y199.400 E27.17833
G1 X148.055 Y199.320 E27.19608
G1 X146.315 Y199.040 E27.23811
G1 X145.245 Y198.770 E27.26443
G1 X143.255 Y198.070 E27.31474
G1 X109.675 Y183.790 E28.18502
G1 X109.255 Y183.600 E28.19602
G1 X107.985 Y182.950 E28.23004
G1 X107.105 Y182.400 E28.25479
G1 X106.005 Y181.590 E28.28737
G1 X105.195 Y180.880 E28.31306
G1 X104.385 Y180.040 E28.34089
G1 X103.985 Y179.590 E28.35525
G1 X103.635 Y179.100 E28.36961
G1 X103.005 Y178.140 E28.39700
G1 X102.555 Y177.330 E28.41910
G1 X101.855 Y175.820 E28.45879
G1 X88.625 Y142.630 E29.31094
G1 X88.125 Y141.120 E29.34887
G1 X87.895 Y140.170 E29.37219
G1 X87.725 Y139.120 E29.39755
G1 X87.645 Y138.270 E29.41792
G1 X87.615 Y137.190 E29.44368
G1 X87.635 Y136.530 E29.45943
G1 X87.715 Y135.460 E29.48502
G1 X87.795 Y134.800 E29.50088
G1 X87.985 Y133.750 E29.52633
G1 X88.185 Y132.950 E29.54599
G1 X88.635 Y131.560 E29.58084
G1 X101.305 Y98.795 E30.41866
G1 F1200.000 E27.41866
G92 E0
G1 X149.079 Y191.474 F10500.000
G1 E3.00000 F1200.000
G1 X149.235 Y191.489 E3.00372 F1500
G1 X150.629 Y191.351 E3.03713
G1 X152.234 Y190.848 E3.07726
G1 X152.353 Y191.123 E3.08440
G1 X151.818 Y191.425 E3.09906
G1 X150.517 Y191.832 E3.13157
G1 X149.120 Y191.936 E3.16499
G1 X147.981 Y191.749 E3.19251
G1 X148.030 Y191.371 E3.20161
G1 X149.016 Y191.467 E3.22524
G1 F1200.000 E0.22524
G92 E0
G1 X115.167 Y96.491 F10500.000
G1 E3.00000 F1200.000
G1 X114.172 Y96.609 E3.02389 F1500
G1 X113.127 Y96.951 E3.05013
G1 X112.231 Y97.355 E3.07358
G1 X112.062 Y97.008 E3.08279
G1 X112.799 Y96.623 E3.10263
G1 X113.772 Y96.252 E3.12746
G1 X114.606 Y96.089 E3.14772
G1 X115.677 Y96.066 E3.17326
G1 X115.679 Y96.100 E3.17407
G1 X116.046 Y96.139 E3.18287
G1 X116.024 Y96.503 E3.19158
G1 X115.230 Y96.492 E3.21050
G1 X109.789 Y99.538 F10500.000
G1 X109.437 Y100.336 E3.23130 F1500
G1 X109.130 Y101.228 E3.25379
G1 X108.834 Y102.259 E3.27938
G1 X108.662 Y103.524 E3.30982
G1 X108.748 Y104.997 E3.34501
G1 X109.075 Y106.560 E3.38309
G1 X109.633 Y108.140 E3.42306
G1 X110.361 Y109.653 E3.46310
G1 X111.206 Y111.016 E3.50135
G1 X112.246 Y112.362 E3.54193
G1 X113.566 Y113.843 E3.58924
G1 X115.074 Y115.309 E3.63941
G1 X116.687 Y116.610 E3.68882
G1 X118.522 Y117.669 E3.73936
G1 X120.618 Y118.366 E3.79202
G1 X122.776 Y118.778 E3.84442
G1 X126.935 Y119.205 E3.94414
G1 X129.067 Y119.531 E3.99559
G1 X131.265 Y120.008 E4.04922
G1 X133.498 Y120.658 E4.10469
G1 X135.531 Y121.425 E4.15650
G1 X137.177 Y122.274 E4.20067
G1 X138.625 Y123.109 E4.24055
G1 X140.008 Y123.789 E4.27731
G1 X141.379 Y124.222 E4.31158
G1 X142.720 Y124.262 E4.34358
G1 X143.959 Y123.995 E4.37382
G1 X145.183 Y123.556 E4.40483
G1 X146.292 Y123.045 E4.43396
G1 X147.133 Y122.561 E4.45708
G1 X147.826 Y122.070 E4.47734
G1 X148.512 Y121.535 E4.49809
G1 X150.970 Y119.510 E4.57405
G1 X152.584 Y117.951 E4.62757
G1 X153.789 Y116.268 E4.67693
G1 X154.514 Y114.502 E4.72246
G1 X154.670 Y112.766 E4.76403
G1 X154.492 Y111.249 E4.80046
G1 X154.203 Y109.936 E4.83254
G1 X153.687 Y108.682 E4.86487
G1 X152.890 Y107.492 E4.89902
G1 X152.024 Y106.457 E4.93121
G1 X151.238 Y105.610 E4.95877
G1 X148.563 Y102.933 E5.04902
G1 X147.896 Y102.280 E5.07129
G1 X146.542 Y101.014 E5.11549
G1 X145.251 Y99.738 E5.15879
G1 X144.077 Y98.376 E5.20167
G1 X143.062 Y96.978 E5.24289
G1 X142.262 Y95.615 E5.28058
G1 X141.679 Y94.282 E5.31527
G1 X141.316 Y92.982 E5.34747
G1 X141.191 Y91.519 E5.38248
G1 X141.343 Y89.695 E5.42613
G1 X141.829 Y87.892 E5.47066
G1 X142.497 Y86.743 E5.50237
G1 X142.782 Y86.876 E5.50986
G1 X142.126 Y88.710 E5.55630
G1 X141.926 Y90.188 E5.59188
G1 X141.965 Y91.513 E5.62350
G1 X142.164 Y92.613 E5.65015
G1 X142.577 Y93.600 E5.67567
G1 X143.190 Y94.528 E5.70221
G1 X143.951 Y95.469 E5.73106
G1 X144.880 Y96.556 E5.76516
G1 X145.956 Y97.663 E5.80198
G1 X147.090 Y98.578 E5.83673
G1 X151.432 Y101.573 E5.96254
G1 X152.705 Y102.514 E6.00030
G1 X153.895 Y103.470 E6.03670
G1 X155.165 Y104.569 E6.07676
G1 X156.483 Y105.893 E6.12133
G1 X157.822 Y107.523 E6.17163
G1 X158.938 Y109.398 E6.22366
G1 X159.640 Y111.529 E6.27718
G1 X159.988 Y113.790 E6.33173
G1 X160.023 Y115.985 E6.38409
G1 X159.842 Y118.001 E6.43236
G1 X159.299 Y121.220 E6.51022
G1 X159.414 Y122.541 E6.54184
G1 X160.432 Y123.573 E6.57643
G1 X162.101 Y124.446 E6.62135
G1 X164.088 Y125.169 E6.67178
G1 X166.030 Y125.553 E6.71898
G1 X167.794 Y125.631 E6.76111
G1 X169.243 Y125.425 E6.79600
G1 X170.382 Y125.034 E6.82472
G1 X171.280 Y124.557 E6.84898
G1 X172.033 Y123.932 E6.87232
G1 X172.745 Y123.124 E6.89800
G1 X173.371 Y122.097 E6.92669
G1 X173.825 Y120.877 E6.95773
G1 X174.125 Y119.536 E6.99050
G1 X174.300 Y118.119 E7.02456
G1 X174.702 Y113.968 E7.12403
G1 X174.824 Y112.339 E7.16300
G1 X174.827 Y107.779 E7.27174
G1 X174.925 Y105.565 E7.32459
G1 X175.131 Y103.613 E7.37142
G1 X175.441 Y102.144 E7.40721
G1 X175.844 Y100.981 E7.43656
G1 X176.328 Y99.977 E7.46316
G1 X176.818 Y99.246 E7.48415
G1 X177.115 Y99.418 E7.49234
G1 X176.403 Y100.857 E7.53061
G1 X176.012 Y101.966 E7.55867
G1 X175.716 Y103.364 E7.59274
G1 X175.529 Y105.158 E7.63578
G1 X175.471 Y107.189 E7.68422
G1 X175.567 Y109.272 E7.73396
G1 X176.044 Y115.345 E7.87925
G1 X176.254 Y117.127 E7.92204
G1 X176.387 Y118.733 E7.96047
G1 X176.342 Y120.250 E7.99666
G1 X176.092 Y121.789 E8.03385
G1 X175.604 Y123.418 E8.07441
G1 X174.901 Y124.917 E8.11390
G1 X174.565 Y125.368 E8.12731
G1 X173.998 Y126.121 E8.14978
G1 X172.747 Y127.254 E8.19004
G1 X171.030 Y128.474 E8.24029
G1 X169.030 Y129.588 E8.29489
G1 X166.876 Y130.445 E8.35016
G1 X164.955 Y131.111 E8.39865
G1 X163.476 Y131.756 E8.43714
G1 X163.303 Y132.087 E8.44605
G1 X162.458 Y133.495 E8.48521
G1 X164.582 Y134.182 E8.53846
G1 X165.886 Y134.556 E8.57081
G1 X167.446 Y135.274 E8.61177
G1 X169.085 Y136.283 E8.65767
G1 X172.246 Y138.848 E8.75478
G1 X173.768 Y139.795 E8.79752
G1 X175.175 Y140.420 E8.83423
G1 X176.493 Y140.797 E8.86693
G1 X177.836 Y140.899 E8.89906
G1 X179.326 Y140.715 E8.93485
G1 X180.906 Y140.169 E8.97473
G1 X182.470 Y139.222 E9.01833
G1 X183.842 Y138.208 E9.05901
G1 X184.930 Y137.373 E9.09173
G1 X185.896 Y136.561 E9.12183
G1 X186.842 Y135.663 E9.15293
G1 X188.880 Y133.620 E9.22176
G1 X189.976 Y132.632 E9.25695
G1 X191.063 Y131.858 E9.28878
G1 X192.251 Y131.239 E9.32074
G1 X193.611 Y130.748 E9.35521
G1 X195.118 Y130.525 E9.39153
G1 X196.833 Y130.692 E9.43263
G1 X198.542 Y131.242 E9.47546
G1 X199.187 Y131.642 E9.49356
G1 X199.067 Y131.899 E9.50034
G1 X196.980 Y131.217 E9.55271
G1 X195.320 Y131.088 E9.59242
G1 X193.813 Y131.415 E9.62920
G1 X192.576 Y131.924 E9.66111
G1 X191.540 Y132.420 E9.68850
G1 X190.550 Y133.043 E9.71639
G1 X189.571 Y133.855 E9.74671
G1 X185.973 Y137.158 E9.86321
G1 X184.813 Y138.270 E9.90153
G1 X183.664 Y139.313 E9.93854
G1 X182.363 Y140.340 E9.97808
G1 X180.966 Y141.271 E10.01812
G1 X179.535 Y142.019 E10.05663
G1 X178.112 Y142.553 E10.09287
G1 X176.732 Y142.850 E10.12655
G1 X175.357 Y142.939 E10.15941
G1 X173.963 Y142.840 E10.19273
G1 X172.676 Y142.590 E10.22400
G1 X171.594 Y142.227 E10.25123
G1 X168.486 Y140.873 E10.33207
G1 X166.534 Y140.180 E10.38147
G1 X164.972 Y140.050 E10.41885
G1 X163.869 Y140.307 E10.44586
G1 X162.999 Y140.781 E10.46949
G1 X162.549 Y141.757 E10.49512
G1 X162.814 Y142.666 E10.51771
