; generated by Slic3r 1.0.0RC3 on 2014-04-18 at 07:28:32

; layer_height = 0.4
; perimeters = 3
; top_solid_layers = 3
; bottom_solid_layers = 3
; fill_density = .35
; perimeter_speed = 30
; infill_speed = 30
; travel_speed = 200
; nozzle_diameter = 0.5
; filament_diameter = 3
; extrusion_multiplier = 1.0
; perimeters extrusion width = 0.50mm
; infill extrusion width = 0.53mm
; solid infill extrusion width = 0.53mm
; top infill extrusion width = 0.53mm
; first layer extrusion width = 0.40mm

G21 ; set units to millimeters
M107
G28 ; home all axes
G90 ; use absolute coordinates
G92 E0
M82 ; use absolute distances for extrusion
G1 F1200.000 E-3.00000
G92 E0
G1 Z0.400 F12000.000
G1 X153.958 Y177.006 F12000.000
G1 E3.00000 F1200.000
G1 X153.608 Y177.156 E3.00908 F1800
G1 X152.898 Y177.416 E3.02711
G1 X152.348 Y177.586 E3.04084
G1 X151.548 Y177.786 E3.06051
G1 X151.178 Y177.856 E3.06949
G1 X150.318 Y177.966 E3.09017
G1 X149.728 Y178.006 E3.10427
G1 X148.918 Y178.016 E3.12359
G1 X148.468 Y177.996 E3.13434
G1 X147.488 Y177.886 E3.15786
G1 X146.718 Y177.746 E3.17652
G1 X145.858 Y177.536 E3.19764
G1 X145.248 Y177.346 E3.21287
G1 X144.088 Y176.906 E3.24246
G1 X123.798 Y168.256 E3.76851
G1 X123.188 Y167.966 E3.78462
G1 X122.708 Y167.706 E3.79764
G1 X121.978 Y167.246 E3.81822
G1 X121.398 Y166.836 E3.83516
G1 X120.588 Y166.176 E3.86008
G1 X120.198 Y165.806 E3.87290
G1 X119.528 Y165.076 E3.89653
G1 X119.208 Y164.676 E3.90875
G1 X118.738 Y164.016 E3.92807
G1 X118.498 Y163.636 E3.93879
G1 X118.028 Y162.776 E3.96217
G1 X117.618 Y161.866 E3.98597
G1 X109.568 Y141.716 E4.50348
G1 X109.238 Y140.726 E4.52836
G1 X109.028 Y139.886 E4.54901
G1 X108.898 Y139.196 E4.56576
G1 X108.848 Y138.826 E4.57467
G1 X108.788 Y138.106 E4.59190
G1 X108.768 Y137.536 E4.60550
G1 X108.778 Y136.776 E4.62363
G1 X108.828 Y136.066 E4.64060
G1 X108.918 Y135.316 E4.65862
G1 X109.018 Y134.746 E4.67242
G1 X109.178 Y134.056 E4.68931
G1 X109.518 Y132.956 E4.71677
G1 X117.378 Y112.606 E5.23706
G1 X117.698 Y111.886 E5.25585
G1 X117.918 Y111.446 E5.26758
G1 X118.468 Y110.496 E5.29376
G1 X119.038 Y109.686 E5.31739
G1 X119.418 Y109.216 E5.33180
G1 X119.928 Y108.646 E5.35004
G1 X120.128 Y108.446 E5.35679
G1 X120.888 Y107.776 E5.38095
G1 X121.468 Y107.316 E5.39861
G1 X122.038 Y106.916 E5.41521
G1 X122.648 Y106.536 E5.43235
G1 X123.288 Y106.176 E5.44987
G1 X124.048 Y105.806 E5.47003
G1 X124.718 Y105.526 E5.48735
G1 X144.618 Y97.726 E5.99711
G1 X145.408 Y97.466 E6.01695
G1 X146.048 Y97.296 E6.03274
G1 X147.038 Y97.106 E6.05678
G1 X148.078 Y96.996 E6.08173
G1 X148.898 Y96.976 E6.10129
G1 X149.718 Y97.016 E6.12087
G1 X150.748 Y97.156 E6.14566
G1 X151.288 Y97.256 E6.15876
G1 X152.138 Y97.466 E6.17964
G1 X153.278 Y97.836 E6.20822
G1 X173.908 Y105.986 E6.73725
G1 X174.498 Y106.256 E6.75272
G1 X175.478 Y106.806 E6.77952
G1 X176.008 Y107.156 E6.79467
G1 X176.698 Y107.666 E6.81514
G1 X177.088 Y107.996 E6.82732
G1 X177.588 Y108.466 E6.84369
G1 X178.028 Y108.916 E6.85870
G1 X178.618 Y109.596 E6.88017
G1 X178.938 Y110.016 E6.89276
G1 X179.458 Y110.796 E6.91512
G1 X179.688 Y111.196 E6.92612
G1 X180.158 Y112.176 E6.95205
G1 X188.448 Y133.416 E7.49583
G1 X188.688 Y134.116 E7.51348
G1 X188.918 Y134.916 E7.53333
G1 X188.988 Y135.236 E7.54115
G1 X189.138 Y136.216 E7.56479
G1 X189.198 Y136.896 E7.58107
G1 X189.218 Y137.426 E7.59372
G1 X189.198 Y138.466 E7.61853
G1 X189.058 Y139.646 E7.64687
G1 X188.858 Y140.666 E7.67166
G1 X188.628 Y141.476 E7.69174
G1 X188.288 Y142.386 E7.71491
G1 X179.808 Y162.096 E8.22665
G1 X179.538 Y162.686 E8.24212
G1 X179.198 Y163.356 E8.26004
G1 X178.688 Y164.206 E8.28368
G1 X178.338 Y164.706 E8.29824
G1 X177.788 Y165.396 E8.31929
G1 X177.518 Y165.696 E8.32891
G1 X176.918 Y166.296 E8.34915
G1 X176.588 Y166.586 E8.35963
G1 X175.908 Y167.106 E8.38004
G1 X175.458 Y167.416 E8.39308
G1 X174.778 Y167.836 E8.41214
G1 X173.708 Y168.386 E8.44083
G1 X154.017 Y176.983 E8.95327
G1 X153.838 Y176.596 F12000.000
G1 X153.448 Y176.766 E8.96341 F1800
G1 X152.768 Y177.016 E8.98069
G1 X152.218 Y177.186 E8.99442
G1 X151.468 Y177.366 E9.01282
G1 X151.098 Y177.436 E9.02180
G1 X150.288 Y177.546 E9.04129
G1 X149.698 Y177.586 E9.05540
G1 X148.938 Y177.596 E9.07352
G1 X148.488 Y177.576 E9.08427
G1 X147.568 Y177.466 E9.10637
G1 X146.798 Y177.326 E9.12503
G1 X145.988 Y177.126 E9.14493
G1 X145.378 Y176.936 E9.16017
G1 X144.488 Y176.616 E9.18272
G1 X123.968 Y167.866 E9.71476
G1 X123.388 Y167.596 E9.73001
G1 X122.908 Y167.336 E9.74303
G1 X122.218 Y166.906 E9.76242
G1 X121.638 Y166.496 E9.77936
G1 X120.878 Y165.866 E9.80291
G1 X120.488 Y165.496 E9.81573
G1 X119.858 Y164.806 E9.83801
G1 X119.538 Y164.406 E9.85023
G1 X119.088 Y163.786 E9.86850
G1 X118.848 Y163.406 E9.87922
G1 X118.418 Y162.606 E9.90088
G1 X118.148 Y162.016 E9.91636
G1 X109.968 Y141.556 E10.44188
G1 X109.648 Y140.596 E10.46601
G1 X109.438 Y139.796 E10.48574
G1 X109.318 Y139.146 E10.50150
G1 X109.208 Y138.096 E10.52668
G1 X109.188 Y137.526 E10.54028
G1 X109.198 Y136.806 E10.55746
G1 X109.248 Y136.096 E10.57443
G1 X109.338 Y135.396 E10.59127
G1 X109.438 Y134.826 E10.60507
G1 X109.588 Y134.166 E10.62121
G1 X109.708 Y133.736 E10.63186
G1 X109.918 Y133.106 E10.64769
G1 X117.928 Y112.396 E11.17728
G1 X118.288 Y111.646 E11.19712
G1 X118.818 Y110.726 E11.22244
G1 X119.368 Y109.956 E11.24501
G1 X119.748 Y109.486 E11.25943
G1 X120.228 Y108.946 E11.27666
G1 X120.788 Y108.406 E11.29521
G1 X121.158 Y108.086 E11.30688
G1 X121.708 Y107.666 E11.32338
G1 X122.278 Y107.266 E11.33999
G1 X122.858 Y106.906 E11.35627
G1 X123.498 Y106.546 E11.37378
G1 X124.208 Y106.196 E11.39266
G1 X125.018 Y105.856 E11.41362
G1 X144.768 Y98.116 E11.91953
G1 X145.508 Y97.876 E11.93808
G1 X146.148 Y97.706 E11.95388
G1 X147.088 Y97.526 E11.97670
G1 X148.098 Y97.416 E12.00093
G1 X148.898 Y97.396 E12.02002
G1 X149.668 Y97.436 E12.03841
G1 X150.678 Y97.566 E12.06269
G1 X151.218 Y97.666 E12.07579
G1 X152.008 Y97.866 E12.09523
G1 X153.118 Y98.226 E12.12306
G1 X173.398 Y106.226 E12.64300
G1 X174.328 Y106.646 E12.66734
G1 X175.248 Y107.156 E12.69243
G1 X175.778 Y107.506 E12.70758
G1 X176.428 Y107.996 E12.72699
G1 X176.818 Y108.326 E12.73918
G1 X177.288 Y108.766 E12.75453
G1 X177.728 Y109.216 E12.76954
G1 X178.278 Y109.846 E12.78949
G1 X178.598 Y110.266 E12.80208
G1 X179.088 Y111.006 E12.82325
G1 X179.318 Y111.406 E12.83425
G1 X179.758 Y112.326 E12.85857
G1 X188.158 Y133.846 E13.40953
G1 X188.298 Y134.256 E13.41987
G1 X188.568 Y135.326 E13.44619
G1 X188.668 Y135.896 E13.45999
G1 X188.778 Y136.906 E13.48422
G1 X188.798 Y137.436 E13.49687
G1 X188.778 Y138.446 E13.52096
G1 X188.718 Y139.086 E13.53629
G1 X188.648 Y139.586 E13.54833
G1 X188.448 Y140.566 E13.57219
G1 X188.228 Y141.336 E13.59129
G1 X187.908 Y142.226 E13.61384
G1 X179.488 Y161.786 E14.12173
G1 X178.828 Y163.166 E14.15821
G1 X178.348 Y163.956 E14.18026
G1 X177.998 Y164.456 E14.19482
G1 X177.478 Y165.116 E14.21486
G1 X177.208 Y165.416 E14.22448
G1 X176.638 Y165.976 E14.24354
G1 X176.308 Y166.266 E14.25402
G1 X175.668 Y166.766 E14.27339
G1 X175.218 Y167.076 E14.28642
G1 X174.578 Y167.466 E14.30429
G1 X174.038 Y167.756 E14.31891
G1 X173.538 Y167.996 E14.33214
G1 X153.896 Y176.571 E14.84329
G1 X153.628 Y176.226 F12000.000
G1 X152.648 Y176.616 E14.86845 F1800
G1 X152.098 Y176.786 E14.88218
G1 X151.388 Y176.956 E14.89959
G1 X151.018 Y177.026 E14.90857
G1 X150.258 Y177.126 E14.92685
G1 X149.668 Y177.166 E14.94096
G1 X148.948 Y177.176 E14.95813
G1 X148.498 Y177.156 E14.96887
G1 X147.638 Y177.056 E14.98952
G1 X146.868 Y176.916 E15.00819
G1 X146.108 Y176.726 E15.02687
G1 X145.498 Y176.536 E15.04211
G1 X145.108 Y176.406 E15.05191
G1 X144.418 Y176.136 E15.06958
G1 X124.128 Y167.486 E15.59564
G1 X123.588 Y167.226 E15.60993
G1 X123.108 Y166.966 E15.62295
G1 X122.458 Y166.556 E15.64128
G1 X121.878 Y166.146 E15.65822
G1 X121.168 Y165.566 E15.68008
G1 X120.778 Y165.196 E15.69290
G1 X120.188 Y164.546 E15.71384
G1 X119.868 Y164.146 E15.72606
G1 X119.448 Y163.566 E15.74314
G1 X119.208 Y163.186 E15.75386
G1 X118.798 Y162.426 E15.77445
G1 X118.528 Y161.836 E15.78993
G1 X110.358 Y141.396 E16.31491
G1 X110.048 Y140.476 E16.33807
G1 X109.848 Y139.696 E16.35727
G1 X109.738 Y139.086 E16.37206
G1 X109.628 Y138.086 E16.39605
G1 X109.608 Y137.516 E16.40965
G1 X109.618 Y136.836 E16.42587
G1 X109.668 Y136.126 E16.44285
G1 X109.758 Y135.466 E16.45873
G1 X109.988 Y134.276 E16.48764
G1 X110.108 Y133.846 E16.49829
G1 X110.308 Y133.266 E16.51292
G1 X118.308 Y112.566 E17.04220
G1 X118.458 Y112.236 E17.05084
G1 X118.858 Y111.476 E17.07132
G1 X119.348 Y110.696 E17.09329
G1 X119.698 Y110.216 E17.10746
G1 X120.078 Y109.746 E17.12188
G1 X120.528 Y109.246 E17.13792
G1 X121.068 Y108.726 E17.15580
G1 X121.438 Y108.406 E17.16747
G1 X121.948 Y108.006 E17.18292
G1 X122.518 Y107.606 E17.19953
G1 X123.058 Y107.266 E17.21475
G1 X123.698 Y106.906 E17.23226
G1 X124.368 Y106.586 E17.24997
G1 X125.178 Y106.246 E17.27092
G1 X144.928 Y98.506 E17.77684
G1 X145.618 Y98.276 E17.79418
G1 X146.258 Y98.106 E17.80998
G1 X147.138 Y97.936 E17.83135
G1 X147.638 Y97.876 E17.84336
G1 X148.898 Y97.816 E17.87345
G1 X149.618 Y97.856 E17.89065
G1 X150.148 Y97.916 E17.90337
G1 X151.138 Y98.086 E17.92732
G1 X151.888 Y98.266 E17.94572
G1 X152.528 Y98.466 E17.96171
G1 X152.968 Y98.626 E17.97288
G1 X173.558 Y106.756 E18.50084
G1 X174.148 Y107.026 E18.51631
G1 X175.018 Y107.506 E18.54001
G1 X175.548 Y107.856 E18.55516
G1 X176.158 Y108.316 E18.57338
G1 X176.548 Y108.646 E18.58556
G1 X176.988 Y109.056 E18.59991
G1 X177.428 Y109.506 E18.61492
G1 X177.948 Y110.106 E18.63385
G1 X178.268 Y110.526 E18.64645
G1 X178.728 Y111.216 E18.66623
G1 X178.958 Y111.616 E18.67723
G1 X179.368 Y112.486 E18.70017
G1 X187.758 Y133.976 E19.25038
G1 X187.898 Y134.386 E19.26071
G1 X188.158 Y135.416 E19.28604
G1 X188.258 Y135.946 E19.29891
G1 X188.358 Y136.926 E19.32240
G1 X188.378 Y137.456 E19.33505
G1 X188.348 Y138.426 E19.35820
G1 X188.298 Y139.026 E19.37256
G1 X188.228 Y139.526 E19.38460
G1 X188.038 Y140.476 E19.40770
G1 X187.828 Y141.206 E19.42582
G1 X187.518 Y142.056 E19.44740
G1 X179.098 Y161.616 E19.95529
G1 X178.768 Y162.336 E19.97418
G1 X178.448 Y162.966 E19.99103
G1 X177.998 Y163.716 E20.01189
G1 X177.648 Y164.216 E20.02644
G1 X177.158 Y164.836 E20.04529
G1 X176.888 Y165.136 E20.05492
G1 X176.358 Y165.656 E20.07263
G1 X176.028 Y165.946 E20.08310
G1 X175.428 Y166.416 E20.10128
G1 X174.978 Y166.726 E20.11431
G1 X174.378 Y167.096 E20.13113
G1 X173.368 Y167.616 E20.15822
G1 X153.688 Y176.208 E20.67035
G1 F1200.000 E17.67035
G92 E0
G1 X150.320 Y160.479 F12000.000
G1 E3.00000 F1200.000
G1 X149.678 Y159.965 E3.01961 F1800
G1 X149.264 Y159.603 E3.03274
G1 X148.590 Y158.922 E3.05558
G1 X148.055 Y158.292 E3.07530
G1 X147.566 Y157.665 E3.09425
G1 X147.146 Y157.073 E3.11156
G1 X146.855 Y156.604 E3.12473
G1 X146.607 Y156.129 E3.13751
G1 X146.408 Y155.690 E3.14901
G1 X146.126 Y154.955 E3.16777
G1 X145.955 Y154.428 E3.18100
G1 X145.791 Y153.817 E3.19607
G1 X145.601 Y152.483 E3.22821
G1 X145.493 Y152.050 E3.23885
G1 X145.362 Y151.783 E3.24594
G1 X145.218 Y151.551 E3.25247
G1 X145.036 Y151.321 E3.25946
G1 X144.704 Y150.985 E3.27071
G1 X144.586 Y150.808 E3.27579
G1 X144.433 Y150.507 E3.28384
G1 X144.038 Y149.520 E3.30920
G1 X143.510 Y147.902 E3.34979
G1 X143.356 Y147.546 E3.35904
G1 X143.190 Y147.242 E3.36731
G1 X143.041 Y147.013 E3.37383
G1 X142.708 Y146.647 E3.38562
G1 X142.304 Y146.307 E3.39822
G1 X141.837 Y146.022 E3.41127
G1 X141.115 Y145.673 E3.43039
G1 X140.773 Y145.542 E3.43913
G1 X140.232 Y145.370 E3.45266
G1 X139.637 Y145.245 E3.46716
G1 X138.988 Y145.181 E3.48272
G1 X138.062 Y145.210 E3.50483
G1 X137.238 Y145.316 E3.52462
G1 X136.451 Y145.491 E3.54386
G1 X135.526 Y145.798 E3.56711
G1 X134.847 Y146.102 E3.58484
G1 X134.104 Y146.520 E3.60519
G1 X133.495 Y146.969 E3.62324
G1 X133.327 Y147.117 E3.62855
G1 X133.037 Y147.427 E3.63869
G1 X132.784 Y147.752 E3.64851
G1 X132.662 Y147.942 E3.65391
G1 X132.545 Y148.164 E3.65987
G1 X132.380 Y148.559 E3.67008
G1 X132.266 Y148.915 E3.67901
G1 X132.206 Y149.210 E3.68618
G1 X132.099 Y150.107 E3.70774
G1 X131.725 Y150.081 E3.71669
G1 X131.747 Y149.393 E3.73310
G1 X131.784 Y148.950 E3.74370
G1 X131.819 Y148.705 E3.74962
G1 X131.957 Y148.183 E3.76250
G1 X132.056 Y147.921 E3.76917
G1 X132.310 Y147.481 E3.78130
G1 X132.522 Y147.190 E3.78986
G1 X132.781 Y146.908 E3.79901
G1 X133.161 Y146.529 E3.81181
G1 X133.491 Y146.236 E3.82233
G1 X134.547 Y145.409 E3.85433
G1 X135.280 Y144.906 E3.87552
G1 X138.091 Y143.080 E3.95546
G1 X140.282 Y141.592 E4.01863
G1 X140.601 Y141.355 E4.02812
G1 X140.902 Y141.055 E4.03823
G1 X141.032 Y140.891 E4.04324
G1 X141.120 Y140.739 E4.04742
G1 X141.239 Y140.423 E4.05547
G1 X141.290 Y140.090 E4.06350
G1 X141.262 Y139.885 E4.06845
G1 X141.170 Y139.587 E4.07590
G1 X141.006 Y139.302 E4.08374
G1 X140.863 Y139.145 E4.08878
G1 X140.671 Y138.998 E4.09456
G1 X140.405 Y138.838 E4.10197
G1 X139.762 Y138.588 E4.11842
G1 X139.161 Y138.434 E4.13321
G1 X138.471 Y138.294 E4.15001
G1 X136.251 Y137.968 E4.20353
G1 X134.052 Y137.722 E4.25629
G1 X132.303 Y137.609 E4.29809
G1 X132.285 Y137.315 E4.30512
G1 X134.914 Y136.863 E4.36875
G1 X137.161 Y136.442 E4.42326
G1 X139.402 Y136.007 E4.47772
G1 X139.810 Y135.906 E4.48773
G1 X140.023 Y135.832 E4.49312
G1 X140.463 Y135.612 E4.50485
G1 X140.695 Y135.433 E4.51183
G1 X140.875 Y135.264 E4.51773
G1 X141.082 Y134.867 E4.52841
G1 X141.162 Y134.558 E4.53602
G1 X141.185 Y134.303 E4.54213
G1 X141.166 Y133.951 E4.55053
G1 X141.079 Y133.593 E4.55931
G1 X140.876 Y133.013 E4.57396
G1 X140.586 Y132.403 E4.59007
G1 X140.292 Y131.905 E4.60386
G1 X139.941 Y131.406 E4.61842
G1 X139.543 Y130.950 E4.63285
G1 X139.227 Y130.647 E4.64330
G1 X138.779 Y130.306 E4.65671
G1 X138.234 Y129.962 E4.67210
G1 X137.227 Y129.491 E4.69860
G1 X136.486 Y129.198 E4.71761
G1 X134.348 Y128.424 E4.77183
G1 X133.570 Y128.121 E4.79174
G1 X132.730 Y127.765 E4.81352
G1 X131.649 Y127.245 E4.84211
G1 X130.902 Y126.831 E4.86249
G1 X130.249 Y126.434 E4.88072
G1 X129.530 Y125.924 E4.90174
G1 X128.813 Y125.361 E4.92348
G1 X129.013 Y125.075 E4.93181
G1 X130.014 Y125.686 E4.95976
G1 X130.559 Y125.965 E4.97437
G1 X131.439 Y126.286 E4.99670
G1 X132.234 Y126.499 E5.01634
G1 X133.206 Y126.682 E5.03993
G1 X135.723 Y126.969 E5.10036
G1 X136.726 Y127.116 E5.12453
G1 X138.025 Y127.380 E5.15615
G1 X139.085 Y127.667 E5.18233
G1 X139.793 Y127.894 E5.20005
G1 X140.728 Y128.258 E5.22400
G1 X141.452 Y128.616 E5.24326
G1 X142.564 Y129.234 E5.27360
G1 X143.145 Y129.525 E5.28911
G1 X143.676 Y129.749 E5.30284
G1 X144.341 Y129.938 E5.31933
G1 X144.719 Y129.981 E5.32841
G1 X145.274 Y129.975 E5.34165
G1 X145.604 Y129.926 E5.34960
G1 X145.990 Y129.836 E5.35906
G1 X146.490 Y129.676 E5.37157
G1 X147.016 Y129.471 E5.38504
G1 X147.555 Y129.219 E5.39923
G1 X148.106 Y128.905 E5.41435
G1 X148.562 Y128.589 E5.42758
G1 X149.008 Y128.243 E5.44105
G1 X150.489 Y127.007 E5.48705
G1 X151.255 Y126.264 E5.51250
G1 X151.451 Y126.049 E5.51943
G1 X151.763 Y125.654 E5.53144
G1 X152.217 Y124.972 E5.55098
G1 X152.410 Y124.581 E5.56139
G1 X152.597 Y124.116 E5.57334
G1 X152.691 Y123.811 E5.58095
G1 X152.765 Y123.398 E5.59096
G1 X152.808 Y122.936 E5.60201
G1 X152.811 Y122.565 E5.61086
G1 X152.773 Y122.107 E5.62184
G1 X152.714 Y121.691 E5.63186
G1 X152.619 Y121.228 E5.64312
G1 X152.513 Y120.834 E5.65286
G1 X152.265 Y120.211 E5.66886
G1 X152.156 Y119.994 E5.67464
G1 X151.900 Y119.579 E5.68625
G1 X151.657 Y119.234 E5.69634
G1 X151.379 Y118.886 E5.70694
G1 X150.635 Y118.057 E5.73353
G1 X149.383 Y116.797 E5.77588
G1 X147.781 Y115.257 E5.82888
G1 X146.879 Y114.351 E5.85937
G1 X147.102 Y114.099 E5.86741
G1 X147.885 Y114.686 E5.89075
G1 X150.540 Y116.532 E5.96787
G1 X151.262 Y117.085 E5.98958
G1 X151.980 Y117.684 E6.01186
G1 X152.672 Y118.326 E6.03439
G1 X153.338 Y119.041 E6.05768
G1 X153.916 Y119.775 E6.07997
G1 X154.324 Y120.434 E6.09845
G1 X154.534 Y120.832 E6.10919
G1 X154.639 Y121.088 E6.11577
G1 X154.915 Y121.950 E6.13737
G1 X155.039 Y122.564 E6.15231
G1 X155.144 Y123.441 E6.17337
G1 X155.163 Y124.088 E6.18881
G1 X155.144 Y124.814 E6.20612
G1 X155.058 Y125.709 E6.22758
G1 X154.774 Y127.521 E6.27131
G1 X154.756 Y127.846 E6.27907
