; generated by Slic3r 1.0.0RC3 on 2014-03-24 at 10:12:42

; layer_height = 0.4
; perimeters = 3
; top_solid_layers = 3
; bottom_solid_layers = 3
; fill_density = .35
; perimeter_speed = 30
; infill_speed = 30
; travel_speed = 200
; nozzle_diameter = 0.5
; filament_diameter = 3
; extrusion_multiplier = 1.0
; perimeters extrusion width = 0.50mm
; infill extrusion width = 0.53mm
; solid infill extrusion width = 0.53mm
; top infill extrusion width = 0.53mm
; first layer extrusion width = 0.40mm

G21 ; set units to millimeters
M107
G28 ; home all axes
G90 ; use absolute coordinates
G92 E0
M82 ; use absolute distances for extrusion
G1 F1200.000 E-3.00000
G92 E0
G1 Z0.400 F12000.000
G1 X84.330 Y81.690 F12000.000
G1 E3.00000 F1200.000
G1 X85.430 Y80.790 E3.03390 F1800
G1 X86.690 Y80.120 E3.06793
G1 X88.050 Y79.710 E3.10181
G1 X89.470 Y79.570 E3.13584
G1 X208.570 Y79.570 E5.97635
G1 X209.990 Y79.710 E6.01038
G1 X211.350 Y80.120 E6.04426
G1 X212.610 Y80.790 E6.07829
G1 X213.710 Y81.690 E6.11219
G1 X214.610 Y82.790 E6.14608
G1 X215.280 Y84.050 E6.18012
G1 X215.690 Y85.410 E6.21400
G1 X215.830 Y86.830 E6.24803
G1 X215.830 Y188.420 E8.67093
G1 X215.690 Y189.840 E8.70496
G1 X215.280 Y191.200 E8.73883
G1 X214.610 Y192.460 E8.77287
G1 X213.710 Y193.560 E8.80677
G1 X212.610 Y194.460 E8.84066
G1 X211.350 Y195.130 E8.87470
G1 X209.990 Y195.540 E8.90858
G1 X208.570 Y195.680 E8.94261
G1 X89.470 Y195.680 E11.78311
G1 X88.050 Y195.540 E11.81715
G1 X86.690 Y195.130 E11.85102
G1 X85.430 Y194.460 E11.88506
G1 X84.330 Y193.560 E11.91895
G1 X83.430 Y192.460 E11.95285
G1 X82.760 Y191.200 E11.98689
G1 X82.350 Y189.840 E12.02076
G1 X82.210 Y188.420 E12.05480
G1 X82.210 Y86.830 E14.47769
G1 X82.350 Y85.410 E14.51172
G1 X82.760 Y84.050 E14.54560
G1 X83.430 Y82.790 E14.57964
G1 X84.290 Y81.739 E14.61203
G1 X84.630 Y81.990 F12000.000
G1 X85.670 Y81.140 E14.64406 F1800
G1 X86.850 Y80.510 E14.67596
G1 X88.140 Y80.120 E14.70810
G1 X89.470 Y79.990 E14.73998
G1 X208.570 Y79.990 E17.58048
G1 X209.900 Y80.120 E17.61235
G1 X211.190 Y80.510 E17.64450
G1 X212.370 Y81.140 E17.67640
G1 X213.410 Y81.990 E17.70843
G1 X214.260 Y83.030 E17.74047
G1 X214.890 Y84.210 E17.77237
G1 X215.280 Y85.500 E17.80451
G1 X215.410 Y86.830 E17.83638
G1 X215.410 Y188.420 E20.25928
G1 X215.280 Y189.750 E20.29115
G1 X214.890 Y191.040 E20.32329
G1 X214.260 Y192.220 E20.35520
G1 X213.410 Y193.260 E20.38723
G1 X212.370 Y194.110 E20.41926
G1 X211.190 Y194.740 E20.45117
G1 X209.900 Y195.130 E20.48331
G1 X208.570 Y195.260 E20.51518
G1 X89.470 Y195.260 E23.35569
G1 X88.140 Y195.130 E23.38756
G1 X86.850 Y194.740 E23.41970
G1 X85.670 Y194.110 E23.45160
G1 X84.630 Y193.260 E23.48364
G1 X83.780 Y192.220 E23.51567
G1 X83.150 Y191.040 E23.54757
G1 X82.760 Y189.750 E23.57971
G1 X82.630 Y188.420 E23.61159
G1 X82.630 Y86.830 E26.03448
G1 X82.760 Y85.500 E26.06636
G1 X83.150 Y84.210 E26.09850
G1 X83.780 Y83.030 E26.13040
G1 X84.590 Y82.039 E26.16093
G1 X84.930 Y82.290 F12000.000
G1 X85.900 Y81.490 E26.19091 F1800
G1 X87.010 Y80.900 E26.22089
G1 X88.220 Y80.530 E26.25107
G1 X89.470 Y80.410 E26.28102
G1 X208.570 Y80.410 E29.12153
G1 X209.820 Y80.530 E29.15148
G1 X211.030 Y80.900 E29.18165
G1 X212.140 Y81.490 E29.21163
G1 X213.110 Y82.290 E29.24162
G1 X213.910 Y83.260 E29.27161
G1 X214.500 Y84.370 E29.30159
G1 X214.870 Y85.580 E29.33177
G1 X214.990 Y86.830 E29.36172
G1 X214.990 Y188.420 E31.78461
G1 X214.870 Y189.670 E31.81456
G1 X214.500 Y190.880 E31.84474
G1 X213.910 Y191.990 E31.87472
G1 X213.110 Y192.960 E31.90471
G1 X212.140 Y193.760 E31.93470
G1 X211.030 Y194.350 E31.96468
G1 X209.820 Y194.720 E31.99485
G1 X208.570 Y194.840 E32.02480
G1 X89.470 Y194.840 E34.86531
G1 X88.220 Y194.720 E34.89526
G1 X87.010 Y194.350 E34.92544
G1 X85.900 Y193.760 E34.95542
G1 X84.930 Y192.960 E34.98540
G1 X84.130 Y191.990 E35.01539
G1 X83.540 Y190.880 E35.04537
G1 X83.170 Y189.670 E35.07555
G1 X83.050 Y188.420 E35.10550
G1 X83.050 Y86.830 E37.52840
G1 X83.170 Y85.580 E37.55835
G1 X83.540 Y84.370 E37.58852
G1 X84.130 Y83.260 E37.61850
G1 X84.890 Y82.339 E37.64698
G1 F1200.000 E34.64698
G92 E0
G1 X90.519 Y87.873 F12000.000
G1 E3.00000 F1200.000
G1 X207.537 Y87.873 E5.79084 F1800
G1 X207.537 Y187.377 E8.16399
G1 X90.519 Y187.377 E10.95483
G1 X90.519 Y87.936 E13.32647
G1 X90.098 Y87.452 F12000.000
G1 X207.958 Y87.452 E16.13741 F1800
G1 X207.958 Y187.799 E18.53067
G1 X90.098 Y187.799 E21.34161
G1 X90.098 Y87.515 E23.73335
G1 X89.676 Y87.030 F12000.000
G1 X208.380 Y87.030 E26.56440 F1800
G1 X208.380 Y188.220 E28.97776
G1 X89.676 Y188.220 E31.80880
G1 X89.676 Y87.094 E34.22065
G1 X90.041 Y87.241 F12000.000
G1 X90.835 Y187.082 F12000.000
G1 X90.815 Y187.062 E34.22133 F1800
G1 X90.815 Y186.465 E34.23556
G1 X91.431 Y187.082 E34.25636
G1 X92.027 Y187.082 E34.27059
G1 X90.815 Y185.869 E34.31153
G1 X90.815 Y185.272 E34.32576
G1 X92.624 Y187.082 E34.38682
G1 X93.220 Y187.082 E34.40105
G1 X90.815 Y184.676 E34.48224
G1 X90.815 Y184.080 E34.49647
G1 X93.817 Y187.082 E34.59778
G1 X94.413 Y187.082 E34.61202
G1 X90.815 Y183.483 E34.73346
G1 X90.815 Y182.887 E34.74769
G1 X95.009 Y187.082 E34.88926
G1 X95.606 Y187.082 E34.90349
G1 X90.815 Y182.291 E35.06519
G1 X90.815 Y181.694 E35.07943
G1 X96.202 Y187.082 E35.26125
G1 X96.799 Y187.082 E35.27548
G1 X90.815 Y181.098 E35.47744
G1 X90.815 Y180.501 E35.49167
G1 X97.395 Y187.082 E35.71375
G1 X97.991 Y187.082 E35.72799
G1 X90.815 Y179.905 E35.97020
G1 X90.815 Y179.309 E35.98443
G1 X98.588 Y187.082 E36.24677
G1 X99.184 Y187.082 E36.26100
G1 X90.815 Y178.712 E36.54347
G1 X90.815 Y178.116 E36.55770
G1 X99.781 Y187.082 E36.86029
G1 X100.377 Y187.082 E36.87453
G1 X90.815 Y177.519 E37.19725
G1 X90.815 Y176.923 E37.21148
G1 X100.973 Y187.082 E37.55433
G1 X101.570 Y187.082 E37.56856
G1 X90.815 Y176.327 E37.93154
G1 X90.815 Y175.730 E37.94577
G1 X102.166 Y187.082 E38.32888
G1 X102.763 Y187.082 E38.34311
G1 X90.815 Y175.134 E38.74635
G1 X90.815 Y174.537 E38.76058
G1 X103.359 Y187.082 E39.18394
G1 X103.955 Y187.082 E39.19817
G1 X90.815 Y173.941 E39.64166
G1 X90.815 Y173.345 E39.65589
G1 X104.552 Y187.082 E40.11951
G1 X105.148 Y187.082 E40.13374
G1 X90.815 Y172.748 E40.61749
G1 X90.815 Y172.152 E40.63172
G1 X105.745 Y187.082 E41.13560
G1 X106.341 Y187.082 E41.14983
G1 X90.815 Y171.555 E41.67383
G1 X90.815 Y170.959 E41.68806
G1 X106.937 Y187.082 E42.23219
G1 X107.534 Y187.082 E42.24642
G1 X90.815 Y170.363 E42.81068
G1 X90.815 Y169.766 E42.82491
G1 X108.130 Y187.082 E43.40930
G1 X108.727 Y187.082 E43.42353
G1 X90.815 Y169.170 E44.02804
G1 X90.815 Y168.573 E44.04228
G1 X109.323 Y187.082 E44.66692
G1 X109.919 Y187.082 E44.68115
G1 X90.815 Y167.977 E45.32592
G1 X90.815 Y167.381 E45.34015
G1 X110.516 Y187.082 E46.00505
G1 X111.112 Y187.082 E46.01928
G1 X90.815 Y166.784 E46.70431
G1 X90.815 Y166.188 E46.71854
G1 X111.709 Y187.082 E47.42369
G1 X112.305 Y187.082 E47.43792
G1 X90.815 Y165.591 E48.16321
G1 X90.815 Y164.995 E48.17744
G1 X112.901 Y187.082 E48.92285
G1 X113.498 Y187.082 E48.93708
G1 X90.815 Y164.399 E49.70262
G1 X90.815 Y163.802 E49.71685
G1 X114.094 Y187.082 E50.50251
G1 X114.691 Y187.082 E50.51675
G1 X90.815 Y163.206 E51.32254
G1 X90.815 Y162.609 E51.33677
G1 X115.287 Y187.082 E52.16269
G1 X115.883 Y187.082 E52.17692
G1 X90.815 Y162.013 E53.02297
G1 X90.815 Y161.417 E53.03720
G1 X116.480 Y187.082 E53.90338
G1 X117.076 Y187.082 E53.91761
G1 X90.815 Y160.820 E54.80392
G1 X90.815 Y160.224 E54.81815
G1 X117.673 Y187.082 E55.72458
G1 X118.269 Y187.082 E55.73881
G1 X90.815 Y159.627 E56.66537
G1 X90.815 Y159.031 E56.67961
G1 X118.865 Y187.082 E57.62629
G1 X119.462 Y187.082 E57.64053
G1 X90.815 Y158.435 E58.60734
G1 X90.815 Y157.838 E58.62158
G1 X120.058 Y187.082 E59.60852
G1 X120.655 Y187.082 E59.62275
G1 X90.815 Y157.242 E60.62982
G1 X90.815 Y156.645 E60.64406
G1 X121.251 Y187.082 E61.67126
G1 X121.847 Y187.082 E61.68549
G1 X90.815 Y156.049 E62.73282
G1 X90.815 Y155.453 E62.74705
G1 X122.444 Y187.082 E63.81450
G1 X123.040 Y187.082 E63.82874
G1 X90.815 Y154.856 E64.91632
G1 X90.815 Y154.260 E64.93055
G1 X123.637 Y187.082 E66.03826
G1 X124.233 Y187.082 E66.05250
G1 X90.815 Y153.663 E67.18034
G1 X90.815 Y153.067 E67.19457
G1 X124.829 Y187.082 E68.34254
G1 X125.426 Y187.082 E68.35677
G1 X90.815 Y152.471 E69.52486
G1 X90.815 Y151.874 E69.53910
G1 X126.022 Y187.082 E70.72732
G1 X126.618 Y187.082 E70.74155
G1 X90.815 Y151.278 E71.94990
G1 X90.815 Y150.681 E71.96414
G1 X127.215 Y187.082 E73.19262
G1 X127.811 Y187.082 E73.20685
G1 X90.815 Y150.085 E74.45546
G1 X90.815 Y149.489 E74.46969
G1 X128.408 Y187.082 E75.73842
G1 X129.004 Y187.082 E75.75266
G1 X90.815 Y148.892 E77.04152
G1 X90.815 Y148.296 E77.05575
G1 X129.600 Y187.082 E78.36474
G1 X130.197 Y187.082 E78.37897
G1 X90.815 Y147.699 E79.70809
G1 X90.815 Y147.103 E79.72233
G1 X130.793 Y187.082 E81.07157
G1 X131.390 Y187.082 E81.08580
G1 X90.815 Y146.507 E82.45518
G1 X90.815 Y145.910 E82.46941
G1 X131.986 Y187.082 E83.85891
G1 X132.582 Y187.082 E83.87315
G1 X90.815 Y145.314 E85.28278
G1 X90.815 Y144.717 E85.29701
G1 X133.179 Y187.082 E86.72677
G1 X133.775 Y187.082 E86.74100
G1 X90.815 Y144.121 E88.19089
G1 X90.815 Y143.525 E88.20512
G1 X134.372 Y187.082 E89.67513
G1 X134.968 Y187.082 E89.68937
G1 X90.815 Y142.928 E91.17951
G1 X90.815 Y142.332 E91.19374
G1 X135.564 Y187.082 E92.70401
G1 X136.161 Y187.082 E92.71824
G1 X90.815 Y141.735 E94.24864
G1 X90.815 Y141.139 E94.26288
G1 X136.757 Y187.082 E95.81340
G1 X137.354 Y187.082 E95.82763
G1 X90.815 Y140.543 E97.39829
G1 X90.815 Y139.946 E97.41252
G1 X137.950 Y187.082 E99.00330
G1 X138.546 Y187.082 E99.01753
G1 X90.815 Y139.350 E100.62844
G1 X90.815 Y138.753 E100.64268
G1 X139.143 Y187.082 E102.27371
G1 X139.739 Y187.082 E102.28795
G1 X90.815 Y138.157 E103.93911
G1 X90.815 Y137.561 E103.95335
G1 X140.336 Y187.082 E105.62464
G1 X140.932 Y187.082 E105.63887
G1 X90.815 Y136.964 E107.33029
G1 X90.815 Y136.368 E107.34453
G1 X141.528 Y187.082 E109.05608
G1 X142.125 Y187.082 E109.07031
G1 X90.815 Y135.772 E110.80199
G1 X90.815 Y135.175 E110.81622
G1 X142.721 Y187.082 E112.56802
G1 X143.318 Y187.082 E112.58226
G1 X90.815 Y134.579 E114.35419
G1 X90.815 Y133.982 E114.36842
G1 X143.914 Y187.082 E116.16048
G1 X144.510 Y187.082 E116.17472
G1 X90.815 Y133.386 E117.98691
G1 X90.815 Y132.790 E118.00114
G1 X145.107 Y187.082 E119.83345
G1 X145.703 Y187.082 E119.84769
G1 X90.815 Y132.193 E121.70013
G1 X90.815 Y131.597 E121.71436
G1 X146.300 Y187.082 E123.58694
G1 X146.896 Y187.082 E123.60117
G1 X90.815 Y131.000 E125.49387
G1 X90.815 Y130.404 E125.50810
G1 X147.492 Y187.082 E127.42093
G1 X148.089 Y187.082 E127.43517
G1 X90.815 Y129.808 E129.36812
G1 X90.815 Y129.211 E129.38235
G1 X148.685 Y187.082 E131.33544
G1 X149.282 Y187.082 E131.34967
G1 X90.815 Y128.615 E133.32288
G1 X90.815 Y128.018 E133.33712
G1 X149.878 Y187.082 E135.33046
G1 X150.474 Y187.082 E135.34469
G1 X90.815 Y127.422 E137.35816
G1 X90.815 Y126.826 E137.37239
G1 X151.071 Y187.082 E139.40599
G1 X151.667 Y187.082 E139.42022
G1 X90.815 Y126.229 E141.47395
G1 X90.815 Y125.633 E141.48818
G1 X152.264 Y187.082 E143.56203
G1 X152.860 Y187.082 E143.57626
G1 X90.815 Y125.036 E145.67024
G1 X90.815 Y124.440 E145.68448
G1 X153.456 Y187.082 E147.79858
G1 X154.053 Y187.082 E147.81282
G1 X90.815 Y123.844 E149.94705
G1 X90.815 Y123.247 E149.96128
G1 X154.649 Y187.082 E152.11565
G1 X155.246 Y187.082 E152.12988
G1 X90.815 Y122.651 E154.30437
G1 X90.815 Y122.054 E154.31861
G1 X155.842 Y187.082 E156.51323
G1 X156.438 Y187.082 E156.52746
G1 X90.815 Y121.458 E158.74221
G1 X90.815 Y120.862 E158.75644
G1 X157.035 Y187.082 E160.99131
G1 X157.631 Y187.082 E161.00555
G1 X90.815 Y120.265 E163.26055
G1 X90.815 Y119.669 E163.27478
G1 X158.228 Y187.082 E165.54992
G1 X158.824 Y187.082 E165.56415
G1 X90.815 Y119.072 E167.85941
G1 X90.815 Y118.476 E167.87364
G1 X159.420 Y187.082 E170.18903
G1 X160.017 Y187.082 E170.20326
G1 X90.815 Y117.880 E172.53878
G1 X90.815 Y117.283 E172.55301
G1 X160.613 Y187.082 E174.90865
G1 X161.210 Y187.082 E174.92288
G1 X90.815 Y116.687 E177.29866
G1 X90.815 Y116.090 E177.31289
G1 X161.806 Y187.082 E179.70879
G1 X162.402 Y187.082 E179.72302
G1 X90.815 Y115.494 E182.13905
G1 X90.815 Y114.898 E182.15328
G1 X162.999 Y187.082 E184.58944
G1 X163.595 Y187.082 E184.60367
G1 X90.815 Y114.301 E187.05995
G1 X90.815 Y113.705 E187.07418
G1 X164.192 Y187.082 E189.55059
G1 X164.788 Y187.082 E189.56483
G1 X90.815 Y113.108 E192.06137
G1 X90.815 Y112.512 E192.07560
G1 X165.384 Y187.082 E194.59227
G1 X165.981 Y187.082 E194.60650
G1 X90.815 Y111.916 E197.14329
G1 X90.815 Y111.319 E197.15753
G1 X166.577 Y187.082 E199.71445
G1 X167.174 Y187.082 E199.72868
G1 X90.815 Y110.723 E202.30573
G1 X90.815 Y110.126 E202.31996
G1 X167.770 Y187.082 E204.91714
G1 X168.366 Y187.082 E204.93138
G1 X90.815 Y109.530 E207.54868
G1 X90.815 Y108.934 E207.56291
G1 X168.963 Y187.082 E210.20035
G1 X169.559 Y187.082 E210.21458
G1 X90.815 Y108.337 E212.87214
G1 X90.815 Y107.741 E212.88638
G1 X170.156 Y187.082 E215.56407
G1 X170.752 Y187.082 E215.57830
G1 X90.815 Y107.144 E218.27612
G1 X90.815 Y106.548 E218.29035
G1 X171.348 Y187.082 E221.00830
G1 X171.945 Y187.082 E221.02253
G1 X90.815 Y105.952 E223.76060
G1 X90.815 Y105.355 E223.77484
G1 X172.541 Y187.082 E226.53304
G1 X173.138 Y187.082 E226.54727
G1 X90.815 Y104.759 E229.32560
G1 X90.815 Y104.162 E229.33983
G1 X173.734 Y187.082 E232.13829
G1 X174.330 Y187.082 E232.15252
G1 X90.815 Y103.566 E234.97111
G1 X90.815 Y102.970 E234.98534
G1 X174.927 Y187.082 E237.82406
G1 X175.523 Y187.082 E237.83829
G1 X90.815 Y102.373 E240.69713
G1 X90.815 Y101.777 E240.71136
G1 X176.119 Y187.082 E243.59033
G1 X176.716 Y187.082 E243.60457
G1 X90.815 Y101.180 E246.50366
G1 X90.815 Y100.584 E246.51790
G1 X177.312 Y187.082 E249.43712
G1 X177.909 Y187.082 E249.45135
G1 X90.815 Y99.988 E252.39071
G1 X90.815 Y99.391 E252.40494
G1 X178.505 Y187.082 E255.36442
G1 X179.101 Y187.082 E255.37865
G1 X90.815 Y98.795 E258.35826
G1 X90.815 Y98.198 E258.37250
G1 X179.698 Y187.082 E261.37223
G1 X180.294 Y187.082 E261.38647
G1 X90.815 Y97.602 E264.40633
G1 X90.815 Y97.006 E264.42056
G1 X180.891 Y187.082 E267.46056
G1 X181.487 Y187.082 E267.47479
G1 X90.815 Y96.409 E270.53491
G1 X90.815 Y95.813 E270.54914
G1 X182.083 Y187.082 E273.62939
G1 X182.680 Y187.082 E273.64363
G1 X90.815 Y95.216 E276.74400
G1 X90.815 Y94.620 E276.75823
G1 X183.276 Y187.082 E279.87874
G1 X183.873 Y187.082 E279.89297
G1 X90.815 Y94.024 E283.03361
G1 X90.815 Y93.427 E283.04784
G1 X184.469 Y187.082 E286.20860
G1 X185.065 Y187.082 E286.22283
G1 X90.815 Y92.831 E289.40372
G1 X90.815 Y92.234 E289.41795
G1 X185.662 Y187.082 E292.61897
G1 X186.258 Y187.082 E292.63320
G1 X90.815 Y91.638 E295.85435
G1 X90.815 Y91.042 E295.86858
G1 X186.855 Y187.082 E299.10985
G1 X187.451 Y187.082 E299.12408
G1 X90.815 Y90.445 E302.38548
G1 X90.815 Y89.849 E302.39972
G1 X188.047 Y187.082 E305.68125
G1 X188.644 Y187.082 E305.69548
G1 X90.815 Y89.252 E308.99713
G1 X90.815 Y88.656 E309.01137
G1 X189.240 Y187.082 E312.33315
G1 X189.837 Y187.082 E312.34738
G1 X90.924 Y88.169 E315.68562
G1 X91.520 Y88.169 E315.69985
G1 X190.433 Y187.082 E319.03808
G1 X191.029 Y187.082 E319.05231
G1 X92.116 Y88.169 E322.39055
G1 X92.713 Y88.169 E322.40478
G1 X191.626 Y187.082 E325.74301
G1 X192.222 Y187.082 E325.75724
G1 X93.309 Y88.169 E329.09548
G1 X93.906 Y88.169 E329.10971
G1 X192.819 Y187.082 E332.44794
G1 X193.415 Y187.082 E332.46217
G1 X94.502 Y88.169 E335.80041
G1 X95.098 Y88.169 E335.81464
G1 X194.011 Y187.082 E339.15287
G1 X194.608 Y187.082 E339.16710
G1 X95.695 Y88.169 E342.50534
G1 X96.291 Y88.169 E342.51957
G1 X195.204 Y187.082 E345.85780
G1 X195.801 Y187.082 E345.87203
G1 X96.888 Y88.169 E349.21027
G1 X97.484 Y88.169 E349.22450
G1 X196.397 Y187.082 E352.56273
G1 X196.993 Y187.082 E352.57696
G1 X98.080 Y88.169 E355.91520
G1 X98.677 Y88.169 E355.92943
G1 X197.590 Y187.082 E359.26766
G1 X198.186 Y187.082 E359.28189
G1 X99.273 Y88.169 E362.62013
G1 X99.870 Y88.169 E362.63436
G1 X198.783 Y187.082 E365.97259
G1 X199.379 Y187.082 E365.98682
G1 X100.466 Y88.169 E369.32506
G1 X101.062 Y88.169 E369.33929
G1 X199.975 Y187.082 E372.67752
G1 X200.572 Y187.082 E372.69175
