; generated by Slic3r 1.0.0RC3 on 2014-03-20 at 07:21:06

; layer_height = 0.4
; perimeters = 3
; top_solid_layers = 3
; bottom_solid_layers = 3
; fill_density = .35
; perimeter_speed = 30
; infill_speed = 30
; travel_speed = 200
; nozzle_diameter = 0.5
; filament_diameter = 3
; extrusion_multiplier = 1.0
; perimeters extrusion width = 0.50mm
; infill extrusion width = 0.53mm
; solid infill extrusion width = 0.53mm
; top infill extrusion width = 0.53mm
; first layer extrusion width = 0.40mm

G21 ; set units to millimeters
M107
G28 ; home all axes
G90 ; use absolute coordinates
G92 E0
M82 ; use absolute distances for extrusion
G1 F1200.000 E-3.00000
G92 E0
G1 Z0.400 F12000.000
G1 X42.960 Y33.460 F12000.000
G1 E3.00000 F1200.000
G1 X43.860 Y32.360 E3.03390 F1800
G1 X44.960 Y31.460 E3.06779
G1 X46.220 Y30.790 E3.10183
G1 X47.580 Y30.380 E3.13571
G1 X49.000 Y30.240 E3.16974
G1 X249.000 Y30.240 E7.93969
G1 X250.420 Y30.380 E7.97372
G1 X251.780 Y30.790 E8.00760
G1 X253.040 Y31.460 E8.04163
G1 X254.140 Y32.360 E8.07553
G1 X255.040 Y33.460 E8.10943
G1 X255.710 Y34.720 E8.14346
G1 X256.120 Y36.080 E8.17734
G1 X256.260 Y37.500 E8.21137
G1 X256.260 Y237.500 E12.98133
G1 X256.120 Y238.920 E13.01536
G1 X255.710 Y240.280 E13.04923
G1 X255.040 Y241.540 E13.08327
G1 X254.140 Y242.640 E13.11717
G1 X253.040 Y243.540 E13.15106
G1 X251.780 Y244.210 E13.18510
G1 X250.420 Y244.620 E13.21898
G1 X249.000 Y244.760 E13.25301
G1 X49.000 Y244.760 E18.02296
G1 X47.580 Y244.620 E18.05699
G1 X46.220 Y244.210 E18.09087
G1 X44.960 Y243.540 E18.12490
G1 X43.860 Y242.640 E18.15880
G1 X42.960 Y241.540 E18.19270
G1 X42.290 Y240.280 E18.22673
G1 X41.880 Y238.920 E18.26061
G1 X41.740 Y237.500 E18.29464
G1 X41.740 Y37.500 E23.06459
G1 X41.880 Y36.080 E23.09862
G1 X42.290 Y34.720 E23.13250
G1 X42.930 Y33.516 E23.16503
G1 X43.310 Y33.700 F12000.000
G1 X44.160 Y32.660 E23.19706 F1800
G1 X45.200 Y31.810 E23.22910
G1 X46.380 Y31.180 E23.26100
G1 X47.670 Y30.790 E23.29314
G1 X49.000 Y30.660 E23.32501
G1 X249.000 Y30.660 E28.09497
G1 X250.330 Y30.790 E28.12684
G1 X251.620 Y31.180 E28.15898
G1 X252.800 Y31.810 E28.19088
G1 X253.840 Y32.660 E28.22292
G1 X254.690 Y33.700 E28.25495
G1 X255.320 Y34.880 E28.28685
G1 X255.710 Y36.170 E28.31899
G1 X255.840 Y37.500 E28.35087
G1 X255.840 Y237.500 E33.12082
G1 X255.710 Y238.830 E33.15269
G1 X255.320 Y240.120 E33.18483
G1 X254.690 Y241.300 E33.21674
G1 X253.840 Y242.340 E33.24877
G1 X252.800 Y243.190 E33.28080
G1 X251.620 Y243.820 E33.31271
G1 X250.330 Y244.210 E33.34485
G1 X249.000 Y244.340 E33.37672
G1 X49.000 Y244.340 E38.14667
G1 X47.670 Y244.210 E38.17854
G1 X46.380 Y243.820 E38.21069
G1 X45.200 Y243.190 E38.24259
G1 X44.160 Y242.340 E38.27462
G1 X43.310 Y241.300 E38.30666
G1 X42.680 Y240.120 E38.33856
G1 X42.290 Y238.830 E38.37070
G1 X42.160 Y237.500 E38.40257
G1 X42.160 Y37.500 E43.17253
G1 X42.290 Y36.170 E43.20440
G1 X42.680 Y34.880 E43.23654
G1 X43.280 Y33.756 E43.26693
G1 X43.660 Y33.930 F12000.000
G1 X44.460 Y32.960 E43.29692 F1800
G1 X45.430 Y32.160 E43.32691
G1 X46.540 Y31.570 E43.35689
G1 X47.750 Y31.200 E43.38707
G1 X49.000 Y31.080 E43.41701
G1 X249.000 Y31.080 E48.18697
G1 X250.250 Y31.200 E48.21692
G1 X251.460 Y31.570 E48.24709
G1 X252.570 Y32.160 E48.27708
G1 X253.540 Y32.960 E48.30706
G1 X254.340 Y33.930 E48.33705
G1 X254.930 Y35.040 E48.36703
G1 X255.300 Y36.250 E48.39721
G1 X255.420 Y37.500 E48.42716
G1 X255.420 Y237.500 E53.19711
G1 X255.300 Y238.750 E53.22706
G1 X254.930 Y239.960 E53.25724
G1 X254.340 Y241.070 E53.28722
G1 X253.540 Y242.040 E53.31720
G1 X252.570 Y242.840 E53.34719
G1 X251.460 Y243.430 E53.37717
G1 X250.250 Y243.800 E53.40735
G1 X249.000 Y243.920 E53.43730
G1 X49.000 Y243.920 E58.20725
G1 X47.750 Y243.800 E58.23720
G1 X46.540 Y243.430 E58.26738
G1 X45.430 Y242.840 E58.29736
G1 X44.460 Y242.040 E58.32735
G1 X43.660 Y241.070 E58.35733
G1 X43.070 Y239.960 E58.38731
G1 X42.700 Y238.750 E58.41749
G1 X42.580 Y237.500 E58.44744
G1 X42.580 Y37.500 E63.21739
G1 X42.700 Y36.250 E63.24734
G1 X43.070 Y35.040 E63.27752
G1 X43.630 Y33.986 E63.30599
G1 F1200.000 E60.30599
G92 E0
G1 X50.043 Y38.543 F12000.000
G1 E3.00000 F1200.000
G1 X247.957 Y38.543 E7.72021 F1800
G1 X247.957 Y236.457 E12.44041
G1 X50.043 Y236.457 E17.16062
G1 X50.043 Y38.606 E21.87932
G1 X49.621 Y38.121 F12000.000
G1 X248.379 Y38.121 E26.61963 F1800
G1 X248.379 Y236.879 E31.35994
G1 X49.621 Y236.879 E36.10025
G1 X49.621 Y38.185 E40.83905
G1 X49.200 Y37.700 F12000.000
G1 X248.800 Y37.700 E45.59947 F1800
G1 X248.800 Y237.300 E50.35988
G1 X49.200 Y237.300 E55.12029
G1 X49.200 Y37.763 E59.87920
G1 X49.565 Y37.911 F12000.000
G1 F1200.000 E56.87920
G92 E0
G1 X247.662 Y39.454 F12000.000
G1 E3.00000 F1200.000
G1 X247.046 Y38.838 E3.02078 F1800
G1 X246.450 Y38.838 E3.03499
G1 X247.662 Y40.050 E3.07588
G1 X247.662 Y40.647 E3.09009
G1 X245.853 Y38.838 E3.15108
G1 X245.257 Y38.838 E3.16530
G1 X247.662 Y41.243 E3.24639
G1 X247.662 Y41.839 E3.26061
G1 X244.661 Y38.838 E3.36181
G1 X244.065 Y38.838 E3.37603
G1 X247.662 Y42.435 E3.49734
G1 X247.662 Y43.031 E3.51156
G1 X243.469 Y38.838 E3.65297
G1 X242.873 Y38.838 E3.66719
G1 X247.662 Y43.627 E3.82871
G1 X247.662 Y44.223 E3.84293
G1 X242.277 Y38.838 E4.02456
G1 X241.681 Y38.838 E4.03878
G1 X247.662 Y44.819 E4.24051
G1 X247.662 Y45.415 E4.25473
G1 X241.085 Y38.838 E4.47657
G1 X240.489 Y38.838 E4.49079
G1 X247.662 Y46.011 E4.73274
G1 X247.662 Y46.607 E4.74696
G1 X239.893 Y38.838 E5.00901
G1 X239.297 Y38.838 E5.02323
G1 X247.662 Y47.203 E5.30539
G1 X247.662 Y47.800 E5.31961
G1 X238.700 Y38.838 E5.62188
G1 X238.104 Y38.838 E5.63609
G1 X247.662 Y48.396 E5.95847
G1 X247.662 Y48.992 E5.97269
G1 X237.508 Y38.838 E6.31517
G1 X236.912 Y38.838 E6.32939
G1 X247.662 Y49.588 E6.69197
G1 X247.662 Y50.184 E6.70619
G1 X236.316 Y38.838 E7.08889
G1 X235.720 Y38.838 E7.10310
G1 X247.662 Y50.780 E7.50591
G1 X247.662 Y51.376 E7.52012
G1 X235.124 Y38.838 E7.94303
G1 X234.528 Y38.838 E7.95725
G1 X247.662 Y51.972 E8.40027
G1 X247.662 Y52.568 E8.41448
G1 X233.932 Y38.838 E8.87760
G1 X233.336 Y38.838 E8.89182
G1 X247.662 Y53.164 E9.37505
G1 X247.662 Y53.760 E9.38927
G1 X232.740 Y38.838 E9.89260
G1 X232.144 Y38.838 E9.90682
G1 X247.662 Y54.356 E10.43026
G1 X247.662 Y54.953 E10.44448
G1 X231.547 Y38.838 E10.98803
G1 X230.951 Y38.838 E11.00225
G1 X247.662 Y55.549 E11.56590
G1 X247.662 Y56.145 E11.58012
G1 X230.355 Y38.838 E12.16388
G1 X229.759 Y38.838 E12.17810
G1 X247.662 Y56.741 E12.78197
G1 X247.662 Y57.337 E12.79618
G1 X229.163 Y38.838 E13.42016
G1 X228.567 Y38.838 E13.43438
G1 X247.662 Y57.933 E14.07846
G1 X247.662 Y58.529 E14.09268
G1 X227.971 Y38.838 E14.75686
G1 X227.375 Y38.838 E14.77108
G1 X247.662 Y59.125 E15.45538
G1 X247.662 Y59.721 E15.46959
G1 X226.779 Y38.838 E16.17399
G1 X226.183 Y38.838 E16.18821
G1 X247.662 Y60.317 E16.91272
G1 X247.662 Y60.913 E16.92694
G1 X225.587 Y38.838 E17.67155
G1 X224.991 Y38.838 E17.68577
G1 X247.662 Y61.509 E18.45049
G1 X247.662 Y62.105 E18.46471
G1 X224.395 Y38.838 E19.24954
G1 X223.798 Y38.838 E19.26376
G1 X247.662 Y62.702 E20.06869
G1 X247.662 Y63.298 E20.08291
G1 X223.202 Y38.838 E20.90795
G1 X222.606 Y38.838 E20.92217
G1 X247.662 Y63.894 E21.76732
G1 X247.662 Y64.490 E21.78153
G1 X222.010 Y38.838 E22.64679
G1 X221.414 Y38.838 E22.66101
G1 X247.662 Y65.086 E23.54637
G1 X247.662 Y65.682 E23.56058
G1 X220.818 Y38.838 E24.46605
G1 X220.222 Y38.838 E24.48027
G1 X247.662 Y66.278 E25.40584
G1 X247.662 Y66.874 E25.42006
G1 X219.626 Y38.838 E26.36574
G1 X219.030 Y38.838 E26.37996
G1 X247.662 Y67.470 E27.34575
G1 X247.662 Y68.066 E27.35997
G1 X218.434 Y38.838 E28.34586
G1 X217.838 Y38.838 E28.36008
G1 X247.662 Y68.662 E29.36608
G1 X247.662 Y69.258 E29.38030
G1 X217.242 Y38.838 E30.40641
G1 X216.645 Y38.838 E30.42062
G1 X247.662 Y69.855 E31.46684
G1 X247.662 Y70.451 E31.48106
G1 X216.049 Y38.838 E32.54738
G1 X215.453 Y38.838 E32.56159
G1 X247.662 Y71.047 E33.64802
G1 X247.662 Y71.643 E33.66224
G1 X214.857 Y38.838 E34.76877
G1 X214.261 Y38.838 E34.78299
G1 X247.662 Y72.239 E35.90963
G1 X247.662 Y72.835 E35.92385
G1 X213.665 Y38.838 E37.07060
G1 X213.069 Y38.838 E37.08482
G1 X247.662 Y73.431 E38.25167
G1 X247.662 Y74.027 E38.26589
G1 X212.473 Y38.838 E39.45285
G1 X211.877 Y38.838 E39.46707
G1 X247.662 Y74.623 E40.67413
G1 X247.662 Y75.219 E40.68835
G1 X211.281 Y38.838 E41.91553
G1 X210.685 Y38.838 E41.92974
G1 X247.662 Y75.815 E43.17703
G1 X247.662 Y76.411 E43.19124
G1 X210.089 Y38.838 E44.45863
G1 X209.492 Y38.838 E44.47285
G1 X247.662 Y77.008 E45.76034
G1 X247.662 Y77.604 E45.77456
G1 X208.896 Y38.838 E47.08216
G1 X208.300 Y38.838 E47.09638
G1 X247.662 Y78.200 E48.42409
G1 X247.662 Y78.796 E48.43830
G1 X207.704 Y38.838 E49.78612
G1 X207.108 Y38.838 E49.80034
G1 X247.662 Y79.392 E51.16826
G1 X247.662 Y79.988 E51.18247
G1 X206.512 Y38.838 E52.57050
G1 X205.916 Y38.838 E52.58472
G1 X247.662 Y80.584 E53.99285
G1 X247.662 Y81.180 E54.00707
G1 X205.320 Y38.838 E55.43531
G1 X204.724 Y38.838 E55.44953
G1 X247.662 Y81.776 E56.89788
G1 X247.662 Y82.372 E56.91210
G1 X204.128 Y38.838 E58.38055
G1 X203.532 Y38.838 E58.39477
G1 X247.662 Y82.968 E59.88333
G1 X247.662 Y83.564 E59.89755
G1 X202.936 Y38.838 E61.40621
G1 X202.339 Y38.838 E61.42043
G1 X247.662 Y84.161 E62.94921
G1 X247.662 Y84.757 E62.96342
G1 X201.743 Y38.838 E64.51230
G1 X201.147 Y38.838 E64.52652
G1 X247.662 Y85.353 E66.09551
G1 X247.662 Y85.949 E66.10973
G1 X200.551 Y38.838 E67.69882
G1 X199.955 Y38.838 E67.71304
G1 X247.662 Y86.545 E69.32224
G1 X247.662 Y87.141 E69.33646
G1 X199.359 Y38.838 E70.96576
G1 X198.763 Y38.838 E70.97998
G1 X247.662 Y87.737 E72.62940
G1 X247.662 Y88.333 E72.64361
G1 X198.167 Y38.838 E74.31313
G1 X197.571 Y38.838 E74.32735
G1 X247.662 Y88.929 E76.01698
G1 X247.662 Y89.525 E76.03120
G1 X196.975 Y38.838 E77.74093
G1 X196.379 Y38.838 E77.75515
G1 X247.662 Y90.121 E79.48499
G1 X247.662 Y90.717 E79.49921
G1 X195.783 Y38.838 E81.24915
G1 X195.186 Y38.838 E81.26337
G1 X247.662 Y91.314 E83.03343
G1 X247.662 Y91.910 E83.04764
G1 X194.590 Y38.838 E84.83780
G1 X193.994 Y38.838 E84.85202
G1 X247.662 Y92.506 E86.66229
G1 X247.662 Y93.102 E86.67651
G1 X193.398 Y38.838 E88.50688
G1 X192.802 Y38.838 E88.52110
G1 X247.662 Y93.698 E90.37158
G1 X247.662 Y94.294 E90.38580
G1 X192.206 Y38.838 E92.25638
G1 X191.610 Y38.838 E92.27060
G1 X247.662 Y94.890 E94.16129
G1 X247.662 Y95.486 E94.17551
G1 X191.014 Y38.838 E96.08631
G1 X190.418 Y38.838 E96.10053
G1 X247.662 Y96.082 E98.03144
G1 X247.662 Y96.678 E98.04566
G1 X189.822 Y38.838 E99.99667
G1 X189.226 Y38.838 E100.01089
G1 X247.662 Y97.274 E101.98201
G1 X247.662 Y97.870 E101.99622
G1 X188.630 Y38.838 E103.98745
G1 X188.034 Y38.838 E104.00167
G1 X247.662 Y98.466 E106.01300
G1 X247.662 Y99.063 E106.02722
G1 X187.437 Y38.838 E108.05866
G1 X186.841 Y38.838 E108.07288
G1 X247.662 Y99.659 E110.12443
G1 X247.662 Y100.255 E110.13864
G1 X186.245 Y38.838 E112.21030
G1 X185.649 Y38.838 E112.22451
G1 X247.662 Y100.851 E114.31628
G1 X247.662 Y101.447 E114.33049
G1 X185.053 Y38.838 E116.44236
G1 X184.457 Y38.838 E116.45658
G1 X247.662 Y102.043 E118.58855
G1 X247.662 Y102.639 E118.60277
G1 X183.861 Y38.838 E120.75485
G1 X183.265 Y38.838 E120.76907
G1 X247.662 Y103.235 E122.94125
G1 X247.662 Y103.831 E122.95547
G1 X182.669 Y38.838 E125.14777
G1 X182.073 Y38.838 E125.16198
G1 X247.662 Y104.427 E127.37438
G1 X247.662 Y105.023 E127.38860
G1 X181.477 Y38.838 E129.62111
G1 X180.881 Y38.838 E129.63533
G1 X247.662 Y105.619 E131.88794
G1 X247.662 Y106.216 E131.90216
G1 X180.284 Y38.838 E134.17488
G1 X179.688 Y38.838 E134.18909
G1 X247.662 Y106.812 E136.48192
G1 X247.662 Y107.408 E136.49614
G1 X179.092 Y38.838 E138.80907
G1 X178.496 Y38.838 E138.82329
G1 X247.662 Y108.004 E141.15633
G1 X247.662 Y108.600 E141.17055
G1 X177.900 Y38.838 E143.52369
G1 X177.304 Y38.838 E143.53791
G1 X247.662 Y109.196 E145.91117
G1 X247.662 Y109.792 E145.92538
G1 X176.708 Y38.838 E148.31874
G1 X176.112 Y38.838 E148.33296
G1 X247.662 Y110.388 E150.74643
G1 X247.662 Y110.984 E150.76065
G1 X175.516 Y38.838 E153.19422
G1 X174.920 Y38.838 E153.20844
G1 X247.662 Y111.580 E155.66212
G1 X247.662 Y112.176 E155.67633
G1 X174.324 Y38.838 E158.15012
G1 X173.728 Y38.838 E158.16434
G1 X247.662 Y112.772 E160.65823
G1 X247.662 Y113.369 E160.67245
G1 X173.131 Y38.838 E163.18645
G1 X172.535 Y38.838 E163.20067
G1 X247.662 Y113.965 E165.73477
G1 X247.662 Y114.561 E165.74899
G1 X171.939 Y38.838 E168.30320
G1 X171.343 Y38.838 E168.31742
G1 X247.662 Y115.157 E170.89174
G1 X247.662 Y115.753 E170.90596
G1 X170.747 Y38.838 E173.50039
G1 X170.151 Y38.838 E173.51460
G1 X247.662 Y116.349 E176.12914
G1 X247.662 Y116.945 E176.14336
G1 X169.555 Y38.838 E178.77800
G1 X168.959 Y38.838 E178.79221
G1 X247.662 Y117.541 E181.44696
G1 X247.662 Y118.137 E181.46118
G1 X168.363 Y38.838 E184.13603
G1 X167.767 Y38.838 E184.15025
G1 X247.662 Y118.733 E186.84521
G1 X247.662 Y119.329 E186.85943
G1 X167.171 Y38.838 E189.57449
G1 X166.575 Y38.838 E189.58871
G1 X247.662 Y119.925 E192.32388
G1 X247.662 Y120.522 E192.33810
G1 X165.978 Y38.838 E195.09338
G1 X165.382 Y38.838 E195.10760
G1 X247.662 Y121.118 E197.88298
G1 X247.662 Y121.714 E197.89720
G1 X164.786 Y38.838 E200.69269
G1 X164.190 Y38.838 E200.70691
G1 X247.662 Y122.310 E203.52251
G1 X247.662 Y122.906 E203.53673
G1 X163.594 Y38.838 E206.37244
G1 X162.998 Y38.838 E206.38665
G1 X247.662 Y123.502 E209.24247
G1 X247.662 Y124.098 E209.25668
G1 X162.402 Y38.838 E212.13260
G1 X161.806 Y38.838 E212.14682
G1 X247.662 Y124.694 E215.04285
G1 X247.662 Y125.290 E215.05707
G1 X161.210 Y38.838 E217.97320
G1 X160.614 Y38.838 E217.98742
G1 X247.662 Y125.886 E220.92366
G1 X247.662 Y126.482 E220.93787
G1 X160.018 Y38.838 E223.89422
G1 X159.422 Y38.838 E223.90844
G1 X247.662 Y127.078 E226.88489
G1 X247.662 Y127.675 E226.89911
G1 X158.825 Y38.838 E229.89567
G1 X158.229 Y38.838 E229.90989
G1 X247.662 Y128.271 E232.92655
G1 X247.662 Y128.867 E232.94077
G1 X157.633 Y38.838 E235.97754
G1 X157.037 Y38.838 E235.99176
G1 X247.662 Y129.463 E239.04864
G1 X247.662 Y130.059 E239.06286
G1 X156.441 Y38.838 E242.13984
G1 X155.845 Y38.838 E242.15406
G1 X247.662 Y130.655 E245.25115
G1 X247.662 Y131.251 E245.26537
G1 X155.249 Y38.838 E248.38257
G1 X154.653 Y38.838 E248.39679
G1 X247.662 Y131.847 E251.53410
G1 X247.662 Y132.443 E251.54831
G1 X154.057 Y38.838 E254.70573
G1 X153.461 Y38.838 E254.71994
G1 X247.662 Y133.039 E257.89746
G1 X247.662 Y133.635 E257.91168
G1 X152.865 Y38.838 E261.10931
G1 X152.269 Y38.838 E261.12352
G1 X247.662 Y134.231 E264.34126
G1 X247.662 Y134.827 E264.35547
G1 X151.672 Y38.838 E267.59331
G1 X151.076 Y38.838 E267.60753
G1 X247.662 Y135.424 E270.86548
G1 X247.662 Y136.020 E270.87970
G1 X150.480 Y38.838 E274.15775
G1 X149.884 Y38.838 E274.17197
G1 X247.662 Y136.616 E277.47013
G1 X247.662 Y137.212 E277.48434
G1 X149.288 Y38.838 E280.80261
G1 X148.692 Y38.838 E280.81683
G1 X247.662 Y137.808 E284.15520
G1 X247.662 Y138.404 E284.16942
G1 X148.096 Y38.838 E287.52790
G1 X147.500 Y38.838 E287.54211
G1 X247.662 Y139.000 E290.92070
G1 X247.662 Y139.596 E290.93492
G1 X146.904 Y38.838 E294.33361
G1 X146.308 Y38.838 E294.34783
G1 X247.662 Y140.192 E297.76663
G1 X247.662 Y140.788 E297.78084
G1 X145.712 Y38.838 E301.21975
G1 X145.116 Y38.838 E301.23397
G1 X247.662 Y141.384 E304.69298
G1 X247.662 Y141.980 E304.70720
G1 X144.520 Y38.838 E308.18632
G1 X143.923 Y38.838 E308.20054
G1 X247.662 Y142.577 E311.69976
G1 X247.662 Y143.173 E311.71398
G1 X143.327 Y38.838 E315.23331
G1 X142.731 Y38.838 E315.24753
G1 X247.662 Y143.769 E318.78697
G1 X247.662 Y144.365 E318.80119
G1 X142.135 Y38.838 E322.36073
G1 X141.539 Y38.838 E322.37495
G1 X247.662 Y144.961 E325.95460
G1 X247.662 Y145.557 E325.96882
G1 X140.943 Y38.838 E329.56858
G1 X140.347 Y38.838 E329.58280
G1 X247.662 Y146.153 E333.20266
G1 X247.662 Y146.749 E333.21688
G1 X139.751 Y38.838 E336.85685
G1 X139.155 Y38.838 E336.87107
G1 X247.662 Y147.345 E340.53115
G1 X247.662 Y147.941 E340.54537
G1 X138.559 Y38.838 E344.22555
G1 X137.963 Y38.838 E344.23977
G1 X247.662 Y148.537 E347.94006
G1 X247.662 Y149.133 E347.95428
G1 X137.367 Y38.838 E351.67468
G1 X136.770 Y38.838 E351.68890
