; generated by Slic3r 1.0.0RC3 on 2014-03-25 at 07:33:50

; layer_height = 0.4
; perimeters = 3
; top_solid_layers = 3
; bottom_solid_layers = 3
; fill_density = .35
; perimeter_speed = 30
; infill_speed = 30
; travel_speed = 200
; nozzle_diameter = 0.5
; filament_diameter = 2.89
; extrusion_multiplier = 1.0
; perimeters extrusion width = 0.50mm
; infill extrusion width = 0.53mm
; solid infill extrusion width = 0.53mm
; top infill extrusion width = 0.53mm
; first layer extrusion width = 0.40mm

G21 ; set units to millimeters
M107
G28 ; home all axes
G90 ; use absolute coordinates
G92 E0
M82 ; use absolute distances for extrusion
G1 F1200.000 E-3.00000
G1 Z2.400 F12000.000
G92 E0
G1 X62.762 Y27.772 F12000.000
G1 Z0.400 F12000.000
G1 E3.00000 F1200.000
G1 X227.652 Y32.732 E7.23957 F1800
G1 X229.732 Y32.812 E7.29306
G1 X231.292 Y32.972 E7.33337
G1 X233.262 Y33.282 E7.38462
G1 X233.762 Y33.382 E7.39772
G1 X235.702 Y33.852 E7.44902
G1 X237.732 Y34.472 E7.50357
G1 X239.202 Y35.032 E7.54400
G1 X241.052 Y35.862 E7.59611
G1 X241.472 Y36.072 E7.60818
G1 X243.272 Y37.052 E7.66085
G1 X244.602 Y37.882 E7.70114
G1 X244.962 Y38.122 E7.71226
G1 X246.642 Y39.332 E7.76547
G1 X247.862 Y40.332 E7.80601
G1 X249.362 Y41.722 E7.85857
G1 X249.712 Y42.072 E7.87129
G1 X251.062 Y43.542 E7.92258
G1 X252.062 Y44.752 E7.96292
G1 X252.362 Y45.142 E7.97557
G1 X253.282 Y46.422 E8.01608
G1 X254.372 Y48.142 E8.06841
G1 X254.622 Y48.582 E8.08142
G1 X255.582 Y50.412 E8.13453
G1 X256.382 Y52.222 E8.18538
G1 X256.942 Y53.692 E8.22581
G1 X257.112 Y54.192 E8.23938
G1 X257.562 Y55.692 E8.27963
G1 X258.032 Y57.652 E8.33143
G1 X258.382 Y59.662 E8.38386
G1 X258.452 Y60.162 E8.39684
G1 X258.632 Y62.192 E8.44922
G1 X258.682 Y63.762 E8.48958
G1 X258.682 Y216.222 E12.40779
G1 X258.602 Y218.262 E12.46026
G1 X258.452 Y219.822 E12.50053
G1 X258.382 Y220.322 E12.51351
G1 X258.032 Y222.332 E12.56594
G1 X257.562 Y224.272 E12.61724
G1 X256.942 Y226.302 E12.67179
G1 X256.382 Y227.772 E12.71222
G1 X255.582 Y229.582 E12.76308
G1 X255.352 Y230.042 E12.77629
G1 X254.372 Y231.842 E12.82896
G1 X253.282 Y233.562 E12.88130
G1 X252.082 Y235.212 E12.93373
G1 X251.082 Y236.432 E12.97427
G1 X249.692 Y237.932 E13.02683
G1 X248.252 Y239.312 E13.07809
G1 X247.832 Y239.682 E13.09247
G1 X246.272 Y240.932 E13.14385
G1 X244.992 Y241.852 E13.18436
G1 X243.272 Y242.942 E13.23669
G1 X241.472 Y243.922 E13.28936
G1 X241.012 Y244.152 E13.30258
G1 X239.202 Y244.952 E13.35344
G1 X237.732 Y245.512 E13.39386
G1 X237.212 Y245.682 E13.40792
G1 X235.292 Y246.242 E13.45932
G1 X233.762 Y246.602 E13.49972
G1 X231.752 Y246.952 E13.55215
G1 X231.252 Y247.022 E13.56513
G1 X229.222 Y247.202 E13.61750
G1 X227.652 Y247.252 E13.65787
G1 X75.192 Y247.252 E17.57608
G1 X73.152 Y247.172 E17.62854
G1 X71.592 Y247.022 E17.66882
G1 X71.092 Y246.952 E17.68180
G1 X69.082 Y246.602 E17.73423
G1 X67.122 Y246.132 E17.78603
G1 X65.622 Y245.682 E17.82628
G1 X65.122 Y245.512 E17.83985
G1 X63.652 Y244.952 E17.88028
G1 X61.842 Y244.152 E17.93113
G1 X60.012 Y243.192 E17.98424
G1 X59.572 Y242.942 E17.99725
G1 X57.852 Y241.852 E18.04958
G1 X56.572 Y240.932 E18.09009
G1 X55.002 Y239.662 E18.14199
G1 X54.632 Y239.342 E18.15456
G1 X53.152 Y237.932 E18.20710
G1 X51.762 Y236.432 E18.25965
G1 X50.762 Y235.212 E18.30019
G1 X50.462 Y234.812 E18.31304
G1 X49.552 Y233.532 E18.35340
G1 X48.482 Y231.842 E18.40481
G1 X47.502 Y230.042 E18.45748
G1 X47.292 Y229.622 E18.46955
G1 X46.462 Y227.772 E18.52166
G1 X45.902 Y226.302 E18.56209
G1 X45.732 Y225.782 E18.57615
G1 X45.172 Y223.862 E18.62755
G1 X44.812 Y222.332 E18.66794
G1 X44.712 Y221.832 E18.68105
G1 X44.402 Y219.862 E18.73230
G1 X44.242 Y218.302 E18.77260
G1 X44.162 Y216.222 E18.82610
G1 X39.312 Y50.212 E23.09435
G1 X39.312 Y49.702 E23.10746
G1 X39.362 Y48.472 E23.13910
G1 X39.412 Y47.882 E23.15431
G1 X39.562 Y46.662 E23.18590
G1 X39.662 Y46.072 E23.20128
G1 X39.912 Y44.872 E23.23279
G1 X40.042 Y44.342 E23.24681
G1 X40.382 Y43.162 E23.27837
G1 X40.602 Y42.522 E23.29576
G1 X41.262 Y40.872 E23.34143
G1 X41.772 Y39.812 E23.37166
G1 X42.682 Y38.212 E23.41897
G1 X43.022 Y37.682 E23.43515
G1 X43.732 Y36.672 E23.46688
G1 X44.112 Y36.182 E23.48282
G1 X45.292 Y34.802 E23.52948
G1 X46.152 Y33.932 E23.56092
G1 X46.582 Y33.532 E23.57601
G1 X47.512 Y32.732 E23.60754
G1 X47.972 Y32.372 E23.62255
G1 X48.972 Y31.642 E23.65437
G1 X49.472 Y31.312 E23.66977
G1 X51.032 Y30.382 E23.71644
G1 X52.122 Y29.832 E23.74782
G1 X52.672 Y29.582 E23.76335
G1 X53.812 Y29.122 E23.79494
G1 X54.412 Y28.912 E23.81128
G1 X55.592 Y28.552 E23.84298
G1 X56.122 Y28.412 E23.85707
G1 X57.322 Y28.142 E23.88868
G1 X57.902 Y28.042 E23.90381
G1 X59.112 Y27.872 E23.93521
G1 X59.752 Y27.802 E23.95176
G1 X60.932 Y27.742 E23.98212
G1 X62.699 Y27.770 E24.02753
G1 X62.752 Y28.192 F12000.000
G1 X227.642 Y33.152 E28.26710 F1800
G1 X229.692 Y33.232 E28.31983
G1 X231.642 Y33.442 E28.37023
G1 X233.192 Y33.692 E28.41058
G1 X235.582 Y34.252 E28.47367
G1 X237.092 Y34.702 E28.51416
G1 X237.582 Y34.872 E28.52749
G1 X239.442 Y35.592 E28.57875
G1 X240.872 Y36.242 E28.61912
G1 X243.042 Y37.402 E28.68235
G1 X244.372 Y38.232 E28.72264
G1 X245.992 Y39.372 E28.77355
G1 X246.372 Y39.662 E28.78584
G1 X247.592 Y40.662 E28.82638
G1 X247.932 Y40.962 E28.83803
G1 X249.402 Y42.362 E28.89020
G1 X250.472 Y43.512 E28.93057
G1 X252.022 Y45.392 E28.99319
G1 X253.192 Y47.042 E29.04518
G1 X254.022 Y48.372 E29.08547
G1 X254.252 Y48.772 E29.09732
G1 X255.202 Y50.582 E29.14986
G1 X255.842 Y52.012 E29.19012
G1 X256.542 Y53.842 E29.24048
G1 X256.702 Y54.312 E29.25324
G1 X257.262 Y56.212 E29.30414
G1 X257.622 Y57.742 E29.34454
G1 X257.972 Y59.732 E29.39647
G1 X258.032 Y60.212 E29.40890
G1 X258.212 Y62.202 E29.46025
G1 X258.262 Y63.772 E29.50062
G1 X258.262 Y216.212 E33.41831
G1 X258.212 Y217.782 E33.45868
G1 X258.032 Y219.772 E33.51003
G1 X257.972 Y220.252 E33.52246
G1 X257.622 Y222.242 E33.57439
G1 X257.162 Y224.152 E33.62488
G1 X256.712 Y225.662 E33.66537
G1 X256.542 Y226.152 E33.67870
G1 X255.842 Y227.982 E33.72905
G1 X255.202 Y229.412 E33.76932
G1 X254.022 Y231.612 E33.83348
G1 X253.192 Y232.942 E33.87377
G1 X252.022 Y234.592 E33.92575
G1 X250.752 Y236.162 E33.97765
G1 X250.452 Y236.502 E33.98930
G1 X249.102 Y237.932 E34.03984
G1 X247.962 Y239.012 E34.08020
G1 X246.022 Y240.592 E34.14450
G1 X244.372 Y241.762 E34.19648
G1 X243.042 Y242.592 E34.23678
G1 X241.272 Y243.552 E34.28852
G1 X240.842 Y243.772 E34.30094
G1 X239.412 Y244.412 E34.34120
G1 X237.582 Y245.112 E34.39156
G1 X237.092 Y245.282 E34.40488
G1 X235.582 Y245.732 E34.44538
G1 X233.672 Y246.192 E34.49587
G1 X231.682 Y246.542 E34.54780
G1 X231.202 Y246.602 E34.56023
G1 X229.212 Y246.782 E34.61158
G1 X227.642 Y246.832 E34.65195
G1 X75.202 Y246.832 E38.56964
G1 X73.632 Y246.782 E38.61001
G1 X71.642 Y246.602 E38.66136
G1 X71.162 Y246.542 E38.67379
G1 X69.172 Y246.192 E38.72572
G1 X67.642 Y245.832 E38.76611
G1 X65.742 Y245.272 E38.81702
G1 X65.272 Y245.112 E38.82978
G1 X63.442 Y244.412 E38.88013
G1 X62.012 Y243.772 E38.92040
G1 X60.202 Y242.822 E38.97293
G1 X59.802 Y242.592 E38.98479
G1 X58.472 Y241.762 E39.02508
G1 X58.102 Y241.512 E39.03656
G1 X56.482 Y240.332 E39.08806
G1 X55.272 Y239.342 E39.12824
G1 X53.772 Y237.952 E39.18080
G1 X52.392 Y236.502 E39.23224
G1 X52.092 Y236.162 E39.24390
G1 X51.092 Y234.942 E39.28444
G1 X50.802 Y234.562 E39.29672
G1 X49.662 Y232.942 E39.34763
G1 X48.832 Y231.612 E39.38792
G1 X47.872 Y229.842 E39.43967
G1 X47.672 Y229.442 E39.45116
G1 X47.022 Y228.012 E39.49153
G1 X46.302 Y226.152 E39.54279
G1 X46.132 Y225.662 E39.55612
G1 X45.582 Y223.772 E39.60671
G1 X45.122 Y221.762 E39.65970
G1 X44.872 Y220.212 E39.70005
G1 X44.662 Y218.262 E39.75045
G1 X44.582 Y216.212 E39.80318
G1 X39.732 Y50.202 E44.07144
G1 X39.732 Y49.722 E44.08377
G1 X39.782 Y48.492 E44.11541
G1 X39.832 Y47.932 E44.12986
G1 X39.982 Y46.712 E44.16145
G1 X40.072 Y46.152 E44.17602
G1 X40.442 Y44.462 E44.22049
G1 X40.782 Y43.282 E44.25205
G1 X40.992 Y42.682 E44.26838
G1 X41.642 Y41.052 E44.31348
G1 X42.152 Y39.992 E44.34371
G1 X43.052 Y38.422 E44.39022
G1 X43.362 Y37.922 E44.40534
G1 X44.072 Y36.912 E44.43707
G1 X44.432 Y36.452 E44.45208
G1 X45.222 Y35.512 E44.48364
G1 X45.592 Y35.102 E44.49783
G1 X46.452 Y34.232 E44.52927
G1 X46.862 Y33.852 E44.54364
G1 X47.792 Y33.052 E44.57516
G1 X48.222 Y32.712 E44.58925
G1 X49.222 Y31.982 E44.62107
G1 X49.692 Y31.672 E44.63554
G1 X50.742 Y31.032 E44.66714
G1 X51.222 Y30.762 E44.68130
G1 X52.312 Y30.212 E44.71267
G1 X52.832 Y29.972 E44.72739
G1 X53.972 Y29.512 E44.75898
G1 X54.532 Y29.312 E44.77427
G1 X55.712 Y28.952 E44.80597
G1 X57.412 Y28.552 E44.85086
G1 X57.962 Y28.452 E44.86522
G1 X59.172 Y28.282 E44.89662
G1 X59.772 Y28.232 E44.91210
G1 X61.302 Y28.162 E44.95146
G1 X62.689 Y28.190 E44.98711
G1 X62.742 Y28.612 F12000.000
G1 X227.622 Y33.572 E49.22642 F1800
G1 X229.652 Y33.652 E49.27863
G1 X231.212 Y33.812 E49.31893
G1 X233.122 Y34.112 E49.36862
G1 X235.102 Y34.562 E49.42080
G1 X237.432 Y35.262 E49.48333
G1 X239.272 Y35.972 E49.53402
G1 X240.702 Y36.622 E49.57439
G1 X242.822 Y37.762 E49.63625
G1 X244.152 Y38.592 E49.67654
G1 X246.102 Y39.982 E49.73808
G1 X247.322 Y40.982 E49.77862
G1 X248.782 Y42.342 E49.82990
G1 X249.092 Y42.652 E49.84117
G1 X250.412 Y44.082 E49.89118
G1 X251.412 Y45.292 E49.93152
G1 X251.672 Y45.632 E49.94252
G1 X252.832 Y47.262 E49.99394
G1 X253.662 Y48.592 E50.03423
G1 X254.622 Y50.362 E50.08598
G1 X255.592 Y52.522 E50.14683
G1 X256.152 Y53.992 E50.18726
G1 X256.302 Y54.432 E50.19921
G1 X256.752 Y55.932 E50.23945
G1 X257.212 Y57.842 E50.28994
G1 X257.552 Y59.802 E50.34107
G1 X257.612 Y60.252 E50.35273
G1 X257.792 Y62.222 E50.40357
G1 X257.842 Y63.792 E50.44394
G1 X257.842 Y216.192 E54.36060
G1 X257.792 Y217.762 E54.40097
G1 X257.612 Y219.732 E54.45181
G1 X257.552 Y220.182 E54.46348
G1 X257.212 Y222.142 E54.51460
G1 X256.852 Y223.672 E54.55500
G1 X256.152 Y226.002 E54.61752
G1 X255.592 Y227.472 E54.65795
G1 X254.812 Y229.232 E54.70743
G1 X254.612 Y229.642 E54.71915
G1 X253.662 Y231.392 E54.77032
G1 X252.832 Y232.722 E54.81061
G1 X251.432 Y234.672 E54.87231
G1 X250.432 Y235.892 E54.91285
G1 X249.072 Y237.352 E54.96413
G1 X248.812 Y237.622 E54.97376
G1 X247.302 Y239.032 E55.02686
G1 X246.082 Y240.022 E55.06723
G1 X244.502 Y241.162 E55.11731
G1 X244.152 Y241.402 E55.12821
G1 X242.822 Y242.232 E55.16850
G1 X241.072 Y243.182 E55.21968
G1 X240.662 Y243.382 E55.23140
G1 X238.902 Y244.162 E55.28088
G1 X237.432 Y244.722 E55.32130
G1 X236.972 Y244.872 E55.33374
G1 X235.102 Y245.422 E55.38383
G1 X233.572 Y245.782 E55.42423
G1 X231.612 Y246.122 E55.47535
G1 X231.162 Y246.182 E55.48702
G1 X229.192 Y246.362 E55.53786
G1 X227.622 Y246.412 E55.57823
G1 X75.222 Y246.412 E59.49489
G1 X73.652 Y246.362 E59.53526
G1 X71.682 Y246.182 E59.58610
G1 X71.232 Y246.122 E59.59776
G1 X69.272 Y245.782 E59.64889
G1 X67.362 Y245.322 E59.69938
G1 X65.862 Y244.872 E59.73962
G1 X65.422 Y244.722 E59.75157
G1 X63.952 Y244.162 E59.79200
G1 X62.192 Y243.382 E59.84147
G1 X61.792 Y243.192 E59.85285
G1 X60.022 Y242.232 E59.90460
G1 X58.692 Y241.402 E59.94489
G1 X56.742 Y240.002 E60.00659
G1 X55.532 Y239.012 E60.04677
G1 X54.052 Y237.642 E60.09860
G1 X52.412 Y235.892 E60.16023
G1 X51.412 Y234.672 E60.20077
G1 X51.152 Y234.322 E60.21198
G1 X50.022 Y232.722 E60.26232
G1 X49.192 Y231.392 E60.30261
G1 X48.052 Y229.272 E60.36447
G1 X47.402 Y227.842 E60.40484
G1 X46.692 Y226.002 E60.45553
G1 X46.542 Y225.542 E60.46796
G1 X45.992 Y223.672 E60.51806
G1 X45.632 Y222.142 E60.55845
G1 X45.542 Y221.692 E60.57025
G1 X45.242 Y219.782 E60.61993
G1 X45.082 Y218.222 E60.66024
G1 X45.052 Y217.762 E60.67208
G1 X40.152 Y50.192 E64.98045
G1 X40.152 Y49.742 E64.99202
G1 X40.202 Y48.512 E65.02365
G1 X40.402 Y46.772 E65.06867
G1 X40.482 Y46.242 E65.08244
G1 X40.732 Y45.042 E65.11394
G1 X40.852 Y44.572 E65.12641
G1 X41.192 Y43.392 E65.15797
G1 X41.382 Y42.832 E65.17317
G1 X42.022 Y41.242 E65.21722
G1 X42.532 Y40.182 E65.24745
G1 X42.772 Y39.732 E65.26055
G1 X43.412 Y38.632 E65.29326
G1 X43.712 Y38.172 E65.30737
G1 X44.752 Y36.722 E65.35323
G1 X45.542 Y35.782 E65.38479
G1 X45.892 Y35.402 E65.39807
G1 X47.132 Y34.172 E65.44295
G1 X48.062 Y33.372 E65.47448
G1 X48.462 Y33.052 E65.48765
G1 X49.462 Y32.322 E65.51946
G1 X50.962 Y31.392 E65.56482
G1 X51.412 Y31.142 E65.57805
G1 X52.502 Y30.592 E65.60943
G1 X52.992 Y30.372 E65.62323
G1 X54.132 Y29.912 E65.65483
G1 X54.662 Y29.722 E65.66930
G1 X55.842 Y29.362 E65.70100
G1 X57.502 Y28.972 E65.74482
G1 X58.022 Y28.872 E65.75843
G1 X59.232 Y28.702 E65.78984
G1 X59.792 Y28.652 E65.80429
G1 X61.302 Y28.582 E65.84313
G1 X62.679 Y28.610 E65.87852
G1 F1200.000 E62.87852
G1 Z2.400 F12000.000
G92 E0
G1 X61.666 Y40.963 F12000.000
G1 Z0.400 F12000.000
G1 E3.00000 F1200.000
G1 X62.585 Y41.014 E3.02364 F1800
G1 X63.585 Y41.184 E3.04971
G1 X64.559 Y41.465 E3.07577
G1 X65.496 Y41.853 E3.10184
G1 X66.461 Y42.398 E3.13032
G1 X67.211 Y42.931 E3.15396
G1 X67.968 Y43.607 E3.18002
G1 X68.643 Y44.363 E3.20609
G1 X69.230 Y45.190 E3.23216
G1 X69.721 Y46.078 E3.25822
G1 X70.109 Y47.015 E3.28429
G1 X70.390 Y47.989 E3.31036
G1 X70.560 Y48.989 E3.33642
G1 X70.617 Y50.002 E3.36249
G1 X70.560 Y51.015 E3.38856
G1 X70.390 Y52.015 E3.41462
G1 X70.109 Y52.989 E3.44069
G1 X69.721 Y53.926 E3.46676
G1 X69.230 Y54.814 E3.49282
G1 X68.643 Y55.641 E3.51889
G1 X67.968 Y56.398 E3.54496
G1 X67.211 Y57.073 E3.57102
G1 X66.384 Y57.660 E3.59709
G1 X65.496 Y58.151 E3.62315
G1 X64.559 Y58.539 E3.64922
G1 X63.585 Y58.820 E3.67529
G1 X62.585 Y58.990 E3.70135
G1 X61.572 Y59.047 E3.72742
G1 X60.559 Y58.990 E3.75349
G1 X59.559 Y58.820 E3.77955
G1 X58.498 Y58.503 E3.80803
G1 X57.648 Y58.151 E3.83167
G1 X56.760 Y57.660 E3.85774
G1 X55.933 Y57.073 E3.88381
G1 X55.177 Y56.398 E3.90987
G1 X54.501 Y55.641 E3.93594
G1 X53.914 Y54.814 E3.96201
G1 X53.423 Y53.926 E3.98807
G1 X53.035 Y52.989 E4.01414
G1 X52.754 Y52.015 E4.04020
G1 X52.584 Y51.015 E4.06627
G1 X52.528 Y50.002 E4.09234
G1 X52.600 Y48.896 E4.12082
G1 X52.754 Y47.989 E4.14446
G1 X53.035 Y47.015 E4.17052
G1 X53.423 Y46.078 E4.19659
G1 X53.914 Y45.190 E4.22266
G1 X54.501 Y44.363 E4.24872
G1 X55.177 Y43.607 E4.27479
G1 X55.933 Y42.931 E4.30086
G1 X56.760 Y42.344 E4.32692
G1 X57.648 Y41.853 E4.35299
G1 X58.585 Y41.465 E4.37905
G1 X59.559 Y41.184 E4.40512
G1 X60.559 Y41.014 E4.43119
G1 X61.603 Y40.959 E4.45805
G1 X61.572 Y41.380 F12000.000
G1 X62.538 Y41.434 E4.48290 F1800
G1 X63.491 Y41.596 E4.50775
G1 X64.420 Y41.863 E4.53260
G1 X65.313 Y42.233 E4.55745
G1 X66.217 Y42.742 E4.58411
G1 X66.948 Y43.261 E4.60714
G1 X67.669 Y43.905 E4.63199
G1 X68.313 Y44.626 E4.65684
G1 X68.873 Y45.415 E4.68169
G1 X69.341 Y46.261 E4.70654
G1 X69.711 Y47.154 E4.73139
G1 X69.978 Y48.083 E4.75624
G1 X70.140 Y49.037 E4.78109
G1 X70.195 Y50.002 E4.80594
G1 X70.140 Y50.967 E4.83079
G1 X69.978 Y51.921 E4.85564
G1 X69.711 Y52.850 E4.88049
G1 X69.341 Y53.743 E4.90534
G1 X68.873 Y54.589 E4.93019
G1 X68.313 Y55.378 E4.95504
G1 X67.669 Y56.099 E4.97989
G1 X66.948 Y56.743 E5.00474
G1 X66.160 Y57.303 E5.02959
G1 X65.313 Y57.771 E5.05444
G1 X64.420 Y58.141 E5.07929
G1 X63.491 Y58.408 E5.10414
G1 X62.538 Y58.570 E5.12899
G1 X61.572 Y58.624 E5.15384
G1 X60.607 Y58.570 E5.17869
G1 X59.653 Y58.408 E5.20354
G1 X58.659 Y58.114 E5.23020
G1 X57.831 Y57.771 E5.25323
G1 X56.985 Y57.303 E5.27808
G1 X56.196 Y56.743 E5.30293
G1 X55.475 Y56.099 E5.32778
G1 X54.831 Y55.378 E5.35263
G1 X54.271 Y54.589 E5.37748
G1 X53.804 Y53.743 E5.40233
G1 X53.434 Y52.850 E5.42718
G1 X53.166 Y51.921 E5.45203
G1 X53.004 Y50.967 E5.47688
G1 X52.950 Y50.002 E5.50173
G1 X53.016 Y48.967 E5.52839
G1 X53.166 Y48.083 E5.55142
G1 X53.434 Y47.154 E5.57627
G1 X53.804 Y46.261 E5.60112
G1 X54.271 Y45.415 E5.62597
G1 X54.831 Y44.626 E5.65082
G1 X55.475 Y43.905 E5.67567
G1 X56.196 Y43.261 E5.70052
G1 X56.985 Y42.701 E5.72537
G1 X57.831 Y42.233 E5.75022
G1 X58.724 Y41.863 E5.77507
G1 X59.653 Y41.596 E5.79992
G1 X60.607 Y41.434 E5.82477
G1 X61.509 Y41.383 E5.84799
G1 X61.525 Y41.804 F12000.000
G1 X62.490 Y41.853 E5.87283 F1800
G1 X63.397 Y42.007 E5.89646
G1 X64.281 Y42.262 E5.92010
G1 X65.130 Y42.614 E5.94373
G1 X65.935 Y43.059 E5.96736
G1 X66.685 Y43.591 E5.99100
