; generated by Slic3r 0.9.9 on 2013-11-25 at 12:34:44

; layer_height = 0.4
; perimeters = 2
; top_solid_layers = 2
; bottom_solid_layers = 2
; fill_density = 0.75
; perimeter_speed = 90
; infill_speed = 110
; travel_speed = 130
; nozzle_diameter = 0.5
; filament_diameter = 2.89
; extrusion_multiplier = 1
; perimeters extrusion width = 0.50mm
; infill extrusion width = 0.60mm
; solid infill extrusion width = 0.50mm
; top infill extrusion width = 0.43mm
; first layer extrusion width = 0.50mm

G21 ; set units to millimeters
M107
G28 ; home all axes
G90 ; use absolute coordinates
G92 E0
M82 ; use absolute distances for extrusion
G1 F2400.000 E-1.40000
G92 E0
G1 Z0.320 F7800.000
G1 X44.111 Y62.935
G1 F2400.000 E1.40000
G1 X45.031 Y62.335 F3240.000 E1.42679
G1 X45.691 Y62.025 E1.44458
G1 X46.761 Y61.585 E1.47280
G1 X47.061 Y61.485 E1.48051
G1 X47.671 Y61.325 E1.49589
G1 X48.291 Y61.215 E1.51125
G1 X49.101 Y61.115 E1.53116
G1 X49.961 Y61.065 E1.55217
G1 X119.961 Y61.065 E3.25956
G1 X120.801 Y61.115 E3.28008
G1 X121.631 Y61.215 E3.30047
G1 X122.281 Y61.325 E3.31655
G1 X122.611 Y61.405 E3.32483
G1 X123.241 Y61.605 E3.34096
G1 X124.321 Y62.065 E3.36959
G1 X124.651 Y62.215 E3.37843
G1 X125.291 Y62.565 E3.39622
G1 X125.881 Y62.985 E3.41389
G1 X126.531 Y63.495 E3.43404
G1 X127.041 Y63.945 E3.45063
G1 X127.511 Y64.425 E3.46702
G1 X128.461 Y65.655 E3.50492
G1 X128.801 Y66.195 E3.52049
G1 X129.091 Y66.755 E3.53587
G1 X129.601 Y68.005 E3.56880
G1 X149.311 Y121.285 E4.95444
G1 X149.491 Y121.835 E4.96855
G1 X149.851 Y123.175 E5.00240
G1 X150.021 Y123.895 E5.02044
G1 X150.061 Y124.155 E5.02686
G1 X150.121 Y124.685 E5.03987
G1 X150.151 Y125.475 E5.05915
G1 X150.151 Y126.505 E5.08427
G1 X150.111 Y127.305 E5.10381
G1 X150.001 Y128.085 E5.12302
G1 X149.831 Y128.865 E5.14250
G1 X149.561 Y129.855 E5.16753
G1 X149.311 Y130.635 E5.18750
G1 X148.861 Y131.635 E5.21425
G1 X148.161 Y132.875 E5.24898
G1 X147.871 Y133.335 E5.26225
G1 X147.721 Y133.555 E5.26874
G1 X147.101 Y134.345 E5.29324
G1 X146.691 Y134.795 E5.30808
G1 X145.961 Y135.515 E5.33309
G1 X145.571 Y135.865 E5.34588
G1 X144.781 Y136.485 E5.37037
G1 X144.561 Y136.635 E5.37687
G1 X144.101 Y136.925 E5.39013
G1 X143.211 Y137.435 E5.41515
G1 X142.621 Y137.745 E5.43140
G1 X141.621 Y138.155 E5.45777
G1 X141.371 Y138.235 E5.46417
G1 X140.091 Y138.585 E5.49654
G1 X139.571 Y138.705 E5.50955
G1 X139.311 Y138.755 E5.51601
G1 X138.251 Y138.885 E5.54206
G1 X137.981 Y138.895 E5.54865
G1 X136.391 Y138.885 E5.58743
G1 X80.651 Y136.375 E6.94838
G1 X80.101 Y136.335 E6.96183
G1 X78.801 Y136.175 E6.99378
G1 X77.651 Y135.925 E7.02248
G1 X77.251 Y135.805 E7.03267
G1 X76.571 Y135.565 E7.05026
G1 X75.681 Y135.195 E7.07377
G1 X74.951 Y134.845 E7.09351
G1 X74.541 Y134.615 E7.10498
G1 X73.711 Y134.065 E7.12927
G1 X72.951 Y133.485 E7.15259
G1 X72.401 Y133.025 E7.17007
G1 X72.061 Y132.705 E7.18146
G1 X71.331 Y131.895 E7.20806
G1 X70.741 Y131.135 E7.23153
G1 X70.451 Y130.725 E7.24378
G1 X69.841 Y129.765 E7.27152
G1 X41.061 Y76.105 E8.75672
G1 X40.591 Y75.065 E8.78456
G1 X40.301 Y74.345 E8.80349
G1 X40.101 Y73.665 E8.82078
G1 X39.971 Y72.965 E8.83815
G1 X39.861 Y72.145 E8.85833
G1 X39.811 Y71.525 E8.87350
G1 X39.811 Y70.895 E8.88886
G1 X39.861 Y70.275 E8.90404
G1 X40.031 Y69.105 E8.93287
G1 X40.201 Y68.405 E8.95044
G1 X40.451 Y67.715 E8.96834
G1 X40.771 Y66.945 E8.98868
G1 X41.081 Y66.285 E9.00647
G1 X41.681 Y65.365 E9.03326
G1 X42.181 Y64.715 E9.05326
G1 X42.651 Y64.165 E9.07091
G1 X43.181 Y63.665 E9.08868
G1 X44.051 Y62.981 E9.11569
G1 X44.421 Y63.335 F7800.000
G1 X44.981 Y62.945 F3240.000 E9.13233
G1 X45.571 Y62.625 E9.14870
G1 X46.981 Y62.035 E9.18598
G1 X47.321 Y61.925 E9.19470
G1 X47.661 Y61.835 E9.20328
G1 X48.351 Y61.715 E9.22036
G1 X49.161 Y61.615 E9.24027
G1 X49.961 Y61.565 E9.25982
G1 X119.961 Y61.565 E10.96721
G1 X120.741 Y61.615 E10.98627
G1 X121.571 Y61.715 E11.00666
G1 X121.871 Y61.755 E11.01405
G1 X122.481 Y61.885 E11.02926
G1 X123.061 Y62.075 E11.04415
G1 X124.431 Y62.665 E11.08053
G1 X124.731 Y62.815 E11.08871
G1 X125.301 Y63.175 E11.10515
G1 X126.221 Y63.895 E11.13365
G1 X126.701 Y64.305 E11.14905
G1 X127.131 Y64.755 E11.16423
G1 X127.881 Y65.705 E11.19375
G1 X128.281 Y66.295 E11.21114
G1 X128.451 Y66.595 E11.21955
G1 X128.751 Y67.235 E11.23679
G1 X129.131 Y68.175 E11.26152
G1 X148.841 Y121.455 E12.64716
G1 X149.011 Y121.985 E12.66073
G1 X149.371 Y123.305 E12.69411
G1 X149.571 Y124.235 E12.71731
G1 X149.601 Y124.475 E12.72321
G1 X149.651 Y125.225 E12.74154
G1 X149.651 Y126.505 E12.77276
G1 X149.611 Y127.265 E12.79133
G1 X149.511 Y127.995 E12.80930
G1 X149.351 Y128.735 E12.82776
G1 X149.081 Y129.725 E12.85279
G1 X148.841 Y130.465 E12.87177
G1 X148.531 Y131.175 E12.89067
G1 X148.241 Y131.735 E12.90605
G1 X147.731 Y132.625 E12.93107
G1 X147.461 Y133.055 E12.94345
G1 X147.311 Y133.275 E12.94995
G1 X146.721 Y134.025 E12.97322
G1 X146.331 Y134.445 E12.98720
G1 X145.251 Y135.485 E13.02377
G1 X144.501 Y136.075 E13.04705
G1 X144.281 Y136.225 E13.05354
G1 X143.851 Y136.495 E13.06593
G1 X142.961 Y137.005 E13.09095
G1 X142.401 Y137.295 E13.10633
G1 X141.471 Y137.675 E13.13083
G1 X140.951 Y137.835 E13.14410
G1 X139.961 Y138.105 E13.16913
G1 X139.221 Y138.265 E13.18760
G1 X138.231 Y138.385 E13.21192
G1 X137.961 Y138.395 E13.21851
G1 X136.411 Y138.385 E13.25632
G1 X80.671 Y135.875 E14.61727
G1 X80.171 Y135.835 E14.62950
G1 X78.871 Y135.675 E14.66145
G1 X77.791 Y135.455 E14.68833
G1 X77.391 Y135.335 E14.69852
G1 X76.761 Y135.105 E14.71488
G1 X75.871 Y134.735 E14.73839
G1 X75.191 Y134.405 E14.75682
G1 X74.781 Y134.175 E14.76829
G1 X74.021 Y133.675 E14.79048
G1 X73.261 Y133.095 E14.81380
G1 X72.751 Y132.655 E14.83023
G1 X72.411 Y132.335 E14.84162
G1 X71.731 Y131.595 E14.86613
G1 X70.861 Y130.455 E14.90111
G1 X70.601 Y130.065 E14.91254
G1 X70.281 Y129.525 E14.92785
G1 X41.501 Y75.865 E16.41305
G1 X41.001 Y74.755 E16.44275
G1 X40.771 Y74.175 E16.45797
G1 X40.671 Y73.865 E16.46591
G1 X40.521 Y73.225 E16.48194
G1 X40.361 Y72.075 E16.51026
G1 X40.301 Y71.385 E16.52716
G1 X40.321 Y70.685 E16.54424
G1 X40.361 Y70.345 E16.55259
G1 X40.521 Y69.195 E16.58091
G1 X40.681 Y68.545 E16.59724
G1 X40.911 Y67.915 E16.61360
G1 X41.371 Y66.825 E16.64245
G1 X41.521 Y66.525 E16.65063
G1 X41.881 Y65.945 E16.66728
G1 X42.581 Y65.025 E16.69548
G1 X43.021 Y64.505 E16.71210
G1 X43.511 Y64.045 E16.72849
G1 X44.361 Y63.381 E16.75481
G1 F2400.000 E15.35481
G92 E0
G1 X115.847 Y84.504 F7800.000
G1 F2400.000 E1.40000
G1 X116.221 Y83.599 F2160.000 E1.42389
G1 X116.818 Y82.822 E1.44778
G1 X117.595 Y82.226 E1.47167
G1 X118.500 Y81.851 E1.49557
G1 X119.454 Y81.725 E1.51905
G1 X122.487 Y81.725 E1.59303
G1 X123.442 Y81.851 E1.61652
G1 X124.347 Y82.226 E1.64041
G1 X125.124 Y82.822 E1.66430
G1 X125.720 Y83.599 E1.68819
G1 X126.095 Y84.504 E1.71208
G1 X126.223 Y85.475 E1.73597
G1 X126.095 Y86.446 E1.75986
G1 X125.720 Y87.351 E1.78376
G1 X125.124 Y88.128 E1.80765
G1 X124.347 Y88.724 E1.83154
G1 X123.442 Y89.099 E1.85543
G1 X122.487 Y89.225 E1.87892
G1 X119.454 Y89.225 E1.95289
G1 X118.500 Y89.099 E1.97638
G1 X117.595 Y88.724 E2.00027
G1 X116.818 Y88.128 E2.02416
G1 X116.221 Y87.351 E2.04805
G1 X115.847 Y86.446 E2.07195
G1 X115.719 Y85.475 E2.09584
G1 X115.837 Y84.578 E2.11790
G1 X115.509 Y84.135 F7800.000
G1 F2400.000 E0.71790
G92 E0
G1 X116.087 Y75.274 F7800.000
G1 F2400.000 E1.40000
G1 X110.025 Y94.975 F3240.000 E1.90277
G1 X98.221 Y94.975 E2.19068
G1 X98.221 Y80.701 E2.53885
G1 X98.277 Y79.844 E2.55979
G1 X98.449 Y78.978 E2.58134
G1 X98.733 Y78.141 E2.60288
G1 X99.096 Y77.405 E2.62290
G1 X99.614 Y76.615 E2.64595
G1 X100.197 Y75.951 E2.66749
G1 X100.861 Y75.369 E2.68903
G1 X101.595 Y74.878 E2.71057
G1 X102.387 Y74.487 E2.73211
G1 X103.223 Y74.203 E2.75365
G1 X104.090 Y74.031 E2.77519
G1 X104.946 Y73.975 E2.79613
G1 X116.486 Y73.975 E3.07761
G1 X116.109 Y75.202 E3.10893
G1 X115.609 Y75.127 F7800.000
G1 X109.655 Y94.475 F2520.000 E3.60269
G1 X98.721 Y94.475 E3.86940
G1 X98.721 Y80.717 E4.20498
G1 X98.774 Y79.909 E4.22472
G1 X98.933 Y79.107 E4.24466
G1 X99.196 Y78.333 E4.26461
G1 X99.558 Y77.600 E4.28455
G1 X100.012 Y76.920 E4.30449
G1 X100.551 Y76.305 E4.32443
G1 X101.166 Y75.766 E4.34438
G1 X101.846 Y75.312 E4.36432
G1 X102.579 Y74.950 E4.38426
G1 X103.353 Y74.687 E4.40420
G1 X104.155 Y74.528 E4.42415
G1 X104.963 Y74.475 E4.44389
G1 X115.809 Y74.475 E4.70845
G1 X115.631 Y75.055 E4.72326
G1 X115.949 Y75.493 F7800.000
G1 F2400.000 E3.32326
G92 E0
G1 X110.571 Y109.480 F7800.000
G1 F2400.000 E1.40000
G1 X111.476 Y109.855 F2160.000 E1.42389
G1 X112.253 Y110.451 E1.44778
G1 X112.849 Y111.228 E1.47167
G1 X113.224 Y112.133 E1.49557
G1 X113.352 Y113.104 E1.51946
G1 X113.224 Y114.075 E1.54335
G1 X112.849 Y114.980 E1.56724
G1 X112.253 Y115.757 E1.59113
G1 X111.476 Y116.354 E1.61502
G1 X110.571 Y116.729 E1.63891
G1 X109.616 Y116.854 E1.66240
G1 X106.583 Y116.854 E1.73638
G1 X105.629 Y116.728 E1.75987
G1 X104.724 Y116.354 E1.78376
G1 X103.947 Y115.757 E1.80766
G1 X103.350 Y114.980 E1.83155
G1 X103.319 Y114.905 E1.83354
G1 X102.976 Y114.075 E1.85544
G1 X102.848 Y113.104 E1.87933
G1 X102.976 Y112.133 E1.90322
G1 X103.351 Y111.228 E1.92711
G1 X103.947 Y110.451 E1.95100
G1 X104.724 Y109.855 E1.97489
G1 X105.629 Y109.480 E1.99879
G1 X106.584 Y109.354 E2.02227
G1 X109.616 Y109.354 E2.09625
G1 X110.497 Y109.470 E2.11791
G1 X110.940 Y109.142 F7800.000
G1 F2400.000 E0.71791
G92 E0
G1 X130.967 Y124.117 F7800.000
G1 F2400.000 E1.40000
G1 X131.582 Y123.312 F2160.000 E1.42472
G1 X132.391 Y122.701 E1.44944
G1 X133.334 Y122.329 E1.47416
G1 X134.321 Y122.225 E1.49837
G1 X137.138 Y122.225 E1.56708
G1 X138.125 Y122.329 E1.59129
G1 X139.067 Y122.701 E1.61601
G1 X139.876 Y123.312 E1.64073
G1 X140.492 Y124.117 E1.66545
G1 X140.870 Y125.058 E1.69017
G1 X140.982 Y126.065 E1.71489
G1 X140.822 Y127.066 E1.73961
G1 X140.399 Y127.987 E1.76434
G1 X139.745 Y128.761 E1.78906
G1 X138.908 Y129.333 E1.81378
G1 X137.949 Y129.660 E1.83850
G1 X136.964 Y129.716 E1.86256
G1 X134.494 Y129.716 E1.92280
G1 X133.509 Y129.660 E1.94686
G1 X132.550 Y129.333 E1.97158
G1 X131.713 Y128.761 E1.99630
G1 X131.059 Y127.987 E2.02103
G1 X130.637 Y127.066 E2.04575
G1 X130.476 Y126.065 E2.07047
G1 X130.589 Y125.058 E2.09519
G1 X130.939 Y124.187 E2.11808
G1 X130.734 Y123.675 F7800.000
G1 X130.621 Y123.747
G1 X130.528 Y123.868 F3240.000 E2.12180
G1 X130.099 Y124.935 E2.14984
G1 X129.972 Y126.077 E2.17789
G1 X130.154 Y127.212 E2.20593
G1 X130.633 Y128.257 E2.23397
G1 X131.375 Y129.136 E2.26202
G1 X132.324 Y129.784 E2.29006
G1 X133.413 Y130.155 E2.31810
G1 X134.480 Y130.216 E2.34418
G1 X136.978 Y130.216 E2.40512
G1 X138.046 Y130.155 E2.43120
G1 X139.134 Y129.784 E2.45924
G1 X140.084 Y129.136 E2.48728
G1 X140.825 Y128.257 E2.51533
G1 X141.241 Y127.351 E2.53965
G1 X141.305 Y127.212 E2.54337
G1 X141.487 Y126.077 E2.57141
G1 X141.359 Y124.934 E2.59946
G1 X140.930 Y123.868 E2.62750
G1 X140.232 Y122.955 E2.65554
G1 X139.314 Y122.261 E2.68359
G1 X138.245 Y121.839 E2.71163
G1 X137.164 Y121.725 E2.73815
G1 X134.474 Y121.725 E2.80377
G1 X134.426 Y121.454 E2.81047
G1 X135.442 Y121.093 E2.83676
G1 X136.389 Y120.844 E2.86066
G1 X136.765 Y120.796 E2.86990
G1 X137.934 Y120.815 E2.89842
G1 X139.245 Y121.172 E2.93155
G1 X140.418 Y121.857 E2.96469
G1 X141.250 Y122.678 E2.99321
G1 X141.479 Y122.980 E3.00245
G1 X142.049 Y124.001 E3.03096
G1 X142.359 Y125.128 E3.05948
G1 X142.407 Y125.504 E3.06872
G1 X142.391 Y126.673 E3.09724
G1 X142.035 Y127.984 E3.13038
G1 X141.352 Y129.158 E3.16351
G1 X140.388 Y130.116 E3.19665
G1 X139.210 Y130.792 E3.22978
G1 X138.083 Y131.104 E3.25830
G1 X137.707 Y131.152 E3.26754
G1 X136.509 Y131.135 E3.29676
G1 X130.305 Y130.375 E3.44923
G1 X124.057 Y129.749 E3.60239
G1 X117.796 Y129.262 E3.75556
G1 X111.526 Y128.914 E3.90873
G1 X105.250 Y128.705 E4.06189
G1 X98.975 Y128.635 E4.21496
G1 X81.005 Y128.635 E4.65328
G1 X79.818 Y128.491 E4.68243
G1 X79.511 Y128.401 E4.69023
G1 X78.703 Y128.066 E4.71158
G1 X78.379 Y127.885 E4.72063
G1 X77.692 Y127.358 E4.74175
G1 X77.417 Y127.104 E4.75087
G1 X76.891 Y126.418 E4.77197
G1 X76.683 Y126.107 E4.78108
G1 X76.223 Y124.958 E4.81127
G1 X76.061 Y123.681 E4.84267
G1 X76.061 Y115.760 E5.03587
G1 X76.095 Y115.489 E5.04252
G1 X76.178 Y115.279 E5.04803
G1 X76.310 Y115.096 E5.05353
G1 X76.483 Y114.952 E5.05903
G1 X76.687 Y114.855 E5.06454
G1 X76.844 Y114.824 E5.06845
G1 X76.908 Y114.811 E5.07004
G1 X77.133 Y114.824 E5.07554
G1 X77.348 Y114.892 E5.08105
G1 X77.595 Y115.045 E5.08814
G1 X78.495 Y115.706 E5.11537
G1 X79.507 Y116.314 E5.14417
G1 X80.572 Y116.824 E5.17297
G1 X81.681 Y117.232 E5.20178
G1 X82.822 Y117.534 E5.23058
G1 X83.987 Y117.728 E5.25939
G1 X85.165 Y117.812 E5.28819
G1 X86.346 Y117.785 E5.31700
G1 X87.519 Y117.648 E5.34580
G1 X88.674 Y117.402 E5.37461
G1 X89.037 Y117.288 E5.38388
G1 X89.800 Y117.048 E5.40341
G1 X90.889 Y116.590 E5.43222
G1 X91.930 Y116.033 E5.46102
G1 X92.914 Y115.380 E5.48983
G1 X93.833 Y114.638 E5.51863
G1 X94.678 Y113.813 E5.54743
G1 X95.442 Y112.913 E5.57624
G1 X96.119 Y111.945 E5.60504
G1 X96.701 Y110.918 E5.63385
G1 X97.185 Y109.840 E5.66265
G1 X97.566 Y108.723 E5.69146
G1 X97.841 Y107.574 E5.72026
G1 X98.006 Y106.405 E5.74907
G1 X98.062 Y105.225 E5.77787
G1 X98.006 Y104.045 E5.80668
G1 X97.841 Y102.876 E5.83548
G1 X97.566 Y101.728 E5.86428
G1 X97.185 Y100.610 E5.89309
G1 X96.701 Y99.532 E5.92189
G1 X96.119 Y98.505 E5.95070
G1 X95.442 Y97.537 E5.97950
G1 X94.924 Y96.927 E5.99903
G1 X94.678 Y96.637 E6.00831
G1 X93.833 Y95.812 E6.03711
G1 X92.914 Y95.070 E6.06592
G1 X91.930 Y94.417 E6.09472
G1 X90.889 Y93.860 E6.12353
G1 X90.151 Y93.549 E6.14305
G1 X89.800 Y93.402 E6.15233
G1 X88.674 Y93.048 E6.18114
G1 X87.519 Y92.802 E6.20994
G1 X86.346 Y92.665 E6.23874
G1 X85.165 Y92.638 E6.26755
G1 X83.987 Y92.722 E6.29635
G1 X82.822 Y92.916 E6.32516
G1 X81.681 Y93.218 E6.35396
G1 X80.929 Y93.495 E6.37349
G1 X80.572 Y93.626 E6.38277
G1 X79.507 Y94.136 E6.41157
G1 X78.495 Y94.744 E6.44038
G1 X77.595 Y95.405 E6.46761
G1 X77.348 Y95.558 E6.47470
G1 X77.133 Y95.626 E6.48020
G1 X76.908 Y95.639 E6.48570
G1 X76.751 Y95.608 E6.48961
G1 X76.687 Y95.595 E6.49121
G1 X76.483 Y95.498 E6.49671
G1 X76.310 Y95.354 E6.50221
G1 X76.178 Y95.171 E6.50771
G1 X76.095 Y94.961 E6.51322
G1 X76.061 Y94.690 E6.51988
G1 X76.061 Y80.700 E6.86110
G1 X76.002 Y79.799 E6.88312
G1 X75.821 Y78.890 E6.90575
G1 X75.619 Y78.296 E6.92105
G1 X75.523 Y78.011 E6.92838
G1 X75.112 Y77.179 E6.95100
G1 X74.597 Y76.408 E6.97363
G1 X73.985 Y75.710 E6.99625
G1 X73.288 Y75.099 E7.01888
G1 X72.517 Y74.583 E7.04151
G1 X71.685 Y74.173 E7.06413
G1 X70.806 Y73.875 E7.08676
G1 X69.896 Y73.694 E7.10938
G1 X68.995 Y73.635 E7.13141
G1 X50.020 Y73.635 E7.59424
G1 X49.349 Y73.547 E7.61076
G1 X48.769 Y73.307 E7.62606
G1 X48.615 Y73.189 E7.63078
G1 X48.271 Y72.925 E7.64136
G1 X47.889 Y72.427 E7.65667
G1 X47.649 Y71.847 E7.67197
G1 X47.567 Y71.225 E7.68728
G1 X47.649 Y70.603 E7.70258
G1 X47.889 Y70.023 E7.71789
G1 X48.271 Y69.525 E7.73319
G1 X48.769 Y69.143 E7.74849
G1 X49.349 Y68.903 E7.76380
G1 X50.020 Y68.815 E7.78031
G1 X119.922 Y68.815 E9.48530
G1 X120.599 Y68.905 E9.50197
G1 X121.183 Y69.149 E9.51742
G1 X121.683 Y69.538 E9.53286
G1 X121.800 Y69.691 E9.53755
G1 X122.065 Y70.044 E9.54831
G1 X122.301 Y70.631 E9.56376
G1 X122.391 Y71.406 E9.58277
G1 X125.213 Y82.110 E9.85278
G1 X125.108 Y82.180 E9.85586
G1 X124.599 Y81.789 E9.87151
G1 X123.572 Y81.364 E9.89862
G1 X122.520 Y81.225 E9.92451
G1 X119.422 Y81.225 E10.00008
G1 X118.369 Y81.364 E10.02598
G1 X117.343 Y81.789 E10.05308
G1 X116.461 Y82.465 E10.08018
G1 X115.785 Y83.347 E10.10728
G1 X115.359 Y84.373 E10.13439
G1 X115.214 Y85.475 E10.16149
G1 X115.359 Y86.577 E10.18859
G1 X115.785 Y87.603 E10.21569
G1 X116.461 Y88.485 E10.24280
G1 X117.343 Y89.161 E10.26990
G1 X118.369 Y89.586 E10.29700
G1 X119.422 Y89.725 E10.32290
G1 X120.851 Y89.725 E10.35776
G1 X120.899 Y89.910 E10.36243
G1 X119.765 Y90.544 E10.39413
G1 X118.614 Y91.315 E10.42792
G1 X117.529 Y92.176 E10.46171
G1 X116.516 Y93.122 E10.49550
G1 X115.583 Y94.146 E10.52929
G1 X114.736 Y95.241 E10.56307
G1 X113.979 Y96.402 E10.59686
G1 X113.318 Y97.619 E10.63065
G1 X112.756 Y98.886 E10.66444
