; generated by Slic3r 1.0.0RC3 on 2014-03-17 at 14:23:09

; layer_height = 0.22
; perimeters = 2
; top_solid_layers = 3
; bottom_solid_layers = 3
; fill_density = 0.5
; perimeter_speed = 100
; infill_speed = 115
; travel_speed = 180
; nozzle_diameter = 0.35
; filament_diameter = 2.89
; extrusion_multiplier = 1
; perimeters extrusion width = 0.33mm
; infill extrusion width = 0.50mm
; solid infill extrusion width = 0.38mm
; top infill extrusion width = 0.22mm
; first layer extrusion width = 0.50mm

G21 ; set units to millimeters
M107
G28 ; home all axes
M203 X192 Y208 Z3 ; Speed limits to minimize skipped steps when moving really fast courtesy of forum.lulzbot.com user 1013
G90 ; use absolute coordinates
G92 E0
M82 ; use absolute distances for extrusion
G1 F1500.000 E-2.00000
G92 E0
G1 Z0.300 F10800.000
G1 X103.771 Y99.145 F10800.000
G1 E2.00000 F1500.000
G1 X173.971 Y99.135 E3.50190 F3000.000
G1 X174.811 Y99.195 E3.51992
G1 X175.631 Y99.295 E3.53759
G1 X176.571 Y99.475 E3.55807
G1 X177.481 Y99.785 E3.57864
G1 X178.241 Y100.105 E3.59628
G1 X179.051 Y100.505 E3.61561
G1 X179.791 Y101.005 E3.63472
G1 X180.451 Y101.515 E3.65256
G1 X181.161 Y102.145 E3.67287
G1 X181.771 Y102.855 E3.69290
G1 X182.271 Y103.525 E3.71078
G1 X182.751 Y104.265 E3.72965
G1 X183.131 Y105.055 E3.74841
G1 X183.441 Y105.815 E3.76597
G1 X203.361 Y159.665 E4.99437
G1 X203.521 Y160.185 E5.00601
G1 X203.871 Y161.565 E5.03647
G1 X203.921 Y161.805 E5.04171
G1 X204.061 Y162.935 E5.06607
G1 X204.081 Y163.465 E5.07742
G1 X204.081 Y164.525 E5.10010
G1 X204.031 Y165.345 E5.11768
G1 X203.911 Y166.175 E5.13562
G1 X203.761 Y166.825 E5.14989
G1 X203.481 Y167.855 E5.17273
G1 X203.261 Y168.545 E5.18822
G1 X202.911 Y169.365 E5.20730
G1 X202.611 Y169.945 E5.22127
G1 X202.081 Y170.865 E5.24398
G1 X201.611 Y171.585 E5.26238
G1 X201.081 Y172.265 E5.28082
G1 X200.641 Y172.735 E5.29460
G1 X199.891 Y173.475 E5.31714
G1 X199.451 Y173.875 E5.32986
G1 X198.611 Y174.525 E5.35258
G1 X197.171 Y175.375 E5.38836
G1 X196.591 Y175.675 E5.40233
G1 X195.681 Y176.055 E5.42343
G1 X195.021 Y176.255 E5.43818
G1 X193.401 Y176.665 E5.47393
G1 X192.271 Y176.805 E5.49830
G1 X191.741 Y176.825 E5.50964
G1 X190.371 Y176.815 E5.53895
G1 X134.651 Y174.305 E6.73227
G1 X132.811 Y174.095 E6.77189
G1 X132.181 Y173.995 E6.78554
G1 X131.181 Y173.705 E6.80782
G1 X130.661 Y173.515 E6.81966
G1 X129.751 Y173.145 E6.84068
G1 X128.891 Y172.725 E6.86116
G1 X128.511 Y172.505 E6.87055
G1 X127.791 Y172.025 E6.88906
G1 X127.001 Y171.425 E6.91029
G1 X126.451 Y170.965 E6.92563
G1 X126.131 Y170.665 E6.93501
G1 X125.371 Y169.835 E6.95909
G1 X124.521 Y168.705 E6.98934
G1 X124.271 Y168.335 E6.99889
G1 X123.851 Y167.615 E7.01673
G1 X97.151 Y115.455 E8.27038
G1 X96.581 Y113.925 E8.30531
G1 X96.381 Y112.295 E8.34045
G1 X96.381 Y106.145 E8.47202
G1 X96.521 Y104.785 E8.50127
G1 X96.921 Y103.485 E8.53037
G1 X97.561 Y102.275 E8.55966
G1 X98.431 Y101.225 E8.58883
G1 X99.491 Y100.365 E8.61804
G1 X100.691 Y99.725 E8.64713
G1 X102.001 Y99.335 E8.67638
G1 X102.311 Y99.275 E8.68313
G1 X103.431 Y99.155 E8.70723
G1 X103.701 Y99.147 E8.71301
G1 F1500.000 E6.71301
G92 E0
G1 X174.103 Y104.075 F10800.000
G1 X179.695 Y111.190 F10800.000
G1 X202.841 Y159.595 F10800.000
G1 E2.00000 F1500.000
G1 X203.071 Y160.305 E2.01597 F3000.000
G1 X203.341 Y161.335 E2.03875
G1 X203.461 Y161.895 E2.05100
G1 X203.591 Y162.955 E2.07385
G1 X203.611 Y163.465 E2.08477
G1 X203.611 Y164.525 E2.10745
G1 X203.591 Y165.065 E2.11901
G1 X203.571 Y165.305 E2.12416
G1 X203.401 Y166.325 E2.14628
G1 X203.031 Y167.735 E2.17747
G1 X202.821 Y168.385 E2.19209
G1 X202.491 Y169.155 E2.21001
G1 X202.201 Y169.715 E2.22350
G1 X201.671 Y170.635 E2.24622
G1 X201.371 Y171.115 E2.25833
G1 X200.721 Y171.965 E2.28122
G1 X200.311 Y172.395 E2.29393
G1 X199.331 Y173.355 E2.32328
G1 X199.141 Y173.525 E2.32874
G1 X198.351 Y174.125 E2.34996
G1 X197.861 Y174.435 E2.36237
G1 X196.941 Y174.965 E2.38508
G1 X196.381 Y175.255 E2.39857
G1 X195.541 Y175.615 E2.41813
G1 X194.911 Y175.805 E2.43220
G1 X193.891 Y176.075 E2.45478
G1 X193.311 Y176.205 E2.46750
G1 X192.251 Y176.335 E2.49034
G1 X191.741 Y176.355 E2.50126
G1 X190.391 Y176.345 E2.53015
G1 X134.671 Y173.835 E3.72347
G1 X134.181 Y173.795 E3.73398
G1 X132.871 Y173.635 E3.76222
G1 X132.281 Y173.535 E3.77502
G1 X131.701 Y173.385 E3.78784
G1 X130.831 Y173.085 E3.80753
G1 X129.921 Y172.715 E3.82854
G1 X129.121 Y172.325 E3.84759
G1 X128.741 Y172.105 E3.85698
G1 X128.071 Y171.655 E3.87425
G1 X127.281 Y171.055 E3.89547
G1 X126.771 Y170.625 E3.90974
G1 X126.451 Y170.325 E3.91913
G1 X125.741 Y169.545 E3.94169
G1 X125.141 Y168.765 E3.96275
G1 X124.661 Y168.075 E3.98073
G1 X124.261 Y167.405 E3.99743
G1 X97.561 Y115.245 E5.25108
G1 X97.031 Y113.815 E5.28371
G1 X96.851 Y112.295 E5.31645
G1 X96.851 Y106.145 E5.44803
G1 X96.981 Y104.875 E5.47534
G1 X97.351 Y103.665 E5.50241
G1 X97.951 Y102.535 E5.52979
G1 X98.761 Y101.555 E5.55699
G1 X99.751 Y100.755 E5.58422
G1 X100.871 Y100.155 E5.61140
G1 X102.091 Y99.795 E5.63862
G1 X102.401 Y99.735 E5.64537
G1 X103.441 Y99.615 E5.66777
G1 X103.781 Y99.605 E5.67505
G1 X173.971 Y99.605 E7.17674
G1 X174.751 Y99.655 E7.19346
G1 X175.571 Y99.755 E7.21113
G1 X176.451 Y99.925 E7.23031
G1 X177.301 Y100.215 E7.24952
G1 X178.061 Y100.535 E7.26717
G1 X178.811 Y100.905 E7.28506
G1 X179.501 Y101.375 E7.30292
G1 X180.161 Y101.885 E7.32076
G1 X180.821 Y102.475 E7.33970
G1 X181.391 Y103.135 E7.35836
G1 X181.891 Y103.805 E7.37625
G1 X182.341 Y104.495 E7.39387
G1 X182.701 Y105.235 E7.41148
G1 X183.091 Y106.195 E7.43365
G1 X202.819 Y159.528 E8.65026
G1 F1500.000 E6.65026
G92 E0
G1 X164.001 Y132.943 F10800.000
G1 E2.00000 F1500.000
G1 X152.253 Y132.943 E2.25134 F3000.000
G1 X152.253 Y118.702 E2.55603
G1 X152.309 Y117.848 E2.57433
G1 X152.480 Y116.986 E2.59314
G1 X152.763 Y116.153 E2.61196
G1 X153.159 Y115.354 E2.63102
G1 X153.640 Y114.635 E2.64955
G1 X154.220 Y113.974 E2.66835
G1 X154.880 Y113.394 E2.68716
G1 X155.612 Y112.905 E2.70598
G1 X156.412 Y112.513 E2.72504
G1 X157.232 Y112.235 E2.74357
G1 X158.094 Y112.063 E2.76237
G1 X158.947 Y112.007 E2.78067
G1 X170.443 Y112.007 E3.02661
G1 X164.022 Y132.876 E3.49374
G1 X163.655 Y132.475 F10800.000
G1 X152.721 Y132.475 E3.72769 F2400.000
G1 X152.721 Y118.717 E4.02204
G1 X152.774 Y117.909 E4.03936
G1 X152.933 Y117.107 E4.05685
G1 X153.196 Y116.333 E4.07435
G1 X153.565 Y115.589 E4.09210
G1 X154.012 Y114.920 E4.10932
G1 X154.551 Y114.305 E4.12682
G1 X155.166 Y113.766 E4.14431
G1 X155.846 Y113.312 E4.16181
G1 X156.591 Y112.946 E4.17956
G1 X157.353 Y112.687 E4.19678
G1 X158.155 Y112.528 E4.21428
G1 X158.963 Y112.475 E4.23159
G1 X169.809 Y112.475 E4.46365
G1 X163.676 Y132.408 E4.90984
G1 X163.609 Y132.941 F10800.000
G1 F1500.000 E2.90984
G92 E0
G1 X185.582 Y161.312 F10800.000
G1 E2.00000 F1500.000
G1 X186.391 Y160.701 E2.02168 F1800.000
G1 X187.334 Y160.329 E2.04337
G1 X188.321 Y160.225 E2.06460
G1 X191.138 Y160.225 E2.12487
G1 X192.125 Y160.329 E2.14611
G1 X193.067 Y160.701 E2.16779
G1 X193.876 Y161.312 E2.18947
G1 X194.492 Y162.117 E2.21116
G1 X194.870 Y163.058 E2.23284
G1 X194.982 Y164.065 E2.25452
G1 X194.822 Y165.066 E2.27621
G1 X194.399 Y165.987 E2.29789
G1 X193.745 Y166.761 E2.31957
G1 X192.908 Y167.333 E2.34126
G1 X191.949 Y167.660 E2.36294
G1 X190.964 Y167.716 E2.38405
G1 X188.494 Y167.716 E2.43688
G1 X187.509 Y167.660 E2.45799
G1 X186.550 Y167.333 E2.47968
G1 X185.713 Y166.761 E2.50136
G1 X185.059 Y165.987 E2.52304
G1 X184.637 Y165.066 E2.54473
G1 X184.476 Y164.065 E2.56641
G1 X184.589 Y163.058 E2.58810
G1 X184.967 Y162.117 E2.60978
G1 X185.540 Y161.368 E2.62996
G1 X185.483 Y160.855 F10800.000
G1 X185.250 Y160.978 F10800.000
G1 X184.556 Y161.884 E2.65437 F3000.000
G1 X184.131 Y162.942 E2.67878
G1 X184.004 Y164.076 E2.70319
G1 X184.185 Y165.203 E2.72760
G1 X184.661 Y166.240 E2.75201
G1 X185.397 Y167.112 E2.77642
G1 X186.339 Y167.755 E2.80083
G1 X187.419 Y168.123 E2.82525
G1 X188.481 Y168.184 E2.84801
G1 X190.977 Y168.184 E2.90141
G1 X192.039 Y168.123 E2.92418
G1 X193.120 Y167.755 E2.94859
G1 X194.062 Y167.112 E2.97300
G1 X194.798 Y166.240 E2.99741
G1 X195.273 Y165.203 E3.02182
G1 X195.454 Y164.076 E3.04623
G1 X195.328 Y162.942 E3.07064
G1 X194.902 Y161.884 E3.09505
G1 X194.209 Y160.978 E3.11946
G1 X193.299 Y160.290 E3.14387
G1 X192.237 Y159.871 E3.16828
G1 X191.162 Y159.757 E3.19141
G1 X188.277 Y159.757 E3.25314
G1 X188.233 Y159.501 E3.25869
G1 X189.428 Y159.074 E3.28584
G1 X190.573 Y158.786 E3.31110
G1 X191.937 Y158.792 E3.34029
G1 X193.253 Y159.152 E3.36948
G1 X194.432 Y159.839 E3.39867
G1 X195.392 Y160.808 E3.42786
G1 X196.070 Y161.993 E3.45705
G1 X196.418 Y163.312 E3.48624
G1 X196.413 Y164.676 E3.51543
G1 X196.055 Y165.993 E3.54462
G1 X195.369 Y167.172 E3.57381
G1 X194.402 Y168.134 E3.60300
G1 X193.218 Y168.813 E3.63218
G1 X192.073 Y169.129 E3.65761
G1 X191.723 Y169.174 E3.66514
G1 X190.508 Y169.158 E3.69115
G1 X184.302 Y168.397 E3.82490
G1 X178.055 Y167.771 E3.95924
G1 X171.794 Y167.284 E4.09358
G1 X165.525 Y166.936 E4.22792
G1 X159.249 Y166.727 E4.36226
G1 X152.975 Y166.657 E4.49651
G1 X135.003 Y166.657 E4.88101
G1 X133.804 Y166.511 E4.90685
G1 X133.519 Y166.427 E4.91322
G1 X132.679 Y166.079 E4.93266
G1 X132.377 Y165.910 E4.94006
G1 X131.663 Y165.362 E4.95931
G1 X131.407 Y165.126 E4.96677
G1 X130.860 Y164.413 E4.98600
G1 X130.667 Y164.123 E4.99346
G1 X130.203 Y162.968 E5.02009
G1 X130.039 Y161.679 E5.04787
G1 X130.039 Y153.758 E5.21735
G1 X130.073 Y153.484 E5.22327
G1 X130.158 Y153.269 E5.22821
G1 X130.293 Y153.081 E5.23316
G1 X130.471 Y152.933 E5.23811
G1 X130.680 Y152.834 E5.24305
G1 X130.906 Y152.789 E5.24800
G1 X131.137 Y152.802 E5.25295
G1 X131.358 Y152.871 E5.25789
G1 X131.607 Y153.026 E5.26417
G1 X132.507 Y153.688 E5.28807
G1 X133.518 Y154.294 E5.31329
G1 X134.581 Y154.803 E5.33851
G1 X135.687 Y155.211 E5.36373
G1 X136.827 Y155.512 E5.38896
G1 X137.990 Y155.706 E5.41418
G1 X139.166 Y155.790 E5.43940
G1 X140.344 Y155.763 E5.46462
G1 X141.515 Y155.626 E5.48984
G1 X142.668 Y155.380 E5.51506
G1 X143.793 Y155.027 E5.54028
G1 X144.879 Y154.570 E5.56550
G1 X145.919 Y154.014 E5.59073
G1 X146.901 Y153.362 E5.61595
G1 X147.818 Y152.621 E5.64117
G1 X148.662 Y151.798 E5.66639
G1 X149.425 Y150.899 E5.69161
G1 X150.100 Y149.933 E5.71683
G1 X150.681 Y148.908 E5.74205
G1 X151.165 Y147.832 E5.76727
G1 X151.545 Y146.716 E5.79249
G1 X151.619 Y146.407 E5.79930
G1 X151.819 Y145.570 E5.81772
G1 X151.984 Y144.403 E5.84294
G1 X152.039 Y143.225 E5.86816
G1 X151.984 Y142.047 E5.89338
G1 X151.819 Y140.880 E5.91860
G1 X151.545 Y139.734 E5.94382
G1 X151.165 Y138.618 E5.96904
G1 X150.681 Y137.542 E5.99426
G1 X150.100 Y136.517 E6.01949
G1 X149.425 Y135.551 E6.04471
G1 X148.662 Y134.652 E6.06993
G1 X147.818 Y133.829 E6.09515
G1 X146.901 Y133.088 E6.12037
G1 X145.919 Y132.436 E6.14559
G1 X144.879 Y131.880 E6.17081
G1 X143.793 Y131.423 E6.19603
G1 X142.668 Y131.070 E6.22125
G1 X141.515 Y130.824 E6.24648
G1 X140.344 Y130.687 E6.27170
G1 X139.166 Y130.660 E6.29692
G1 X137.990 Y130.744 E6.32214
G1 X136.827 Y130.938 E6.34736
G1 X135.687 Y131.239 E6.37258
G1 X134.581 Y131.647 E6.39780
G1 X133.518 Y132.156 E6.42302
G1 X132.507 Y132.762 E6.44824
G1 X131.607 Y133.424 E6.47214
G1 X131.358 Y133.579 E6.47842
G1 X131.137 Y133.648 E6.48337
G1 X130.906 Y133.661 E6.48832
G1 X130.680 Y133.616 E6.49326
G1 X130.471 Y133.517 E6.49821
G1 X130.293 Y133.369 E6.50316
G1 X130.158 Y133.181 E6.50810
G1 X130.073 Y132.966 E6.51305
G1 X130.039 Y132.692 E6.51897
G1 X130.039 Y118.702 E6.81829
G1 X129.980 Y117.802 E6.83757
G1 X129.799 Y116.895 E6.85735
G1 X129.502 Y116.020 E6.87714
G1 X129.218 Y115.444 E6.89088
G1 X129.093 Y115.190 E6.89692
G1 X128.579 Y114.421 E6.91670
G1 X127.970 Y113.726 E6.93649
G1 X127.274 Y113.117 E6.95627
G1 X126.505 Y112.603 E6.97606
G1 X125.676 Y112.194 E6.99584
G1 X124.800 Y111.897 E7.01562
G1 X123.894 Y111.716 E7.03541
G1 X122.994 Y111.657 E7.05469
G1 X104.039 Y111.657 E7.46024
G1 X104.039 Y106.793 E7.56431
G1 X173.923 Y106.793 E9.05947
G1 X174.604 Y106.883 E9.07416
G1 X175.195 Y107.131 E9.08787
G1 X175.697 Y107.521 E9.10147
G1 X176.083 Y108.032 E9.11516
G1 X176.321 Y108.624 E9.12883
G1 X176.413 Y109.403 E9.14561
G1 X179.259 Y120.195 E9.38438
G1 X179.160 Y120.260 E9.38691
G1 X178.583 Y119.817 E9.40249
G1 X177.564 Y119.395 E9.42608
G1 X176.518 Y119.257 E9.44866
G1 X173.424 Y119.257 E9.51485
G1 X172.378 Y119.395 E9.53743
G1 X171.359 Y119.817 E9.56102
G1 X170.484 Y120.488 E9.58461
G1 X169.813 Y121.363 E9.60820
G1 X169.391 Y122.382 E9.63179
G1 X169.247 Y123.475 E9.65539
G1 X169.391 Y124.568 E9.67898
G1 X169.813 Y125.587 E9.70257
G1 X170.484 Y126.462 E9.72616
G1 X171.359 Y127.133 E9.74975
G1 X172.378 Y127.555 E9.77334
G1 X173.424 Y127.693 E9.79592
G1 X174.979 Y127.693 E9.82919
G1 X175.024 Y127.866 E9.83302
G1 X173.777 Y128.563 E9.86359
G1 X172.627 Y129.333 E9.89319
G1 X171.543 Y130.193 E9.92279
G1 X170.532 Y131.137 E9.95239
G1 X169.600 Y132.160 E9.98199
G1 X168.754 Y133.254 E10.01159
G1 X167.998 Y134.413 E10.04119
G1 X167.337 Y135.629 E10.07078
G1 X166.777 Y136.894 E10.10038
G1 X166.320 Y138.200 E10.12998
G1 X165.970 Y139.538 E10.15958
G1 X165.729 Y140.900 E10.18918
G1 X165.597 Y142.278 E10.21878
G1 X165.577 Y143.661 E10.24838
G1 X165.669 Y145.041 E10.27798
G1 X165.871 Y146.410 E10.30758
G1 X166.153 Y147.629 E10.33434
G1 X164.693 Y147.024 E10.36813
G1 X163.647 Y146.886 E10.39071
G1 X160.553 Y146.886 E10.45690
G1 X159.507 Y147.024 E10.47948
G1 X158.488 Y147.446 E10.50307
G1 X157.613 Y148.117 E10.52666
G1 X156.942 Y148.992 E10.55025
G1 X156.508 Y150.040 E10.57453
G1 X156.376 Y151.107 E10.59752
G1 X156.520 Y152.197 E10.62105
G1 X156.942 Y153.216 E10.64464
G1 X157.613 Y154.091 E10.66823
G1 X158.488 Y154.762 E10.69182
G1 X159.506 Y155.184 E10.71541
G1 X160.553 Y155.322 E10.73799
G1 X163.647 Y155.322 E10.80420
G1 X164.693 Y155.184 E10.82677
G1 X165.712 Y154.762 E10.85036
G1 X166.587 Y154.091 E10.87396
G1 X167.258 Y153.216 E10.89755
G1 X167.858 Y151.768 E10.93108
G1 X168.472 Y152.772 E10.95625
G1 X169.287 Y153.890 E10.98585
G1 X170.189 Y154.939 E11.01545
G1 X171.172 Y155.912 E11.04505
G1 X172.231 Y156.803 E11.07465
G1 X173.358 Y157.605 E11.10425
G1 X174.545 Y158.315 E11.13385
G1 X175.786 Y158.927 E11.16345
G1 X177.072 Y159.437 E11.19305
G1 X178.395 Y159.842 E11.22265
G1 X179.747 Y160.139 E11.25225
G1 X181.117 Y160.326 E11.28185
G1 X182.499 Y160.403 E11.31145
G1 X183.882 Y160.368 E11.34105
G1 X185.258 Y160.222 E11.37065
G1 X186.145 Y160.055 E11.38997
G1 X186.227 Y160.239 E11.39428
G1 X185.306 Y160.935 E11.41898
G1 X185.190 Y159.759 F10800.000
G1 X186.512 Y159.510 E11.44777 F2400.000
G1 X187.810 Y159.156 E11.47656
G1 X189.290 Y158.627 E11.51017
G1 X190.296 Y158.363 E11.53242
G1 X190.514 Y158.321 E11.53718
G1 X190.736 Y158.307 E11.54194
G1 X192.001 Y158.328 E11.56900
G1 X193.224 Y158.647 E11.59606
G1 X193.435 Y158.720 E11.60082
G1 X193.634 Y158.819 E11.60558
G1 X194.719 Y159.469 E11.63264
G1 X195.619 Y160.357 E11.65969
G1 X195.765 Y160.524 E11.66445
G1 X195.888 Y160.710 E11.66921
G1 X196.503 Y161.815 E11.69627
G1 X196.840 Y163.034 E11.72333
G1 X196.883 Y163.252 E11.72809
G1 X196.893 Y164.517 E11.75515
G1 X196.877 Y164.739 E11.75991
G1 X196.560 Y165.963 E11.78696
G1 X196.488 Y166.174 E11.79172
G1 X196.389 Y166.373 E11.79648
G1 X195.740 Y167.459 E11.82354
G1 X195.593 Y167.625 E11.82830
G1 X194.686 Y168.507 E11.85536
G1 X194.501 Y168.630 E11.86012
G1 X193.396 Y169.246 E11.88718
G1 X193.186 Y169.317 E11.89194
G1 X191.959 Y169.628 E11.91899
G1 X190.695 Y169.639 E11.94605
G1 X184.251 Y168.862 E12.08492
G1 X178.013 Y168.237 E12.21904
G1 X171.763 Y167.751 E12.35315
G1 X165.504 Y167.403 E12.48727
G1 X159.239 Y167.195 E12.62139
G1 X152.972 Y167.125 E12.75547
G1 X134.982 Y167.125 E13.14037
G1 X133.707 Y166.970 E13.16785
G1 X133.363 Y166.869 E13.17553
G1 X132.474 Y166.501 E13.19609
G1 X132.119 Y166.302 E13.20481
G1 X131.362 Y165.721 E13.22524
G1 X131.060 Y165.442 E13.23401
G1 X130.480 Y164.685 E13.25443
G1 X130.252 Y164.344 E13.26319
G1 X129.746 Y163.080 E13.29234
G1 X129.571 Y161.709 E13.32190
G1 X129.571 Y153.729 E13.49264
G1 X129.616 Y153.367 E13.50044
G1 X129.744 Y153.042 E13.50790
G1 X129.948 Y152.760 E13.51537
